luts/subtle/espresso.cube
TITLE "espresso (subtle)"
LUT_3D_SIZE 6
0.019608 0.019608 0.019608
0.172549 0.019608 0.019608
0.372549 0.019608 0.019608
0.552941 0.019608 0.019608
0.725490 0.019608 0.019608
0.890196 0.023529 0.019608
0.019608 0.192157 0.019608
0.192157 0.192157 0.019608
0.384314 0.200000 0.019608
0.560784 0.203922 0.019608
0.725490 0.203922 0.019608
0.901961 0.215686 0.023529
0.027451 0.372549 0.019608
0.207843 0.384314 0.019608
0.388235 0.388235 0.019608
0.572549 0.392157 0.023529
0.733333 0.396078 0.027451
0.905882 0.400000 0.023529
0.035294 0.556863 0.019608
0.215686 0.564706 0.023529
0.396078 0.568627 0.019608
0.576471 0.568627 0.023529
0.741176 0.584314 0.039216
0.921569 0.584314 0.043137
0.031373 0.745098 0.031373
0.211765 0.749020 0.027451
0.396078 0.752941 0.043137
0.568627 0.756863 0.039216
0.752941 0.760784 0.047059
0.925490 0.764706 0.050980
0.043137 0.925490 0.043137
0.227451 0.929412 0.039216
0.407843 0.933333 0.054902
0.580392 0.937255 0.050980
0.756863 0.937255 0.054902
0.937255 0.937255 0.062745
0.019608 0.019608 0.172549
0.184314 0.019608 0.180392
0.368627 0.019608 0.176471
0.556863 0.019608 0.180392
0.717647 0.023529 0.188235
0.894118 0.023529 0.196078
0.019608 0.192157 0.192157
0.196078 0.196078 0.180392
0.384314 0.203922 0.176471
0.552941 0.203922 0.196078
0.725490 0.207843 0.192157
0.909804 0.211765 0.207843
0.027451 0.380392 0.184314
0.211765 0.388235 0.192157
0.396078 0.384314 0.192157
0.560784 0.392157 0.207843
0.737255 0.396078 0.203922
0.917647 0.400000 0.211765
0.035294 0.560784 0.192157
0.200000 0.568627 0.203922
0.388235 0.568627 0.207843
0.564706 0.576471 0.207843
0.752941 0.580392 0.223529
0.917647 0.588235 0.219608
0.027451 0.745098 0.207843
0.219608 0.752941 0.215686
0.396078 0.752941 0.219608
0.572549 0.756863 0.215686
0.756863 0.760784 0.223529
0.921569 0.764706 0.227451
0.047059 0.925490 0.219608
0.223529 0.929412 0.223529
0.403922 0.937255 0.223529
0.588235 0.937255 0.235294
0.760784 0.937255 0.239216
0.937255 0.937255 0.243137
0.027451 0.019608 0.349020
0.192157 0.019608 0.349020
0.372549 0.019608 0.356863
0.556863 0.019608 0.352941
0.717647 0.023529 0.368627
0.898039 0.023529 0.372549
0.027451 0.196078 0.356863
0.200000 0.200000 0.349020
0.388235 0.203922 0.360784
0.552941 0.207843 0.372549
0.733333 0.211765 0.380392
0.909804 0.215686 0.376471
0.027451 0.380392 0.356863
0.215686 0.384314 0.372549
0.384314 0.396078 0.380392
0.556863 0.396078 0.376471
0.741176 0.396078 0.388235
0.913725 0.403922 0.388235
0.031373 0.568627 0.368627
0.203922 0.568627 0.380392
0.384314 0.572549 0.384314
0.572549 0.576471 0.392157
0.749020 0.584314 0.400000
0.925490 0.592157 0.400000
0.031373 0.749020 0.384314
0.215686 0.752941 0.392157
0.396078 0.756863 0.396078
0.580392 0.756863 0.403922
0.756863 0.764706 0.400000
0.933333 0.760784 0.411765
0.043137 0.929412 0.400000
0.227451 0.937255 0.403922
0.407843 0.937255 0.407843
0.588235 0.937255 0.411765
0.764706 0.937255 0.411765
0.937255 0.937255 0.415686
0.031373 0.019608 0.517647
0.196078 0.019608 0.525490
0.376471 0.019608 0.521569
0.556863 0.023529 0.533333
0.721569 0.023529 0.545098
0.894118 0.027451 0.549020
0.031373 0.196078 0.521569
0.196078 0.203922 0.549020
0.368627 0.207843 0.545098
0.556863 0.203922 0.556863
0.733333 0.215686 0.556863
0.905882 0.219608 0.556863
0.031373 0.380392 0.541176
0.196078 0.388235 0.556863
0.380392 0.396078 0.556863
0.560784 0.396078 0.556863
0.741176 0.400000 0.568627
0.917647 0.400000 0.572549
0.035294 0.568627 0.552941
0.203922 0.572549 0.556863
0.388235 0.568627 0.564706
0.568627 0.580392 0.568627
0.745098 0.584314 0.564706
0.929412 0.592157 0.584314
0.031373 0.749020 0.564706
0.215686 0.756863 0.568627
0.396078 0.756863 0.572549
0.580392 0.760784 0.580392
0.756863 0.760784 0.584314
0.933333 0.764706 0.588235
0.039216 0.933333 0.572549
0.231373 0.937255 0.580392
0.407843 0.937255 0.584314
0.584314 0.937255 0.588235
0.768627 0.937255 0.596078
0.937255 0.937255 0.592157
0.023529 0.019608 0.713725
0.192157 0.019608 0.705882
0.368627 0.019608 0.701961
0.549020 0.023529 0.717647
0.717647 0.027451 0.717647
0.898039 0.035294 0.725490
0.023529 0.196078 0.713725
0.196078 0.203922 0.717647
0.372549 0.203922 0.721569
0.556863 0.215686 0.725490
0.729412 0.219608 0.729412
0.909804 0.219608 0.733333
0.023529 0.380392 0.717647
0.196078 0.384314 0.717647
0.384314 0.396078 0.737255
0.560784 0.396078 0.733333
0.745098 0.400000 0.749020
0.917647 0.403922 0.745098
0.027451 0.568627 0.733333
0.207843 0.568627 0.737255
0.392157 0.576471 0.745098
0.564706 0.584314 0.741176
0.749020 0.584314 0.745098
0.929412 0.596078 0.756863
0.039216 0.752941 0.745098
0.219608 0.756863 0.749020
0.396078 0.756863 0.745098
0.584314 0.760784 0.756863
0.756863 0.764706 0.756863
0.933333 0.776471 0.756863
0.047059 0.933333 0.745098
0.227451 0.937255 0.756863
0.403922 0.937255 0.756863
0.592157 0.937255 0.760784
0.764706 0.937255 0.764706
0.937255 0.937255 0.768627
0.019608 0.019608 0.874510
0.188235 0.019608 0.878431
0.368627 0.019608 0.882353
0.552941 0.023529 0.894118
0.721569 0.027451 0.898039
0.901961 0.035294 0.898039
0.019608 0.200000 0.882353
0.192157 0.203922 0.901961
0.380392 0.203922 0.898039
0.556863 0.215686 0.898039
0.733333 0.215686 0.909804
0.909804 0.219608 0.905882
0.019608 0.384314 0.890196
0.203922 0.388235 0.901961
0.388235 0.396078 0.909804
0.564706 0.396078 0.909804
0.745098 0.403922 0.909804
0.913725 0.407843 0.913725
0.031373 0.564706 0.909804
0.211765 0.568627 0.909804
0.396078 0.580392 0.909804
0.568627 0.580392 0.917647
0.749020 0.592157 0.917647
0.933333 0.592157 0.933333
0.043137 0.752941 0.913725
0.223529 0.756863 0.917647
0.400000 0.760784 0.925490
0.580392 0.764706 0.929412
0.756863 0.768627 0.925490
0.937255 0.772549 0.933333
0.054902 0.937255 0.925490
0.231373 0.937255 0.929412
0.407843 0.937255 0.933333
0.592157 0.937255 0.933333
0.768627 0.937255 0.937255
0.937255 0.937255 0.937255
