luts/subtle/espresso.cube
TITLE "espresso (subtle)"
LUT_3D_SIZE 8
0.019608 0.019608 0.019608
0.121569 0.019608 0.019608
0.254902 0.019608 0.019608
0.396078 0.019608 0.019608
0.525490 0.019608 0.019608
0.647059 0.023529 0.019608
0.768627 0.023529 0.019608
0.890196 0.023529 0.019608
0.019608 0.137255 0.019608
0.133333 0.137255 0.019608
0.258824 0.145098 0.019608
0.396078 0.145098 0.019608
0.533333 0.149020 0.019608
0.658824 0.149020 0.019608
0.772549 0.152941 0.019608
0.901961 0.156863 0.023529
0.023529 0.266667 0.019608
0.141176 0.270588 0.019608
0.270588 0.278431 0.019608
0.403922 0.278431 0.019608
0.537255 0.282353 0.019608
0.654902 0.286275 0.019608
0.780392 0.286275 0.027451
0.909804 0.290196 0.027451
0.031373 0.403922 0.019608
0.156863 0.403922 0.019608
0.282353 0.403922 0.019608
0.415686 0.407843 0.019608
0.549020 0.411765 0.023529
0.670588 0.419608 0.023529
0.784314 0.419608 0.027451
0.909804 0.427451 0.035294
0.035294 0.529412 0.019608
0.156863 0.533333 0.019608
0.294118 0.545098 0.023529
0.423529 0.541176 0.023529
0.549020 0.545098 0.019608
0.678431 0.549020 0.039216
0.788235 0.556863 0.035294
0.921569 0.556863 0.043137
0.027451 0.670588 0.023529
0.160784 0.666667 0.023529
0.290196 0.670588 0.023529
0.419608 0.678431 0.039216
0.549020 0.678431 0.039216
0.670588 0.678431 0.031373
0.796078 0.682353 0.043137
0.925490 0.686275 0.047059
0.031373 0.792157 0.031373
0.164706 0.796078 0.035294
0.290196 0.796078 0.039216
0.423529 0.800000 0.035294
0.545098 0.803922 0.039216
0.678431 0.807843 0.054902
0.803922 0.811765 0.050980
0.925490 0.811765 0.050980
0.043137 0.925490 0.043137
0.168627 0.925490 0.043137
0.294118 0.929412 0.039216
0.427451 0.937255 0.054902
0.556863 0.937255 0.050980
0.682353 0.937255 0.050980
0.807843 0.937255 0.050980
0.937255 0.937255 0.062745
0.019608 0.019608 0.121569
0.121569 0.019608 0.125490
0.258824 0.019608 0.125490
0.396078 0.019608 0.129412
0.525490 0.023529 0.117647
0.643137 0.023529 0.137255
0.764706 0.027451 0.137255
0.894118 0.027451 0.141176
0.019608 0.141176 0.129412
0.137255 0.141176 0.129412
0.266667 0.141176 0.125490
0.400000 0.145098 0.129412
0.529412 0.149020 0.137255
0.647059 0.152941 0.137255
0.772549 0.156863 0.141176
0.901961 0.164706 0.149020
0.023529 0.266667 0.129412
0.149020 0.266667 0.133333
0.278431 0.274510 0.133333
0.411765 0.278431 0.133333
0.529412 0.282353 0.137255
0.662745 0.286275 0.156863
0.784314 0.290196 0.156863
0.909804 0.290196 0.149020
0.031373 0.403922 0.133333
0.156863 0.407843 0.133333
0.290196 0.407843 0.129412
0.415686 0.411765 0.141176
0.541176 0.415686 0.152941
0.654902 0.419608 0.149020
0.780392 0.419608 0.152941
0.913725 0.427451 0.160784
0.035294 0.533333 0.137255
0.160784 0.541176 0.145098
0.286275 0.541176 0.149020
0.411765 0.549020 0.145098
0.545098 0.545098 0.149020
0.666667 0.549020 0.164706
0.796078 0.556863 0.164706
0.913725 0.556863 0.164706
0.031373 0.666667 0.149020
0.156863 0.670588 0.156863
0.286275 0.674510 0.152941
0.411765 0.678431 0.164706
0.545098 0.682353 0.164706
0.674510 0.678431 0.164706
0.796078 0.678431 0.176471
0.925490 0.690196 0.176471
0.027451 0.796078 0.149020
0.160784 0.800000 0.164706
0.294118 0.796078 0.168627
0.419608 0.800000 0.160784
0.552941 0.803922 0.176471
0.678431 0.811765 0.172549
0.800000 0.811765 0.176471
0.933333 0.815686 0.180392
0.043137 0.921569 0.168627
0.164706 0.929412 0.160784
0.294118 0.933333 0.176471
0.427451 0.937255 0.172549
0.556863 0.937255 0.176471
0.686275 0.937255 0.180392
0.807843 0.937255 0.188235
0.937255 0.937255 0.192157
0.023529 0.019608 0.243137
0.133333 0.019608 0.243137
0.266667 0.019608 0.250980
0.396078 0.019608 0.243137
0.529412 0.019608 0.247059
0.650980 0.023529 0.266667
0.772549 0.023529 0.262745
0.901961 0.027451 0.270588
0.023529 0.137255 0.250980
0.137255 0.141176 0.243137
0.266667 0.145098 0.250980
0.411765 0.145098 0.250980
0.525490 0.149020 0.262745
0.650980 0.152941 0.262745
0.768627 0.156863 0.274510
0.905882 0.164706 0.278431
0.023529 0.266667 0.258824
0.156863 0.278431 0.254902
0.282353 0.278431 0.254902
0.400000 0.278431 0.262745
0.521569 0.286275 0.274510
0.654902 0.286275 0.278431
0.780392 0.290196 0.274510
0.905882 0.294118 0.278431
0.031373 0.403922 0.258824
0.164706 0.400000 0.254902
0.274510 0.407843 0.266667
0.415686 0.411765 0.274510
0.529412 0.419608 0.274510
0.662745 0.419608 0.278431
0.792157 0.415686 0.290196
0.913725 0.423529 0.286275
0.035294 0.533333 0.258824
0.152941 0.541176 0.270588
0.278431 0.545098 0.282353
0.407843 0.545098 0.274510
0.533333 0.545098 0.286275
0.666667 0.556863 0.286275
0.792157 0.556863 0.290196
0.921569 0.556863 0.294118
0.035294 0.666667 0.278431
0.156863 0.670588 0.274510
0.286275 0.670588 0.286275
0.419608 0.678431 0.294118
0.545098 0.678431 0.290196
0.678431 0.682353 0.294118
0.803922 0.686275 0.298039
0.925490 0.686275 0.298039
0.031373 0.796078 0.286275
0.164706 0.796078 0.290196
0.290196 0.800000 0.290196
0.423529 0.803922 0.290196
0.549020 0.807843 0.301961
0.682353 0.811765 0.298039
0.803922 0.815686 0.301961
0.933333 0.811765 0.301961
0.043137 0.929412 0.290196
0.168627 0.929412 0.290196
0.298039 0.933333 0.301961
0.435294 0.937255 0.298039
0.556863 0.937255 0.301961
0.682353 0.937255 0.301961
0.815686 0.937255 0.313725
0.937255 0.937255 0.313725
0.027451 0.019608 0.372549
0.141176 0.019608 0.376471
0.266667 0.019608 0.372549
0.396078 0.019608 0.376471
0.525490 0.023529 0.376471
0.647059 0.023529 0.388235
0.772549 0.027451 0.396078
0.898039 0.027451 0.396078
0.027451 0.141176 0.372549
0.145098 0.141176 0.368627
0.278431 0.137255 0.380392
0.411765 0.149020 0.380392
0.529412 0.152941 0.392157
0.650980 0.156863 0.396078
0.780392 0.160784 0.403922
0.909804 0.160784 0.403922
0.027451 0.266667 0.384314
0.156863 0.274510 0.384314
0.270588 0.278431 0.388235
0.403922 0.278431 0.396078
0.525490 0.282353 0.396078
0.662745 0.290196 0.403922
0.780392 0.294118 0.407843
0.909804 0.290196 0.407843
0.031373 0.407843 0.388235
0.164706 0.403922 0.392157
0.282353 0.407843 0.396078
0.407843 0.415686 0.403922
0.533333 0.419608 0.407843
0.658824 0.419608 0.407843
0.796078 0.427451 0.419608
0.913725 0.427451 0.411765
0.035294 0.533333 0.396078
0.160784 0.541176 0.396078
0.286275 0.541176 0.403922
0.415686 0.545098 0.415686
0.545098 0.552941 0.415686
0.674510 0.556863 0.419608
0.796078 0.556863 0.415686
0.921569 0.556863 0.423529
0.031373 0.666667 0.400000
0.156863 0.674510 0.415686
0.290196 0.678431 0.415686
0.411765 0.678431 0.415686
0.549020 0.682353 0.415686
0.674510 0.678431 0.423529
0.796078 0.686275 0.431373
0.925490 0.694118 0.427451
0.035294 0.800000 0.415686
0.168627 0.800000 0.415686
0.298039 0.800000 0.415686
0.423529 0.803922 0.423529
0.556863 0.811765 0.431373
0.678431 0.811765 0.423529
0.807843 0.815686 0.427451
0.937255 0.819608 0.443137
0.035294 0.929412 0.415686
0.164706 0.929412 0.419608
0.301961 0.937255 0.431373
0.431373 0.937255 0.431373
0.556863 0.937255 0.423529
0.686275 0.937255 0.443137
0.807843 0.937255 0.435294
0.937255 0.937255 0.443137
0.031373 0.019608 0.494118
0.145098 0.019608 0.490196
0.270588 0.019608 0.498039
0.400000 0.019608 0.505882
0.521569 0.023529 0.501961
0.658824 0.023529 0.513725
0.768627 0.027451 0.521569
0.901961 0.027451 0.525490
0.031373 0.141176 0.494118
0.137255 0.145098 0.513725
0.270588 0.145098 0.513725
0.400000 0.149020 0.513725
0.529412 0.156863 0.517647
0.647059 0.156863 0.521569
0.772549 0.160784 0.529412
0.905882 0.164706 0.525490
0.031373 0.270588 0.509804
0.149020 0.278431 0.513725
0.266667 0.282353 0.517647
0.396078 0.278431 0.525490
0.533333 0.290196 0.529412
0.658824 0.290196 0.529412
0.780392 0.290196 0.529412
0.909804 0.294118 0.537255
0.035294 0.403922 0.509804
0.149020 0.403922 0.521569
0.278431 0.415686 0.529412
0.400000 0.419608 0.529412
0.529412 0.419608 0.529412
0.670588 0.419608 0.537255
0.792157 0.427451 0.545098
0.921569 0.431373 0.541176
0.035294 0.541176 0.521569
0.156863 0.549020 0.525490
0.286275 0.545098 0.537255
0.407843 0.545098 0.533333
0.545098 0.556863 0.545098
0.666667 0.556863 0.545098
0.792157 0.556863 0.545098
0.925490 0.560784 0.556863
0.035294 0.670588 0.533333
0.160784 0.670588 0.533333
0.286275 0.678431 0.537255
0.423529 0.678431 0.545098
0.545098 0.678431 0.545098
0.682353 0.686275 0.556863
0.796078 0.690196 0.549020
0.925490 0.690196 0.552941
0.039216 0.800000 0.537255
0.164706 0.800000 0.541176
0.298039 0.803922 0.552941
0.423529 0.811765 0.552941
0.552941 0.811765 0.552941
0.682353 0.815686 0.552941
0.803922 0.815686 0.556863
0.937255 0.827451 0.560784
0.043137 0.929412 0.552941
0.172549 0.937255 0.552941
0.298039 0.937255 0.552941
0.435294 0.937255 0.552941
0.560784 0.937255 0.556863
0.686275 0.937255 0.564706
0.815686 0.937255 0.560784
0.937255 0.937255 0.564706
0.023529 0.019608 0.631373
0.137255 0.019608 0.631373
0.266667 0.019608 0.635294
0.396078 0.023529 0.639216
0.529412 0.023529 0.639216
0.658824 0.027451 0.639216
0.772549 0.027451 0.654902
0.898039 0.027451 0.647059
0.023529 0.141176 0.635294
0.137255 0.141176 0.639216
0.262745 0.149020 0.639216
0.396078 0.152941 0.639216
0.517647 0.152941 0.647059
0.650980 0.156863 0.647059
0.784314 0.160784 0.654902
0.909804 0.160784 0.654902
0.023529 0.274510 0.639216
0.137255 0.278431 0.643137
0.266667 0.282353 0.647059
0.396078 0.282353 0.650980
0.529412 0.290196 0.647059
0.654902 0.294118 0.654902
0.780392 0.294118 0.662745
0.913725 0.298039 0.666667
0.027451 0.407843 0.643137
0.149020 0.407843 0.650980
0.278431 0.411765 0.654902
0.407843 0.419608 0.654902
0.541176 0.415686 0.662745
0.674510 0.427451 0.666667
0.796078 0.427451 0.666667
0.913725 0.427451 0.670588
0.035294 0.541176 0.650980
0.152941 0.545098 0.650980
0.278431 0.545098 0.658824
0.419608 0.549020 0.670588
0.541176 0.556863 0.662745
0.674510 0.556863 0.678431
0.796078 0.556863 0.670588
0.925490 0.556863 0.678431
0.035294 0.674510 0.658824
0.164706 0.678431 0.670588
0.290196 0.678431 0.662745
0.423529 0.678431 0.678431
0.552941 0.682353 0.670588
0.678431 0.686275 0.678431
0.803922 0.690196 0.678431
0.925490 0.694118 0.682353
0.043137 0.800000 0.670588
0.168627 0.800000 0.674510
0.290196 0.803922 0.674510
0.431373 0.811765 0.678431
0.560784 0.807843 0.678431
0.682353 0.807843 0.686275
0.811765 0.815686 0.682353
0.937255 0.819608 0.690196
0.039216 0.929412 0.674510
0.180392 0.937255 0.678431
0.301961 0.937255 0.678431
0.431373 0.937255 0.686275
0.556863 0.937255 0.682353
0.686275 0.937255 0.690196
0.815686 0.937255 0.682353
0.937255 0.937255 0.698039
0.019608 0.019608 0.756863
0.133333 0.019608 0.756863
0.254902 0.019608 0.756863
0.384314 0.023529 0.760784
0.521569 0.027451 0.764706
0.647059 0.027451 0.772549
0.768627 0.027451 0.764706
0.901961 0.039216 0.776471
0.019608 0.137255 0.756863
0.137255 0.145098 0.760784
0.266667 0.149020 0.764706
0.396078 0.149020 0.768627
0.521569 0.156863 0.772549
0.658824 0.160784 0.772549
0.780392 0.160784 0.772549
0.909804 0.164706 0.780392
0.019608 0.278431 0.764706
0.141176 0.278431 0.768627
0.274510 0.278431 0.768627
0.407843 0.286275 0.780392
0.533333 0.290196 0.772549
0.658824 0.290196 0.784314
0.784314 0.298039 0.780392
0.917647 0.298039 0.788235
0.019608 0.407843 0.768627
0.152941 0.415686 0.780392
0.278431 0.419608 0.772549
0.403922 0.419608 0.784314
0.541176 0.419608 0.788235
0.666667 0.427451 0.788235
0.792157 0.427451 0.788235
0.913725 0.435294 0.796078
0.027451 0.537255 0.776471
0.160784 0.545098 0.784314
0.286275 0.545098 0.784314
0.415686 0.552941 0.784314
0.545098 0.556863 0.788235
0.674510 0.552941 0.796078
0.796078 0.556863 0.792157
0.925490 0.560784 0.800000
0.031373 0.670588 0.784314
0.156863 0.678431 0.784314
0.294118 0.678431 0.788235
0.419608 0.678431 0.796078
0.545098 0.682353 0.792157
0.678431 0.690196 0.800000
0.800000 0.690196 0.800000
0.937255 0.690196 0.807843
0.039216 0.800000 0.784314
0.164706 0.800000 0.792157
0.298039 0.803922 0.796078
0.423529 0.811765 0.796078
0.556863 0.807843 0.803922
0.682353 0.815686 0.803922
0.807843 0.819608 0.807843
0.937255 0.827451 0.815686
0.050980 0.925490 0.796078
0.176471 0.937255 0.796078
0.298039 0.937255 0.803922
0.435294 0.937255 0.803922
0.556863 0.937255 0.807843
0.698039 0.937255 0.815686
0.815686 0.937255 0.815686
0.937255 0.937255 0.815686
0.019608 0.019608 0.874510
0.133333 0.019608 0.886275
0.250980 0.019608 0.878431
0.396078 0.023529 0.890196
0.521569 0.023529 0.890196
0.650980 0.027451 0.898039
0.776471 0.027451 0.898039
0.901961 0.035294 0.898039
0.019608 0.137255 0.886275
0.137255 0.149020 0.886275
0.266667 0.152941 0.898039
0.396078 0.156863 0.894118
0.517647 0.156863 0.894118
0.662745 0.160784 0.905882
0.780392 0.164706 0.905882
0.909804 0.164706 0.909804
0.019608 0.278431 0.894118
0.149020 0.278431 0.901961
0.274510 0.282353 0.894118
0.403922 0.286275 0.901961
0.533333 0.290196 0.909804
0.658824 0.294118 0.909804
0.788235 0.294118 0.909804
0.913725 0.298039 0.909804
0.023529 0.407843 0.894118
0.152941 0.411765 0.901961
0.274510 0.415686 0.909804
0.415686 0.415686 0.909804
0.533333 0.419608 0.909804
0.674510 0.427451 0.909804
0.792157 0.431373 0.917647
0.917647 0.431373 0.913725
0.027451 0.541176 0.909804
0.152941 0.545098 0.901961
0.286275 0.549020 0.909804
0.411765 0.556863 0.913725
0.541176 0.556863 0.913725
0.674510 0.556863 0.921569
0.800000 0.560784 0.917647
0.925490 0.568627 0.925490
0.031373 0.674510 0.909804
0.168627 0.678431 0.913725
0.290196 0.678431 0.913725
0.423529 0.678431 0.921569
0.556863 0.686275 0.925490
0.678431 0.686275 0.917647
0.811765 0.690196 0.933333
0.933333 0.690196 0.925490
0.043137 0.800000 0.921569
0.164706 0.803922 0.913725
0.298039 0.807843 0.921569
0.431373 0.811765 0.917647
0.556863 0.811765 0.929412
0.686275 0.815686 0.933333
0.807843 0.827451 0.933333
0.937255 0.823529 0.937255
0.054902 0.937255 0.925490
0.180392 0.937255 0.925490
0.305882 0.937255 0.929412
0.435294 0.937255 0.933333
0.564706 0.937255 0.933333
0.694118 0.937255 0.937255
0.815686 0.937255 0.937255
0.937255 0.937255 0.937255
