luts/subtle/espresso.cube
TITLE "espresso (subtle)"
LUT_3D_SIZE 36
0.019608 0.019608 0.019608
0.023529 0.019608 0.019608
0.047059 0.019608 0.019608
0.070588 0.019608 0.019608
0.094118 0.019608 0.019608
0.121569 0.019608 0.019608
0.145098 0.019608 0.019608
0.172549 0.019608 0.019608
0.200000 0.019608 0.019608
0.231373 0.019608 0.019608
0.254902 0.019608 0.019608
0.286275 0.019608 0.019608
0.309804 0.019608 0.019608
0.337255 0.019608 0.019608
0.372549 0.019608 0.019608
0.396078 0.019608 0.019608
0.427451 0.019608 0.019608
0.447059 0.019608 0.019608
0.478431 0.019608 0.019608
0.501961 0.019608 0.019608
0.525490 0.019608 0.019608
0.552941 0.019608 0.019608
0.580392 0.019608 0.019608
0.596078 0.023529 0.019608
0.619608 0.023529 0.019608
0.647059 0.023529 0.019608
0.674510 0.023529 0.019608
0.690196 0.019608 0.019608
0.725490 0.019608 0.019608
0.741176 0.023529 0.019608
0.768627 0.023529 0.019608
0.796078 0.023529 0.023529
0.819608 0.027451 0.019608
0.843137 0.027451 0.019608
0.866667 0.023529 0.019608
0.890196 0.023529 0.019608
0.019608 0.031373 0.019608
0.023529 0.027451 0.019608
0.047059 0.027451 0.019608
0.074510 0.027451 0.019608
0.101961 0.031373 0.019608
0.121569 0.035294 0.019608
0.145098 0.035294 0.019608
0.180392 0.031373 0.019608
0.203922 0.035294 0.019608
0.231373 0.035294 0.019608
0.258824 0.035294 0.019608
0.286275 0.039216 0.019608
0.313725 0.039216 0.019608
0.345098 0.039216 0.019608
0.372549 0.039216 0.019608
0.396078 0.043137 0.019608
0.423529 0.039216 0.019608
0.447059 0.039216 0.019608
0.474510 0.039216 0.019608
0.501961 0.043137 0.019608
0.525490 0.043137 0.019608
0.556863 0.043137 0.019608
0.584314 0.043137 0.019608
0.600000 0.039216 0.019608
0.623529 0.043137 0.019608
0.643137 0.043137 0.019608
0.674510 0.050980 0.019608
0.701961 0.047059 0.019608
0.725490 0.047059 0.019608
0.749020 0.050980 0.023529
0.764706 0.054902 0.023529
0.788235 0.050980 0.019608
0.819608 0.050980 0.019608
0.843137 0.050980 0.019608
0.870588 0.050980 0.019608
0.894118 0.054902 0.019608
0.019608 0.054902 0.019608
0.023529 0.058824 0.019608
0.047059 0.058824 0.019608
0.070588 0.054902 0.019608
0.105882 0.058824 0.019608
0.129412 0.050980 0.019608
0.152941 0.062745 0.019608
0.180392 0.062745 0.019608
0.203922 0.066667 0.019608
0.231373 0.066667 0.019608
0.258824 0.066667 0.019608
0.294118 0.066667 0.019608
0.309804 0.066667 0.019608
0.337255 0.066667 0.019608
0.372549 0.062745 0.019608
0.396078 0.066667 0.019608
0.427451 0.066667 0.019608
0.450980 0.066667 0.019608
0.474510 0.074510 0.019608
0.501961 0.074510 0.019608
0.529412 0.066667 0.019608
0.556863 0.066667 0.019608
0.580392 0.070588 0.019608
0.600000 0.070588 0.019608
0.631373 0.074510 0.019608
0.650980 0.074510 0.019608
0.678431 0.078431 0.019608
0.694118 0.074510 0.019608
0.717647 0.074510 0.019608
0.749020 0.074510 0.019608
0.772549 0.074510 0.019608
0.796078 0.078431 0.023529
0.819608 0.078431 0.019608
0.843137 0.078431 0.019608
0.866667 0.078431 0.019608
0.901961 0.078431 0.019608
0.019608 0.082353 0.019608
0.019608 0.078431 0.019608
0.043137 0.082353 0.019608
0.078431 0.078431 0.019608
0.105882 0.082353 0.019608
0.133333 0.082353 0.019608
0.156863 0.086275 0.019608
0.184314 0.086275 0.019608
0.203922 0.082353 0.019608
0.231373 0.086275 0.019608
0.258824 0.086275 0.019608
0.290196 0.086275 0.019608
0.317647 0.090196 0.019608
0.345098 0.090196 0.019608
0.372549 0.090196 0.019608
0.396078 0.090196 0.019608
0.423529 0.090196 0.019608
0.447059 0.090196 0.019608
0.482353 0.090196 0.019608
0.501961 0.094118 0.019608
0.525490 0.094118 0.019608
0.556863 0.094118 0.019608
0.584314 0.098039 0.019608
0.603922 0.094118 0.019608
0.631373 0.094118 0.019608
0.647059 0.098039 0.019608
0.674510 0.098039 0.019608
0.694118 0.101961 0.019608
0.725490 0.098039 0.019608
0.749020 0.098039 0.023529
0.772549 0.101961 0.023529
0.796078 0.098039 0.019608
0.819608 0.098039 0.019608
0.843137 0.101961 0.019608
0.870588 0.101961 0.019608
0.898039 0.101961 0.019608
0.019608 0.109804 0.019608
0.019608 0.109804 0.019608
0.047059 0.117647 0.019608
0.078431 0.113725 0.019608
0.105882 0.113725 0.019608
0.133333 0.117647 0.019608
0.156863 0.117647 0.019608
0.184314 0.117647 0.019608
0.207843 0.121569 0.019608
0.231373 0.117647 0.019608
0.258824 0.117647 0.019608
0.286275 0.117647 0.019608
0.321569 0.117647 0.019608
0.349020 0.117647 0.019608
0.372549 0.121569 0.019608
0.396078 0.125490 0.019608
0.423529 0.121569 0.019608
0.447059 0.121569 0.019608
0.482353 0.121569 0.019608
0.509804 0.117647 0.019608
0.529412 0.129412 0.019608
0.560784 0.125490 0.019608
0.584314 0.125490 0.019608
0.607843 0.129412 0.019608
0.631373 0.125490 0.019608
0.650980 0.125490 0.019608
0.674510 0.129412 0.019608
0.694118 0.133333 0.019608
0.725490 0.129412 0.019608
0.749020 0.133333 0.019608
0.772549 0.133333 0.019608
0.796078 0.129412 0.019608
0.819608 0.129412 0.019608
0.843137 0.133333 0.019608
0.870588 0.133333 0.019608
0.894118 0.133333 0.019608
0.019608 0.137255 0.019608
0.031373 0.137255 0.019608
0.050980 0.141176 0.019608
0.078431 0.141176 0.019608
0.105882 0.141176 0.019608
0.133333 0.137255 0.019608
0.156863 0.137255 0.019608
0.184314 0.137255 0.019608
0.203922 0.141176 0.019608
0.231373 0.145098 0.019608
0.258824 0.145098 0.019608
0.294118 0.141176 0.019608
0.317647 0.137255 0.019608
0.345098 0.141176 0.019608
0.372549 0.141176 0.019608
0.396078 0.145098 0.019608
0.427451 0.145098 0.019608
0.450980 0.145098 0.019608
0.486275 0.149020 0.019608
0.513725 0.152941 0.019608
0.533333 0.149020 0.019608
0.556863 0.149020 0.019608
0.584314 0.149020 0.019608
0.603922 0.149020 0.019608
0.631373 0.152941 0.019608
0.658824 0.149020 0.019608
0.678431 0.152941 0.019608
0.694118 0.152941 0.019608
0.725490 0.156863 0.019608
0.745098 0.152941 0.019608
0.772549 0.152941 0.019608
0.796078 0.152941 0.019608
0.827451 0.152941 0.019608
0.843137 0.160784 0.019608
0.870588 0.160784 0.019608
0.901961 0.156863 0.023529
0.019608 0.164706 0.019608
0.027451 0.160784 0.019608
0.054902 0.164706 0.019608
0.074510 0.168627 0.019608
0.105882 0.164706 0.019608
0.133333 0.164706 0.019608
0.156863 0.168627 0.019608
0.192157 0.164706 0.019608
0.215686 0.164706 0.019608
0.231373 0.164706 0.019608
0.258824 0.168627 0.019608
0.290196 0.168627 0.019608
0.317647 0.168627 0.019608
0.345098 0.172549 0.019608
0.376471 0.168627 0.019608
0.396078 0.172549 0.019608
0.423529 0.168627 0.019608
0.450980 0.176471 0.019608
0.486275 0.172549 0.019608
0.513725 0.172549 0.019608
0.537255 0.176471 0.019608
0.560784 0.176471 0.019608
0.584314 0.180392 0.019608
0.611765 0.180392 0.019608
0.631373 0.176471 0.019608
0.654902 0.176471 0.019608
0.678431 0.180392 0.019608
0.701961 0.180392 0.019608
0.725490 0.180392 0.019608
0.749020 0.180392 0.019608
0.772549 0.184314 0.019608
0.796078 0.180392 0.019608
0.831373 0.184314 0.019608
0.850980 0.180392 0.019608
0.874510 0.184314 0.027451
0.901961 0.188235 0.027451
0.019608 0.192157 0.019608
0.031373 0.192157 0.019608
0.054902 0.192157 0.019608
0.078431 0.192157 0.019608
0.105882 0.192157 0.019608
0.133333 0.192157 0.019608
0.156863 0.196078 0.019608
0.192157 0.192157 0.019608
0.215686 0.192157 0.019608
0.239216 0.192157 0.019608
0.258824 0.196078 0.019608
0.286275 0.196078 0.019608
0.317647 0.200000 0.019608
0.349020 0.196078 0.019608
0.384314 0.200000 0.019608
0.411765 0.200000 0.019608
0.431373 0.203922 0.019608
0.450980 0.203922 0.019608
0.486275 0.200000 0.019608
0.513725 0.200000 0.019608
0.537255 0.203922 0.019608
0.560784 0.203922 0.019608
0.584314 0.207843 0.019608
0.607843 0.207843 0.019608
0.631373 0.203922 0.019608
0.650980 0.203922 0.019608
0.678431 0.207843 0.019608
0.701961 0.207843 0.019608
0.725490 0.203922 0.019608
0.749020 0.207843 0.019608
0.772549 0.211765 0.019608
0.796078 0.207843 0.019608
0.831373 0.211765 0.031373
0.854902 0.207843 0.027451
0.878431 0.211765 0.031373
0.901961 0.215686 0.023529
0.019608 0.215686 0.019608
0.031373 0.215686 0.019608
0.058824 0.219608 0.019608
0.082353 0.219608 0.019608
0.109804 0.219608 0.019608
0.129412 0.219608 0.019608
0.156863 0.219608 0.019608
0.184314 0.219608 0.019608
0.211765 0.219608 0.019608
0.239216 0.223529 0.019608
0.266667 0.223529 0.019608
0.294118 0.223529 0.019608
0.325490 0.227451 0.019608
0.349020 0.227451 0.019608
0.376471 0.227451 0.019608
0.411765 0.223529 0.019608
0.439216 0.227451 0.019608
0.458824 0.231373 0.019608
0.486275 0.231373 0.019608
0.513725 0.231373 0.019608
0.533333 0.227451 0.019608
0.568627 0.231373 0.019608
0.588235 0.227451 0.019608
0.603922 0.235294 0.019608
0.631373 0.235294 0.019608
0.658824 0.231373 0.019608
0.678431 0.235294 0.019608
0.705882 0.235294 0.019608
0.725490 0.235294 0.019608
0.749020 0.231373 0.019608
0.772549 0.239216 0.027451
0.796078 0.239216 0.027451
0.831373 0.239216 0.031373
0.854902 0.239216 0.031373
0.878431 0.243137 0.023529
0.909804 0.239216 0.027451
0.023529 0.243137 0.019608
0.035294 0.243137 0.019608
0.058824 0.243137 0.019608
0.082353 0.243137 0.019608
0.117647 0.243137 0.019608
0.137255 0.243137 0.019608
0.160784 0.243137 0.019608
0.188235 0.247059 0.019608
0.219608 0.247059 0.019608
0.243137 0.243137 0.019608
0.266667 0.243137 0.019608
0.298039 0.247059 0.019608
0.321569 0.250980 0.019608
0.349020 0.250980 0.019608
0.384314 0.250980 0.019608
0.411765 0.250980 0.019608
0.439216 0.250980 0.019608
0.458824 0.250980 0.019608
0.486275 0.250980 0.019608
0.513725 0.250980 0.019608
0.537255 0.250980 0.019608
0.560784 0.254902 0.019608
0.584314 0.254902 0.019608
0.611765 0.258824 0.019608
0.635294 0.254902 0.019608
0.658824 0.258824 0.019608
0.678431 0.254902 0.019608
0.701961 0.258824 0.019608
0.733333 0.258824 0.027451
0.756863 0.258824 0.027451
0.776471 0.262745 0.031373
0.803922 0.262745 0.031373
0.831373 0.266667 0.031373
0.850980 0.262745 0.023529
0.878431 0.262745 0.023529
0.905882 0.262745 0.023529
0.023529 0.266667 0.019608
0.035294 0.266667 0.019608
0.062745 0.266667 0.019608
0.086275 0.270588 0.019608
0.113725 0.270588 0.019608
0.141176 0.270588 0.019608
0.156863 0.270588 0.019608
0.192157 0.270588 0.019608
0.215686 0.270588 0.019608
0.243137 0.274510 0.019608
0.270588 0.278431 0.019608
0.305882 0.274510 0.019608
0.325490 0.278431 0.019608
0.349020 0.274510 0.019608
0.376471 0.278431 0.019608
0.403922 0.278431 0.019608
0.435294 0.278431 0.019608
0.462745 0.278431 0.019608
0.490196 0.278431 0.019608
0.513725 0.282353 0.019608
0.537255 0.282353 0.019608
0.568627 0.282353 0.019608
0.588235 0.278431 0.019608
0.611765 0.282353 0.019608
0.635294 0.282353 0.019608
0.654902 0.286275 0.019608
0.682353 0.286275 0.023529
0.713725 0.286275 0.027451
0.733333 0.290196 0.031373
0.756863 0.286275 0.027451
0.780392 0.286275 0.027451
0.796078 0.290196 0.027451
0.831373 0.290196 0.023529
0.854902 0.290196 0.023529
0.878431 0.294118 0.023529
0.909804 0.290196 0.027451
0.023529 0.294118 0.019608
0.039216 0.298039 0.019608
0.066667 0.298039 0.019608
0.090196 0.298039 0.019608
0.117647 0.298039 0.019608
0.141176 0.298039 0.019608
0.164706 0.298039 0.019608
0.196078 0.301961 0.019608
0.223529 0.301961 0.019608
0.247059 0.301961 0.019608
0.274510 0.301961 0.019608
0.305882 0.301961 0.019608
0.333333 0.301961 0.019608
0.349020 0.301961 0.019608
0.380392 0.309804 0.019608
0.400000 0.305882 0.019608
0.439216 0.301961 0.019608
0.462745 0.305882 0.019608
0.490196 0.305882 0.019608
0.513725 0.305882 0.019608
0.537255 0.313725 0.019608
0.568627 0.309804 0.019608
0.588235 0.305882 0.019608
0.611765 0.305882 0.019608
0.639216 0.309804 0.023529
0.662745 0.313725 0.023529
0.682353 0.313725 0.027451
0.709804 0.313725 0.031373
0.733333 0.317647 0.023529
0.756863 0.317647 0.027451
0.780392 0.313725 0.023529
0.803922 0.317647 0.023529
0.831373 0.317647 0.023529
0.854902 0.317647 0.027451
0.878431 0.317647 0.027451
0.909804 0.317647 0.027451
0.023529 0.321569 0.019608
0.043137 0.321569 0.019608
0.062745 0.321569 0.019608
0.086275 0.321569 0.019608
0.121569 0.321569 0.019608
0.149020 0.325490 0.019608
0.176471 0.325490 0.019608
0.200000 0.329412 0.019608
0.223529 0.333333 0.019608
0.250980 0.329412 0.019608
0.274510 0.325490 0.019608
0.298039 0.329412 0.019608
0.329412 0.329412 0.019608
0.356863 0.329412 0.019608
0.384314 0.333333 0.019608
0.411765 0.333333 0.019608
0.439216 0.333333 0.019608
0.458824 0.333333 0.019608
0.498039 0.333333 0.019608
0.517647 0.329412 0.019608
0.537255 0.333333 0.019608
0.560784 0.337255 0.019608
0.592157 0.341176 0.023529
0.615686 0.341176 0.023529
0.639216 0.341176 0.027451
0.666667 0.341176 0.027451
0.686275 0.337255 0.023529
0.705882 0.341176 0.027451
0.733333 0.341176 0.023529
0.756863 0.341176 0.023529
0.784314 0.341176 0.023529
0.807843 0.345098 0.027451
0.831373 0.345098 0.027451
0.850980 0.345098 0.023529
0.874510 0.345098 0.023529
0.905882 0.345098 0.027451
0.027451 0.345098 0.019608
0.043137 0.349020 0.019608
0.070588 0.349020 0.019608
0.098039 0.349020 0.019608
0.129412 0.352941 0.019608
0.152941 0.352941 0.019608
0.176471 0.349020 0.019608
0.203922 0.349020 0.019608
0.235294 0.349020 0.019608
0.250980 0.352941 0.019608
0.278431 0.352941 0.019608
0.309804 0.352941 0.019608
0.337255 0.352941 0.019608
0.360784 0.352941 0.019608
0.388235 0.356863 0.019608
0.403922 0.356863 0.019608
0.435294 0.356863 0.019608
0.458824 0.356863 0.019608
0.494118 0.356863 0.019608
0.517647 0.356863 0.019608
0.549020 0.360784 0.023529
0.572549 0.364706 0.023529
0.592157 0.360784 0.019608
0.615686 0.360784 0.023529
0.639216 0.360784 0.023529
0.662745 0.364706 0.023529
0.682353 0.364706 0.027451
0.713725 0.364706 0.031373
0.733333 0.368627 0.023529
0.756863 0.368627 0.027451
0.780392 0.364706 0.023529
0.803922 0.364706 0.023529
0.835294 0.364706 0.023529
0.862745 0.364706 0.027451
0.878431 0.368627 0.027451
0.905882 0.372549 0.027451
0.027451 0.372549 0.019608
0.054902 0.376471 0.019608
0.078431 0.376471 0.019608
0.098039 0.380392 0.019608
0.125490 0.384314 0.019608
0.152941 0.384314 0.019608
0.176471 0.380392 0.019608
0.207843 0.384314 0.019608
0.231373 0.380392 0.019608
0.254902 0.380392 0.019608
0.278431 0.384314 0.019608
0.309804 0.384314 0.019608
0.337255 0.384314 0.019608
0.360784 0.388235 0.019608
0.388235 0.388235 0.019608
0.411765 0.384314 0.019608
0.435294 0.388235 0.019608
0.458824 0.388235 0.019608
0.498039 0.392157 0.019608
0.521569 0.392157 0.019608
0.549020 0.392157 0.023529
0.572549 0.392157 0.023529
0.596078 0.396078 0.023529
0.615686 0.392157 0.023529
0.639216 0.392157 0.027451
0.662745 0.396078 0.023529
0.682353 0.396078 0.023529
0.717647 0.396078 0.027451
0.733333 0.396078 0.027451
0.756863 0.396078 0.027451
0.780392 0.396078 0.023529
0.803922 0.396078 0.027451
0.831373 0.396078 0.027451
0.862745 0.396078 0.027451
0.886275 0.396078 0.031373
0.905882 0.400000 0.023529
0.031373 0.403922 0.019608
0.058824 0.403922 0.019608
0.082353 0.403922 0.019608
0.105882 0.400000 0.019608
0.133333 0.403922 0.019608
0.156863 0.403922 0.019608
0.184314 0.403922 0.019608
0.207843 0.403922 0.019608
0.235294 0.407843 0.019608
0.258824 0.407843 0.019608
0.282353 0.403922 0.019608
0.305882 0.407843 0.019608
0.337255 0.407843 0.019608
0.360784 0.407843 0.019608
0.392157 0.407843 0.019608
0.415686 0.407843 0.019608
0.447059 0.411765 0.019608
0.466667 0.415686 0.019608
0.494118 0.415686 0.023529
0.513725 0.415686 0.019608
0.549020 0.411765 0.023529
0.572549 0.411765 0.023529
0.596078 0.415686 0.023529
0.615686 0.419608 0.023529
0.639216 0.419608 0.023529
0.670588 0.419608 0.023529
0.686275 0.415686 0.023529
0.713725 0.415686 0.023529
0.733333 0.419608 0.023529
0.756863 0.419608 0.027451
0.784314 0.419608 0.027451
0.807843 0.419608 0.027451
0.831373 0.423529 0.031373
0.858824 0.423529 0.031373
0.878431 0.419608 0.027451
0.909804 0.427451 0.035294
0.031373 0.427451 0.019608
0.050980 0.431373 0.019608
0.078431 0.431373 0.019608
0.109804 0.427451 0.019608
0.137255 0.431373 0.019608
0.156863 0.435294 0.019608
0.184314 0.435294 0.019608
0.215686 0.431373 0.019608
0.239216 0.431373 0.019608
0.262745 0.431373 0.019608
0.290196 0.431373 0.019608
0.305882 0.439216 0.019608
0.341176 0.435294 0.019608
0.364706 0.435294 0.019608
0.396078 0.439216 0.019608
0.415686 0.439216 0.019608
0.443137 0.439216 0.019608
0.470588 0.439216 0.019608
0.498039 0.439216 0.019608
0.521569 0.443137 0.019608
0.549020 0.443137 0.023529
0.576471 0.439216 0.023529
0.600000 0.443137 0.023529
0.623529 0.439216 0.019608
0.639216 0.443137 0.023529
0.662745 0.447059 0.023529
0.682353 0.447059 0.023529
0.713725 0.447059 0.027451
0.737255 0.447059 0.027451
0.760784 0.447059 0.027451
0.780392 0.447059 0.023529
0.803922 0.447059 0.027451
0.835294 0.447059 0.027451
0.866667 0.447059 0.043137
0.890196 0.447059 0.043137
0.913725 0.450980 0.035294
0.031373 0.450980 0.019608
0.058824 0.454902 0.019608
0.082353 0.454902 0.019608
0.105882 0.450980 0.019608
0.133333 0.450980 0.019608
0.164706 0.450980 0.019608
0.184314 0.454902 0.019608
0.207843 0.454902 0.019608
0.235294 0.454902 0.019608
0.262745 0.458824 0.019608
0.290196 0.458824 0.019608
0.317647 0.458824 0.019608
0.337255 0.454902 0.019608
0.364706 0.462745 0.019608
0.396078 0.458824 0.019608
0.423529 0.462745 0.019608
0.447059 0.462745 0.019608
0.474510 0.462745 0.019608
0.498039 0.466667 0.023529
0.517647 0.462745 0.019608
0.545098 0.466667 0.023529
0.572549 0.462745 0.023529
0.596078 0.466667 0.019608
0.623529 0.466667 0.019608
0.643137 0.466667 0.023529
0.670588 0.470588 0.023529
0.690196 0.470588 0.023529
0.713725 0.466667 0.023529
0.733333 0.466667 0.023529
0.756863 0.470588 0.027451
0.784314 0.470588 0.027451
0.815686 0.474510 0.043137
0.839216 0.474510 0.043137
0.866667 0.474510 0.043137
0.886275 0.474510 0.039216
0.913725 0.470588 0.035294
0.031373 0.482353 0.019608
0.058824 0.486275 0.019608
0.082353 0.486275 0.019608
0.105882 0.482353 0.019608
0.137255 0.478431 0.019608
0.164706 0.482353 0.019608
0.192157 0.482353 0.019608
0.207843 0.486275 0.019608
0.235294 0.490196 0.019608
0.258824 0.490196 0.019608
0.294118 0.494118 0.019608
0.321569 0.494118 0.019608
0.345098 0.490196 0.019608
0.364706 0.494118 0.019608
0.396078 0.490196 0.019608
0.423529 0.490196 0.019608
0.447059 0.494118 0.023529
0.474510 0.494118 0.023529
0.501961 0.498039 0.019608
0.513725 0.498039 0.019608
0.545098 0.498039 0.019608
0.572549 0.494118 0.019608
0.596078 0.498039 0.019608
0.619608 0.498039 0.023529
0.643137 0.498039 0.023529
0.670588 0.501961 0.023529
0.690196 0.501961 0.027451
0.713725 0.498039 0.027451
0.733333 0.498039 0.027451
0.760784 0.501961 0.043137
0.796078 0.501961 0.043137
0.819608 0.501961 0.043137
0.839216 0.505882 0.039216
0.866667 0.509804 0.039216
0.886275 0.505882 0.035294
0.917647 0.509804 0.039216
0.035294 0.509804 0.019608
0.050980 0.509804 0.019608
0.078431 0.513725 0.019608
0.105882 0.513725 0.019608
0.137255 0.509804 0.019608
0.160784 0.513725 0.019608
0.192157 0.513725 0.019608
0.215686 0.513725 0.019608
0.239216 0.509804 0.019608
0.266667 0.513725 0.019608
0.294118 0.513725 0.019608
0.317647 0.513725 0.019608
0.345098 0.517647 0.019608
0.368627 0.517647 0.019608
0.396078 0.517647 0.023529
0.423529 0.517647 0.023529
0.447059 0.513725 0.019608
0.470588 0.517647 0.019608
0.501961 0.517647 0.019608
0.525490 0.517647 0.019608
0.549020 0.521569 0.019608
0.572549 0.521569 0.023529
0.596078 0.525490 0.023529
0.623529 0.517647 0.019608
0.643137 0.517647 0.023529
0.670588 0.517647 0.023529
0.686275 0.525490 0.023529
0.713725 0.529412 0.043137
0.745098 0.525490 0.043137
0.768627 0.525490 0.043137
0.796078 0.529412 0.047059
0.815686 0.525490 0.035294
0.839216 0.525490 0.035294
0.866667 0.529412 0.035294
0.890196 0.529412 0.039216
0.913725 0.529412 0.039216
0.035294 0.529412 0.019608
0.062745 0.529412 0.019608
0.082353 0.537255 0.019608
0.105882 0.533333 0.019608
0.137255 0.537255 0.019608
0.156863 0.533333 0.019608
0.192157 0.533333 0.019608
0.219608 0.537255 0.019608
0.243137 0.541176 0.019608
0.266667 0.545098 0.023529
0.294118 0.545098 0.023529
0.325490 0.541176 0.023529
0.349020 0.537255 0.023529
0.372549 0.541176 0.023529
0.396078 0.541176 0.023529
0.423529 0.541176 0.023529
0.447059 0.545098 0.023529
0.474510 0.545098 0.023529
0.501961 0.545098 0.019608
0.525490 0.549020 0.023529
0.549020 0.545098 0.019608
0.572549 0.545098 0.019608
0.600000 0.545098 0.019608
0.623529 0.549020 0.023529
0.643137 0.549020 0.023529
0.678431 0.549020 0.039216
0.701961 0.552941 0.043137
0.713725 0.549020 0.039216
0.737255 0.552941 0.039216
0.760784 0.552941 0.043137
0.788235 0.556863 0.035294
0.815686 0.556863 0.035294
0.843137 0.552941 0.039216
0.866667 0.556863 0.039216
0.890196 0.556863 0.039216
0.921569 0.556863 0.043137
0.035294 0.556863 0.019608
0.062745 0.560784 0.019608
0.086275 0.560784 0.019608
0.109804 0.564706 0.019608
0.137255 0.568627 0.023529
0.168627 0.560784 0.019608
0.192157 0.564706 0.019608
0.215686 0.564706 0.023529
0.243137 0.564706 0.023529
0.262745 0.568627 0.023529
0.290196 0.572549 0.023529
0.317647 0.568627 0.023529
0.341176 0.564706 0.023529
0.368627 0.568627 0.023529
0.396078 0.568627 0.019608
0.419608 0.572549 0.019608
0.447059 0.572549 0.019608
0.470588 0.572549 0.023529
0.498039 0.572549 0.023529
0.521569 0.576471 0.023529
0.545098 0.572549 0.019608
0.576471 0.568627 0.023529
0.596078 0.572549 0.023529
0.623529 0.576471 0.039216
0.647059 0.580392 0.039216
0.678431 0.580392 0.031373
0.701961 0.580392 0.039216
0.717647 0.576471 0.035294
0.741176 0.584314 0.039216
0.760784 0.580392 0.035294
0.788235 0.584314 0.039216
0.819608 0.580392 0.039216
0.843137 0.580392 0.039216
0.870588 0.584314 0.043137
0.890196 0.588235 0.043137
0.921569 0.584314 0.043137
0.031373 0.588235 0.019608
0.054902 0.584314 0.019608
0.078431 0.584314 0.019608
0.109804 0.592157 0.019608
0.137255 0.592157 0.019608
0.164706 0.592157 0.023529
0.192157 0.596078 0.023529
0.219608 0.592157 0.023529
0.247059 0.592157 0.023529
0.266667 0.592157 0.023529
0.290196 0.596078 0.023529
0.313725 0.596078 0.023529
0.341176 0.596078 0.023529
0.364706 0.596078 0.023529
0.396078 0.596078 0.019608
0.423529 0.600000 0.023529
0.443137 0.600000 0.019608
0.466667 0.600000 0.019608
0.498039 0.596078 0.019608
0.525490 0.600000 0.023529
0.552941 0.600000 0.023529
0.576471 0.600000 0.039216
0.600000 0.600000 0.039216
0.623529 0.603922 0.039216
0.647059 0.600000 0.035294
0.670588 0.600000 0.031373
0.694118 0.603922 0.031373
0.717647 0.603922 0.035294
0.749020 0.600000 0.039216
0.768627 0.603922 0.039216
0.796078 0.607843 0.039216
0.815686 0.603922 0.035294
0.839216 0.603922 0.039216
0.870588 0.603922 0.039216
0.898039 0.603922 0.039216
0.913725 0.607843 0.043137
0.031373 0.607843 0.019608
0.066667 0.611765 0.019608
0.090196 0.615686 0.019608
0.113725 0.615686 0.023529
0.137255 0.615686 0.023529
0.156863 0.615686 0.019608
0.180392 0.615686 0.023529
0.211765 0.615686 0.023529
0.239216 0.615686 0.023529
0.262745 0.615686 0.023529
0.290196 0.619608 0.027451
0.317647 0.619608 0.027451
0.345098 0.619608 0.027451
0.364706 0.619608 0.023529
0.392157 0.619608 0.023529
0.415686 0.619608 0.023529
0.443137 0.623529 0.023529
0.466667 0.623529 0.023529
0.494118 0.623529 0.023529
0.525490 0.627451 0.039216
0.545098 0.623529 0.035294
0.576471 0.623529 0.035294
0.600000 0.623529 0.035294
0.623529 0.627451 0.039216
0.647059 0.627451 0.039216
0.670588 0.631373 0.031373
0.701961 0.631373 0.039216
0.721569 0.631373 0.039216
0.749020 0.631373 0.039216
0.768627 0.627451 0.035294
0.788235 0.631373 0.039216
0.815686 0.635294 0.039216
0.843137 0.631373 0.039216
0.870588 0.631373 0.043137
0.898039 0.635294 0.043137
0.925490 0.631373 0.043137
0.031373 0.639216 0.023529
0.058824 0.639216 0.023529
0.078431 0.639216 0.023529
0.109804 0.639216 0.023529
0.137255 0.639216 0.023529
0.160784 0.639216 0.023529
0.188235 0.639216 0.023529
0.211765 0.643137 0.023529
0.239216 0.643137 0.027451
0.266667 0.639216 0.023529
0.294118 0.639216 0.023529
0.317647 0.639216 0.027451
0.337255 0.643137 0.023529
0.364706 0.647059 0.023529
0.396078 0.643137 0.023529
0.419608 0.643137 0.023529
0.447059 0.647059 0.023529
0.474510 0.647059 0.031373
0.494118 0.650980 0.035294
0.525490 0.647059 0.035294
0.552941 0.647059 0.035294
0.572549 0.650980 0.039216
0.600000 0.650980 0.039216
