luts/subtle/golden-hour.cube
TITLE "golden-hour (subtle)"
LUT_3D_SIZE 6
0.027451 0.011765 0.011765
0.231373 0.007843 0.007843
0.435294 0.003922 0.003922
0.643137 0.003922 0.000000
0.843137 0.003922 0.000000
1.000000 0.000000 0.000000
0.011765 0.207843 0.000000
0.219608 0.203922 0.000000
0.419608 0.200000 0.000000
0.627451 0.196078 0.000000
0.823529 0.200000 0.000000
1.000000 0.192157 0.000000
0.000000 0.400000 0.000000
0.200000 0.396078 0.000000
0.407843 0.392157 0.000000
0.607843 0.392157 0.000000
0.807843 0.396078 0.000000
1.000000 0.388235 0.000000
0.000000 0.592157 0.000000
0.180392 0.584314 0.000000
0.392157 0.580392 0.000000
0.592157 0.580392 0.000000
0.788235 0.584314 0.000000
0.984314 0.576471 0.000000
0.000000 0.780392 0.000000
0.156863 0.772549 0.000000
0.372549 0.768627 0.000000
0.576471 0.764706 0.000000
0.772549 0.760784 0.000000
0.964706 0.756863 0.000000
0.000000 0.964706 0.000000
0.133333 0.956863 0.000000
0.349020 0.949020 0.000000
0.556863 0.945098 0.000000
0.752941 0.937255 0.000000
0.945098 0.933333 0.000000
0.023529 0.011765 0.215686
0.231373 0.007843 0.211765
0.435294 0.003922 0.207843
0.639216 0.000000 0.203922
0.843137 0.003922 0.200000
1.000000 0.000000 0.192157
0.011765 0.203922 0.200000
0.211765 0.200000 0.196078
0.415686 0.200000 0.192157
0.619608 0.203922 0.188235
0.815686 0.200000 0.180392
1.000000 0.192157 0.176471
0.000000 0.400000 0.188235
0.196078 0.400000 0.184314
0.403922 0.396078 0.180392
0.603922 0.400000 0.172549
0.800000 0.396078 0.164706
0.996078 0.388235 0.156863
0.000000 0.588235 0.168627
0.180392 0.588235 0.168627
0.388235 0.584314 0.164706
0.588235 0.584314 0.156863
0.784314 0.580392 0.149020
0.976471 0.576471 0.137255
0.000000 0.776471 0.149020
0.160784 0.772549 0.149020
0.372549 0.768627 0.141176
0.576471 0.764706 0.137255
0.768627 0.760784 0.133333
0.960784 0.756863 0.121569
0.000000 0.960784 0.125490
0.141176 0.952941 0.125490
0.352941 0.945098 0.121569
0.556863 0.941176 0.113725
0.752941 0.937255 0.109804
0.945098 0.929412 0.105882
0.015686 0.011765 0.415686
0.227451 0.007843 0.411765
0.431373 0.000000 0.407843
0.639216 0.000000 0.403922
0.839216 0.000000 0.403922
1.000000 0.000000 0.400000
0.000000 0.203922 0.400000
0.207843 0.200000 0.392157
0.415686 0.200000 0.388235
0.615686 0.203922 0.388235
0.815686 0.196078 0.384314
1.000000 0.192157 0.376471
0.000000 0.400000 0.384314
0.196078 0.396078 0.380392
0.403922 0.403922 0.376471
0.600000 0.400000 0.372549
0.796078 0.392157 0.368627
0.988235 0.388235 0.360784
0.000000 0.588235 0.372549
0.180392 0.592157 0.364706
0.388235 0.588235 0.364706
0.588235 0.584314 0.360784
0.780392 0.580392 0.352941
0.972549 0.576471 0.345098
0.000000 0.776471 0.352941
0.160784 0.772549 0.349020
0.372549 0.764706 0.349020
0.576471 0.760784 0.345098
0.764706 0.756863 0.341176
0.956863 0.752941 0.329412
0.000000 0.960784 0.329412
0.137255 0.949020 0.329412
0.356863 0.941176 0.329412
0.556863 0.937255 0.325490
0.752941 0.933333 0.321569
0.941176 0.929412 0.313725
0.007843 0.007843 0.615686
0.223529 0.003922 0.611765
0.435294 0.000000 0.607843
0.639216 0.000000 0.603922
0.839216 0.000000 0.600000
1.000000 0.000000 0.600000
0.000000 0.203922 0.600000
0.207843 0.207843 0.588235
0.415686 0.203922 0.584314
0.615686 0.203922 0.580392
0.811765 0.196078 0.580392
1.000000 0.188235 0.576471
0.000000 0.400000 0.584314
0.192157 0.400000 0.576471
0.400000 0.400000 0.568627
0.600000 0.396078 0.564706
0.792157 0.392157 0.560784
0.984314 0.388235 0.556863
0.000000 0.584314 0.568627
0.176471 0.592157 0.560784
0.388235 0.584314 0.556863
0.588235 0.584314 0.552941
0.776471 0.580392 0.549020
0.964706 0.572549 0.545098
0.000000 0.776471 0.552941
0.156863 0.772549 0.545098
0.372549 0.764706 0.541176
0.576471 0.760784 0.541176
0.764706 0.756863 0.537255
0.952941 0.752941 0.529412
0.000000 0.956863 0.533333
0.137255 0.949020 0.529412
0.356863 0.941176 0.525490
0.560784 0.933333 0.525490
0.752941 0.929412 0.521569
0.941176 0.925490 0.517647
0.007843 0.015686 0.811765
0.223529 0.007843 0.807843
0.435294 0.003922 0.800000
0.639216 0.000000 0.796078
0.835294 0.000000 0.792157
1.000000 0.000000 0.792157
0.000000 0.211765 0.796078
0.203922 0.207843 0.780392
0.415686 0.203922 0.776471
0.615686 0.200000 0.772549
0.811765 0.196078 0.768627
1.000000 0.188235 0.768627
0.000000 0.407843 0.776471
0.188235 0.403922 0.764706
0.400000 0.400000 0.756863
0.600000 0.396078 0.749020
0.792157 0.392157 0.749020
0.984314 0.384314 0.745098
0.000000 0.592157 0.756863
0.172549 0.592157 0.749020
0.384314 0.584314 0.741176
0.584314 0.580392 0.737255
0.776471 0.576471 0.733333
0.964706 0.572549 0.729412
0.000000 0.772549 0.741176
0.156863 0.768627 0.733333
0.372549 0.764706 0.729412
0.572549 0.756863 0.725490
0.764706 0.756863 0.721569
0.949020 0.752941 0.717647
0.000000 0.956863 0.725490
0.133333 0.945098 0.717647
0.352941 0.937255 0.713725
0.560784 0.933333 0.709804
0.752941 0.929412 0.709804
0.937255 0.925490 0.705882
0.003922 0.015686 1.000000
0.223529 0.011765 0.996078
0.435294 0.003922 0.992157
0.643137 0.000000 0.984314
0.839216 0.000000 0.980392
1.000000 0.000000 0.976471
0.000000 0.211765 0.984314
0.203922 0.207843 0.968627
0.415686 0.200000 0.960784
0.619608 0.196078 0.956863
0.815686 0.192157 0.952941
1.000000 0.184314 0.949020
0.000000 0.407843 0.964706
0.184314 0.403922 0.949020
0.396078 0.396078 0.937255
0.600000 0.392157 0.933333
0.792157 0.388235 0.929412
0.984314 0.384314 0.925490
0.000000 0.596078 0.945098
0.168627 0.588235 0.933333
0.384314 0.584314 0.921569
0.584314 0.580392 0.913725
0.776471 0.576471 0.909804
0.964706 0.572549 0.905882
0.000000 0.776471 0.925490
0.152941 0.768627 0.917647
0.368627 0.760784 0.905882
0.572549 0.756863 0.901961
0.760784 0.752941 0.894118
0.949020 0.749020 0.890196
0.000000 0.952941 0.909804
0.133333 0.945098 0.901961
0.352941 0.937255 0.894118
0.556863 0.933333 0.886275
0.752941 0.925490 0.882353
0.937255 0.925490 0.882353
