luts/subtle/golden-hour.cube
TITLE "golden-hour (subtle)"
LUT_3D_SIZE 8
0.027451 0.011765 0.011765
0.172549 0.011765 0.011765
0.317647 0.007843 0.007843
0.462745 0.003922 0.003922
0.611765 0.000000 0.000000
0.756863 0.003922 0.000000
0.898039 0.000000 0.000000
1.000000 0.000000 0.000000
0.019608 0.149020 0.003922
0.164706 0.149020 0.003922
0.309804 0.145098 0.000000
0.450980 0.141176 0.000000
0.600000 0.137255 0.000000
0.745098 0.141176 0.000000
0.886275 0.141176 0.000000
1.000000 0.133333 0.000000
0.003922 0.286275 0.000000
0.152941 0.286275 0.000000
0.298039 0.282353 0.000000
0.439216 0.278431 0.000000
0.588235 0.274510 0.000000
0.733333 0.278431 0.000000
0.870588 0.278431 0.000000
1.000000 0.274510 0.000000
0.000000 0.427451 0.000000
0.129412 0.423529 0.000000
0.282353 0.419608 0.000000
0.431373 0.415686 0.000000
0.576471 0.411765 0.000000
0.721569 0.419608 0.000000
0.858824 0.419608 0.000000
1.000000 0.411765 0.000000
0.000000 0.560784 0.000000
0.117647 0.556863 0.000000
0.266667 0.552941 0.000000
0.419608 0.549020 0.000000
0.564706 0.549020 0.000000
0.709804 0.552941 0.000000
0.843137 0.552941 0.000000
0.988235 0.549020 0.000000
0.000000 0.701961 0.000000
0.101961 0.698039 0.000000
0.254902 0.694118 0.000000
0.403922 0.690196 0.000000
0.552941 0.686275 0.000000
0.694118 0.682353 0.000000
0.831373 0.682353 0.000000
0.972549 0.678431 0.000000
0.000000 0.835294 0.000000
0.086275 0.831373 0.000000
0.239216 0.827451 0.000000
0.392157 0.819608 0.000000
0.541176 0.815686 0.000000
0.682353 0.811765 0.000000
0.819608 0.811765 0.000000
0.960784 0.807843 0.000000
0.000000 0.964706 0.000000
0.066667 0.956863 0.000000
0.223529 0.952941 0.000000
0.376471 0.949020 0.000000
0.525490 0.945098 0.000000
0.670588 0.941176 0.000000
0.807843 0.937255 0.000000
0.945098 0.933333 0.000000
0.023529 0.011765 0.152941
0.172549 0.011765 0.152941
0.317647 0.007843 0.149020
0.462745 0.003922 0.145098
0.611765 0.000000 0.145098
0.756863 0.000000 0.141176
0.898039 0.000000 0.133333
1.000000 0.000000 0.129412
0.015686 0.149020 0.145098
0.160784 0.145098 0.141176
0.298039 0.145098 0.141176
0.447059 0.141176 0.137255
0.596078 0.145098 0.133333
0.741176 0.145098 0.125490
0.878431 0.141176 0.121569
1.000000 0.137255 0.117647
0.003922 0.286275 0.137255
0.141176 0.282353 0.133333
0.290196 0.282353 0.129412
0.439216 0.278431 0.125490
0.584314 0.282353 0.121569
0.729412 0.282353 0.113725
0.866667 0.278431 0.109804
1.000000 0.274510 0.101961
0.000000 0.423529 0.125490
0.133333 0.419608 0.121569
0.278431 0.419608 0.121569
0.427451 0.415686 0.117647
0.572549 0.419608 0.109804
0.717647 0.419608 0.101961
0.850980 0.415686 0.098039
0.996078 0.411765 0.090196
0.000000 0.560784 0.109804
0.117647 0.564706 0.109804
0.266667 0.560784 0.105882
0.419608 0.556863 0.101961
0.564706 0.552941 0.101961
0.705882 0.556863 0.094118
0.839216 0.552941 0.086275
0.984314 0.549020 0.078431
0.000000 0.701961 0.094118
0.105882 0.698039 0.094118
0.254902 0.694118 0.090196
0.403922 0.690196 0.090196
0.552941 0.690196 0.086275
0.694118 0.686275 0.082353
0.827451 0.682353 0.074510
0.968627 0.678431 0.062745
0.000000 0.831373 0.078431
0.090196 0.827451 0.078431
0.239216 0.823529 0.078431
0.392157 0.819608 0.074510
0.541176 0.815686 0.070588
0.682353 0.811765 0.066667
0.815686 0.807843 0.062745
0.956863 0.803922 0.050980
0.000000 0.960784 0.062745
0.070588 0.956863 0.062745
0.223529 0.949020 0.058824
0.376471 0.945098 0.054902
0.525490 0.941176 0.050980
0.670588 0.937255 0.047059
0.803922 0.933333 0.043137
0.945098 0.929412 0.039216
0.019608 0.011765 0.298039
0.168627 0.007843 0.294118
0.317647 0.003922 0.290196
0.458824 0.000000 0.290196
0.607843 0.000000 0.286275
0.756863 0.000000 0.286275
0.894118 0.000000 0.282353
1.000000 0.000000 0.278431
0.011765 0.149020 0.286275
0.149020 0.145098 0.282353
0.298039 0.145098 0.282353
0.447059 0.141176 0.278431
0.592157 0.145098 0.274510
0.737255 0.145098 0.270588
0.874510 0.141176 0.266667
1.000000 0.133333 0.262745
0.000000 0.286275 0.278431
0.141176 0.282353 0.274510
0.290196 0.278431 0.270588
0.435294 0.286275 0.266667
0.580392 0.286275 0.266667
0.725490 0.282353 0.262745
0.858824 0.278431 0.254902
1.000000 0.274510 0.250980
0.000000 0.423529 0.266667
0.129412 0.419608 0.266667
0.278431 0.423529 0.262745
0.427451 0.423529 0.258824
0.572549 0.423529 0.254902
0.713725 0.419608 0.250980
0.847059 0.415686 0.243137
0.988235 0.411765 0.239216
0.000000 0.560784 0.254902
0.117647 0.564706 0.254902
0.270588 0.564706 0.250980
0.415686 0.560784 0.247059
0.560784 0.556863 0.247059
0.701961 0.552941 0.239216
0.835294 0.549020 0.235294
0.976471 0.545098 0.227451
0.000000 0.698039 0.243137
0.101961 0.698039 0.239216
0.254902 0.694118 0.239216
0.407843 0.690196 0.235294
0.552941 0.686275 0.231373
0.694118 0.682353 0.231373
0.827451 0.682353 0.223529
0.964706 0.678431 0.215686
0.000000 0.831373 0.227451
0.090196 0.823529 0.227451
0.243137 0.819608 0.227451
0.392157 0.815686 0.223529
0.541176 0.811765 0.219608
0.682353 0.807843 0.215686
0.815686 0.807843 0.211765
0.952941 0.803922 0.203922
0.000000 0.960784 0.211765
0.070588 0.952941 0.211765
0.227451 0.949020 0.211765
0.380392 0.945098 0.207843
0.525490 0.941176 0.203922
0.670588 0.937255 0.200000
0.803922 0.933333 0.196078
0.941176 0.929412 0.192157
0.011765 0.011765 0.443137
0.160784 0.007843 0.439216
0.309804 0.003922 0.435294
0.458824 0.000000 0.431373
0.607843 0.000000 0.431373
0.752941 0.000000 0.431373
0.894118 0.000000 0.427451
1.000000 0.000000 0.427451
0.000000 0.149020 0.431373
0.149020 0.145098 0.427451
0.298039 0.141176 0.423529
0.447059 0.137255 0.419608
0.592157 0.145098 0.419608
0.737255 0.141176 0.415686
0.874510 0.137255 0.411765
1.000000 0.133333 0.411765
0.000000 0.286275 0.419608
0.141176 0.282353 0.415686
0.286275 0.286275 0.411765
0.435294 0.286275 0.407843
0.580392 0.286275 0.407843
0.721569 0.282353 0.403922
0.858824 0.278431 0.400000
1.000000 0.274510 0.396078
0.000000 0.423529 0.411765
0.129412 0.419608 0.407843
0.278431 0.423529 0.403922
0.427451 0.427451 0.400000
0.568627 0.423529 0.396078
0.709804 0.419608 0.392157
0.843137 0.415686 0.392157
0.984314 0.411765 0.384314
0.000000 0.556863 0.400000
0.117647 0.560784 0.396078
0.266667 0.560784 0.392157
0.415686 0.556863 0.392157
0.560784 0.556863 0.388235
0.701961 0.552941 0.384314
0.835294 0.549020 0.380392
0.972549 0.545098 0.376471
0.000000 0.698039 0.388235
0.101961 0.698039 0.384314
0.254902 0.690196 0.384314
0.407843 0.686275 0.380392
0.552941 0.686275 0.376471
0.690196 0.682353 0.376471
0.823529 0.678431 0.368627
0.960784 0.674510 0.364706
0.000000 0.831373 0.372549
0.086275 0.823529 0.372549
0.243137 0.819608 0.368627
0.396078 0.815686 0.368627
0.541176 0.811765 0.364706
0.682353 0.807843 0.364706
0.815686 0.803922 0.360784
0.952941 0.803922 0.352941
0.000000 0.960784 0.356863
0.070588 0.952941 0.356863
0.227451 0.945098 0.356863
0.380392 0.941176 0.356863
0.529412 0.937255 0.352941
0.670588 0.933333 0.349020
0.803922 0.929412 0.345098
0.941176 0.929412 0.341176
0.007843 0.007843 0.584314
0.160784 0.003922 0.580392
0.309804 0.003922 0.576471
0.458824 0.000000 0.576471
0.607843 0.000000 0.572549
0.752941 0.000000 0.572549
0.894118 0.000000 0.568627
1.000000 0.000000 0.568627
0.000000 0.149020 0.572549
0.149020 0.149020 0.564706
0.298039 0.145098 0.560784
0.447059 0.141176 0.560784
0.592157 0.141176 0.556863
0.737255 0.141176 0.556863
0.874510 0.137255 0.552941
1.000000 0.133333 0.552941
0.000000 0.286275 0.560784
0.137255 0.290196 0.556863
0.286275 0.290196 0.549020
0.435294 0.286275 0.545098
0.576471 0.286275 0.545098
0.721569 0.282353 0.541176
0.858824 0.278431 0.541176
1.000000 0.270588 0.537255
0.000000 0.423529 0.549020
0.125490 0.427451 0.545098
0.278431 0.427451 0.541176
0.423529 0.423529 0.537255
0.568627 0.423529 0.533333
0.709804 0.419608 0.529412
0.843137 0.415686 0.529412
0.984314 0.411765 0.525490
0.000000 0.556863 0.541176
0.117647 0.560784 0.533333
0.266667 0.560784 0.529412
0.415686 0.556863 0.529412
0.560784 0.556863 0.525490
0.698039 0.552941 0.521569
0.831373 0.549020 0.517647
0.968627 0.545098 0.513725
0.000000 0.698039 0.529412
0.101961 0.694118 0.525490
0.254902 0.690196 0.521569
0.407843 0.686275 0.517647
0.552941 0.682353 0.517647
0.690196 0.682353 0.513725
0.819608 0.678431 0.509804
0.960784 0.674510 0.505882
0.000000 0.827451 0.513725
0.086275 0.823529 0.513725
0.243137 0.815686 0.509804
0.396078 0.811765 0.509804
0.541176 0.807843 0.505882
0.682353 0.807843 0.505882
0.811765 0.803922 0.501961
0.949020 0.800000 0.494118
0.000000 0.956863 0.501961
0.070588 0.949020 0.498039
0.227451 0.945098 0.498039
0.380392 0.941176 0.498039
0.529412 0.937255 0.494118
0.670588 0.933333 0.490196
0.803922 0.929412 0.490196
0.941176 0.925490 0.486275
0.007843 0.011765 0.725490
0.156863 0.007843 0.721569
0.309804 0.003922 0.717647
0.462745 0.000000 0.713725
0.607843 0.000000 0.709804
0.752941 0.000000 0.705882
0.890196 0.000000 0.705882
1.000000 0.000000 0.709804
0.000000 0.149020 0.713725
0.145098 0.152941 0.701961
0.298039 0.152941 0.698039
0.447059 0.149020 0.698039
0.592157 0.145098 0.694118
0.733333 0.141176 0.690196
0.874510 0.137255 0.690196
1.000000 0.129412 0.690196
0.000000 0.290196 0.701961
0.133333 0.294118 0.694118
0.286275 0.290196 0.686275
0.435294 0.286275 0.682353
0.580392 0.282353 0.678431
0.721569 0.278431 0.678431
0.854902 0.274510 0.674510
1.000000 0.270588 0.674510
0.000000 0.427451 0.690196
0.121569 0.431373 0.682353
0.274510 0.427451 0.674510
0.423529 0.423529 0.670588
0.568627 0.419608 0.666667
0.705882 0.419608 0.662745
0.843137 0.415686 0.662745
0.980392 0.411765 0.662745
0.000000 0.560784 0.674510
0.113725 0.564706 0.670588
0.262745 0.560784 0.662745
0.415686 0.556863 0.658824
0.556863 0.552941 0.654902
0.698039 0.552941 0.654902
0.827451 0.549020 0.650980
0.968627 0.545098 0.650980
0.000000 0.694118 0.662745
0.101961 0.694118 0.658824
0.254902 0.690196 0.654902
0.403922 0.686275 0.650980
0.549020 0.682353 0.647059
0.690196 0.682353 0.647059
0.819608 0.678431 0.643137
0.956863 0.674510 0.639216
0.000000 0.827451 0.650980
0.086275 0.823529 0.647059
0.239216 0.815686 0.643137
0.392157 0.811765 0.643137
0.541176 0.807843 0.639216
0.682353 0.803922 0.639216
0.811765 0.803922 0.635294
0.949020 0.800000 0.631373
0.000000 0.956863 0.639216
0.066667 0.949020 0.635294
0.223529 0.945098 0.635294
0.380392 0.937255 0.631373
0.529412 0.933333 0.631373
0.670588 0.929412 0.627451
0.803922 0.929412 0.627451
0.937255 0.925490 0.623529
0.003922 0.019608 0.862745
0.156863 0.015686 0.858824
0.309804 0.011765 0.854902
0.462745 0.007843 0.850980
0.611765 0.003922 0.847059
0.752941 0.000000 0.843137
0.890196 0.000000 0.839216
1.000000 0.000000 0.843137
0.000000 0.156863 0.850980
0.145098 0.152941 0.839216
0.294118 0.149020 0.835294
0.447059 0.145098 0.831373
0.592157 0.141176 0.827451
0.737255 0.137255 0.823529
0.870588 0.133333 0.823529
1.000000 0.129412 0.823529
0.000000 0.294118 0.835294
0.133333 0.290196 0.827451
0.282353 0.286275 0.819608
0.435294 0.286275 0.815686
0.580392 0.282353 0.811765
0.721569 0.278431 0.807843
0.854902 0.274510 0.807843
0.996078 0.270588 0.807843
0.000000 0.435294 0.823529
0.121569 0.431373 0.815686
0.270588 0.427451 0.807843
0.423529 0.423529 0.800000
0.568627 0.419608 0.796078
0.705882 0.415686 0.796078
0.839216 0.411765 0.792157
0.980392 0.407843 0.792157
0.000000 0.568627 0.811765
0.109804 0.564706 0.803922
0.262745 0.560784 0.796078
0.411765 0.556863 0.792157
0.556863 0.552941 0.784314
0.698039 0.549020 0.784314
0.827451 0.549020 0.780392
0.968627 0.545098 0.780392
0.000000 0.698039 0.796078
0.098039 0.694118 0.792157
0.250980 0.690196 0.784314
0.403922 0.686275 0.780392
0.549020 0.682353 0.776471
0.686275 0.678431 0.772549
0.819608 0.678431 0.772549
0.952941 0.674510 0.768627
0.000000 0.827451 0.784314
0.082353 0.819608 0.780392
0.239216 0.815686 0.776471
0.392157 0.811765 0.772549
0.541176 0.807843 0.768627
0.682353 0.803922 0.764706
0.811765 0.803922 0.764706
0.945098 0.800000 0.760784
0.000000 0.952941 0.772549
0.066667 0.949020 0.768627
0.223529 0.941176 0.764706
0.380392 0.937255 0.760784
0.529412 0.933333 0.760784
0.670588 0.929412 0.756863
0.803922 0.925490 0.756863
0.937255 0.925490 0.752941
0.003922 0.015686 1.000000
0.156863 0.011765 1.000000
0.309804 0.007843 0.996078
0.462745 0.003922 0.988235
0.611765 0.000000 0.984314
0.756863 0.000000 0.980392
0.894118 0.000000 0.976471
1.000000 0.000000 0.976471
0.000000 0.156863 0.988235
0.141176 0.152941 0.976471
0.294118 0.149020 0.972549
0.447059 0.145098 0.968627
0.596078 0.141176 0.964706
0.737255 0.137255 0.960784
0.874510 0.133333 0.956863
1.000000 0.129412 0.956863
0.000000 0.294118 0.976471
0.129412 0.290196 0.964706
0.282353 0.286275 0.952941
0.435294 0.282353 0.949020
0.580392 0.278431 0.949020
0.721569 0.274510 0.945098
0.854902 0.274510 0.941176
0.996078 0.266667 0.937255
0.000000 0.435294 0.960784
0.117647 0.427451 0.952941
0.270588 0.423529 0.941176
0.423529 0.423529 0.933333
0.568627 0.419608 0.929412
0.709804 0.415686 0.929412
0.843137 0.411765 0.925490
0.980392 0.407843 0.921569
0.000000 0.568627 0.949020
0.101961 0.564706 0.937255
0.258824 0.560784 0.929412
0.411765 0.556863 0.921569
0.556863 0.552941 0.917647
0.698039 0.549020 0.913725
0.827451 0.545098 0.909804
0.964706 0.545098 0.909804
0.000000 0.698039 0.933333
0.090196 0.694118 0.925490
0.247059 0.690196 0.917647
0.400000 0.686275 0.913725
0.549020 0.682353 0.905882
0.686275 0.678431 0.901961
0.819608 0.674510 0.898039
0.952941 0.674510 0.898039
0.000000 0.827451 0.921569
0.078431 0.819608 0.913725
0.235294 0.815686 0.909804
0.392157 0.811765 0.901961
0.537255 0.807843 0.898039
0.678431 0.803922 0.894118
0.811765 0.800000 0.890196
0.945098 0.800000 0.890196
0.000000 0.952941 0.909804
0.066667 0.949020 0.901961
0.223529 0.941176 0.898039
0.380392 0.937255 0.894118
0.529412 0.933333 0.890196
0.670588 0.929412 0.886275
0.803922 0.925490 0.882353
0.937255 0.925490 0.882353
