luts/subtle/golden-hour.cube
TITLE "golden-hour (subtle)"
LUT_3D_SIZE 36
0.027451 0.011765 0.011765
0.054902 0.011765 0.011765
0.086275 0.011765 0.011765
0.113725 0.011765 0.011765
0.145098 0.011765 0.011765
0.172549 0.011765 0.011765
0.203922 0.011765 0.011765
0.231373 0.007843 0.007843
0.262745 0.007843 0.007843
0.290196 0.007843 0.007843
0.317647 0.007843 0.007843
0.349020 0.007843 0.007843
0.376471 0.007843 0.007843
0.403922 0.003922 0.003922
0.435294 0.003922 0.003922
0.462745 0.003922 0.003922
0.494118 0.003922 0.003922
0.517647 0.003922 0.003922
0.552941 0.000000 0.000000
0.580392 0.000000 0.000000
0.611765 0.000000 0.000000
0.643137 0.003922 0.000000
0.670588 0.000000 0.000000
0.701961 0.000000 0.000000
0.729412 0.000000 0.000000
0.756863 0.003922 0.000000
0.784314 0.000000 0.000000
0.811765 0.000000 0.000000
0.843137 0.003922 0.000000
0.870588 0.003922 0.000000
0.898039 0.000000 0.000000
0.925490 0.000000 0.000000
0.956863 0.000000 0.000000
0.984314 0.000000 0.000000
1.000000 0.000000 0.000000
1.000000 0.000000 0.000000
0.023529 0.039216 0.011765
0.054902 0.035294 0.011765
0.082353 0.035294 0.011765
0.113725 0.035294 0.011765
0.141176 0.035294 0.011765
0.172549 0.035294 0.007843
0.200000 0.035294 0.007843
0.231373 0.035294 0.007843
0.262745 0.031373 0.007843
0.286275 0.031373 0.007843
0.317647 0.031373 0.003922
0.349020 0.031373 0.003922
0.372549 0.031373 0.003922
0.403922 0.031373 0.003922
0.435294 0.027451 0.003922
0.458824 0.027451 0.000000
0.490196 0.027451 0.000000
0.517647 0.027451 0.000000
0.552941 0.027451 0.000000
0.580392 0.023529 0.000000
0.607843 0.023529 0.000000
0.639216 0.027451 0.000000
0.666667 0.027451 0.000000
0.698039 0.023529 0.000000
0.725490 0.023529 0.000000
0.756863 0.027451 0.000000
0.784314 0.027451 0.000000
0.811765 0.023529 0.000000
0.843137 0.027451 0.000000
0.870588 0.027451 0.000000
0.898039 0.027451 0.000000
0.925490 0.023529 0.000000
0.956863 0.023529 0.000000
0.984314 0.023529 0.000000
1.000000 0.023529 0.000000
1.000000 0.019608 0.000000
0.023529 0.066667 0.011765
0.050980 0.066667 0.011765
0.082353 0.066667 0.007843
0.109804 0.062745 0.007843
0.141176 0.062745 0.007843
0.168627 0.062745 0.007843
0.200000 0.062745 0.007843
0.231373 0.062745 0.007843
0.258824 0.062745 0.003922
0.286275 0.058824 0.003922
0.313725 0.058824 0.003922
0.345098 0.058824 0.003922
0.372549 0.058824 0.003922
0.400000 0.058824 0.000000
0.431373 0.058824 0.000000
0.458824 0.054902 0.000000
0.490196 0.054902 0.000000
0.513725 0.054902 0.000000
0.549020 0.054902 0.000000
0.576471 0.054902 0.000000
0.607843 0.050980 0.000000
0.639216 0.054902 0.000000
0.666667 0.054902 0.000000
0.694118 0.054902 0.000000
0.721569 0.050980 0.000000
0.752941 0.054902 0.000000
0.780392 0.054902 0.000000
0.807843 0.054902 0.000000
0.839216 0.054902 0.000000
0.866667 0.054902 0.000000
0.894118 0.054902 0.000000
0.921569 0.054902 0.000000
0.952941 0.050980 0.000000
0.980392 0.050980 0.000000
1.000000 0.050980 0.000000
1.000000 0.050980 0.000000
0.019608 0.094118 0.007843
0.050980 0.094118 0.007843
0.078431 0.094118 0.007843
0.109804 0.094118 0.007843
0.137255 0.090196 0.007843
0.168627 0.090196 0.003922
0.196078 0.090196 0.003922
0.227451 0.090196 0.003922
0.258824 0.090196 0.003922
0.282353 0.090196 0.003922
0.313725 0.090196 0.000000
0.345098 0.086275 0.000000
0.368627 0.086275 0.000000
0.400000 0.086275 0.000000
0.431373 0.086275 0.000000
0.454902 0.086275 0.000000
0.486275 0.082353 0.000000
0.513725 0.082353 0.000000
0.549020 0.082353 0.000000
0.572549 0.082353 0.000000
0.603922 0.082353 0.000000
0.635294 0.082353 0.000000
0.662745 0.082353 0.000000
0.694118 0.082353 0.000000
0.721569 0.082353 0.000000
0.752941 0.082353 0.000000
0.776471 0.082353 0.000000
0.803922 0.082353 0.000000
0.835294 0.086275 0.000000
0.862745 0.082353 0.000000
0.890196 0.082353 0.000000
0.917647 0.082353 0.000000
0.949020 0.082353 0.000000
0.976471 0.078431 0.000000
1.000000 0.078431 0.000000
1.000000 0.078431 0.000000
0.019608 0.121569 0.007843
0.047059 0.121569 0.007843
0.078431 0.121569 0.003922
0.105882 0.121569 0.003922
0.137255 0.121569 0.003922
0.164706 0.117647 0.003922
0.196078 0.117647 0.003922
0.227451 0.117647 0.003922
0.254902 0.117647 0.000000
0.282353 0.117647 0.000000
0.309804 0.117647 0.000000
0.341176 0.117647 0.000000
0.368627 0.113725 0.000000
0.396078 0.113725 0.000000
0.427451 0.113725 0.000000
0.454902 0.113725 0.000000
0.482353 0.113725 0.000000
0.509804 0.109804 0.000000
0.545098 0.109804 0.000000
0.572549 0.109804 0.000000
0.603922 0.109804 0.000000
0.631373 0.113725 0.000000
0.658824 0.109804 0.000000
0.690196 0.109804 0.000000
0.717647 0.109804 0.000000
0.749020 0.113725 0.000000
0.776471 0.109804 0.000000
0.803922 0.109804 0.000000
0.835294 0.113725 0.000000
0.858824 0.113725 0.000000
0.886275 0.113725 0.000000
0.913725 0.109804 0.000000
0.945098 0.109804 0.000000
0.972549 0.109804 0.000000
1.000000 0.105882 0.000000
1.000000 0.105882 0.000000
0.019608 0.149020 0.003922
0.047059 0.149020 0.003922
0.078431 0.149020 0.003922
0.105882 0.149020 0.003922
0.137255 0.149020 0.003922
0.164706 0.149020 0.003922
0.196078 0.149020 0.000000
0.223529 0.145098 0.000000
0.254902 0.145098 0.000000
0.278431 0.145098 0.000000
0.309804 0.145098 0.000000
0.337255 0.145098 0.000000
0.364706 0.145098 0.000000
0.396078 0.141176 0.000000
0.423529 0.141176 0.000000
0.450980 0.141176 0.000000
0.482353 0.141176 0.000000
0.509804 0.141176 0.000000
0.541176 0.137255 0.000000
0.568627 0.137255 0.000000
0.600000 0.137255 0.000000
0.631373 0.141176 0.000000
0.658824 0.141176 0.000000
0.690196 0.137255 0.000000
0.713725 0.137255 0.000000
0.745098 0.141176 0.000000
0.772549 0.141176 0.000000
0.800000 0.141176 0.000000
0.831373 0.141176 0.000000
0.858824 0.141176 0.000000
0.886275 0.141176 0.000000
0.913725 0.141176 0.000000
0.945098 0.137255 0.000000
0.972549 0.137255 0.000000
1.000000 0.137255 0.000000
1.000000 0.133333 0.000000
0.015686 0.172549 0.003922
0.047059 0.172549 0.003922
0.074510 0.172549 0.003922
0.105882 0.172549 0.000000
0.133333 0.172549 0.000000
0.164706 0.172549 0.000000
0.192157 0.172549 0.000000
0.223529 0.172549 0.000000
0.250980 0.168627 0.000000
0.278431 0.168627 0.000000
0.305882 0.168627 0.000000
0.337255 0.168627 0.000000
0.364706 0.168627 0.000000
0.392157 0.168627 0.000000
0.423529 0.164706 0.000000
0.450980 0.164706 0.000000
0.478431 0.164706 0.000000
0.505882 0.164706 0.000000
0.541176 0.164706 0.000000
0.568627 0.160784 0.000000
0.596078 0.160784 0.000000
0.627451 0.164706 0.000000
0.654902 0.164706 0.000000
0.686275 0.164706 0.000000
0.713725 0.160784 0.000000
0.745098 0.164706 0.000000
0.768627 0.164706 0.000000
0.796078 0.164706 0.000000
0.827451 0.168627 0.000000
0.854902 0.164706 0.000000
0.882353 0.164706 0.000000
0.909804 0.164706 0.000000
0.941176 0.164706 0.000000
0.968627 0.160784 0.000000
0.996078 0.160784 0.000000
1.000000 0.160784 0.000000
0.011765 0.207843 0.000000
0.043137 0.207843 0.000000
0.074510 0.203922 0.000000
0.101961 0.203922 0.000000
0.133333 0.203922 0.000000
0.160784 0.203922 0.000000
0.192157 0.203922 0.000000
0.219608 0.203922 0.000000
0.250980 0.203922 0.000000
0.274510 0.200000 0.000000
0.305882 0.200000 0.000000
0.333333 0.200000 0.000000
0.360784 0.200000 0.000000
0.392157 0.200000 0.000000
0.419608 0.200000 0.000000
0.447059 0.200000 0.000000
0.478431 0.196078 0.000000
0.501961 0.196078 0.000000
0.537255 0.196078 0.000000
0.564706 0.196078 0.000000
0.596078 0.196078 0.000000
0.627451 0.196078 0.000000
0.650980 0.196078 0.000000
0.682353 0.196078 0.000000
0.709804 0.196078 0.000000
0.741176 0.200000 0.000000
0.768627 0.196078 0.000000
0.796078 0.196078 0.000000
0.823529 0.200000 0.000000
0.850980 0.200000 0.000000
0.878431 0.196078 0.000000
0.905882 0.196078 0.000000
0.937255 0.196078 0.000000
0.964706 0.196078 0.000000
0.992157 0.192157 0.000000
1.000000 0.192157 0.000000
0.007843 0.235294 0.000000
0.035294 0.235294 0.000000
0.066667 0.235294 0.000000
0.094118 0.235294 0.000000
0.125490 0.231373 0.000000
0.156863 0.231373 0.000000
0.184314 0.231373 0.000000
0.219608 0.231373 0.000000
0.247059 0.231373 0.000000
0.274510 0.231373 0.000000
0.301961 0.231373 0.000000
0.333333 0.227451 0.000000
0.356863 0.227451 0.000000
0.388235 0.227451 0.000000
0.419608 0.227451 0.000000
0.443137 0.227451 0.000000
0.474510 0.227451 0.000000
0.501961 0.223529 0.000000
0.537255 0.223529 0.000000
0.560784 0.223529 0.000000
0.592157 0.223529 0.000000
0.623529 0.227451 0.000000
0.650980 0.223529 0.000000
0.682353 0.223529 0.000000
0.705882 0.223529 0.000000
0.737255 0.227451 0.000000
0.764706 0.227451 0.000000
0.792157 0.223529 0.000000
0.823529 0.227451 0.000000
0.850980 0.227451 0.000000
0.878431 0.227451 0.000000
0.901961 0.223529 0.000000
0.937255 0.223529 0.000000
0.960784 0.223529 0.000000
0.988235 0.223529 0.000000
1.000000 0.219608 0.000000
0.003922 0.258824 0.000000
0.035294 0.258824 0.000000
0.062745 0.258824 0.000000
0.094118 0.258824 0.000000
0.125490 0.258824 0.000000
0.152941 0.254902 0.000000
0.184314 0.254902 0.000000
0.215686 0.254902 0.000000
0.247059 0.254902 0.000000
0.270588 0.254902 0.000000
0.301961 0.254902 0.000000
0.329412 0.254902 0.000000
0.356863 0.250980 0.000000
0.388235 0.250980 0.000000
0.415686 0.250980 0.000000
0.443137 0.250980 0.000000
0.474510 0.250980 0.000000
0.498039 0.250980 0.000000
0.533333 0.247059 0.000000
0.560784 0.247059 0.000000
0.592157 0.247059 0.000000
0.619608 0.250980 0.000000
0.647059 0.250980 0.000000
0.678431 0.247059 0.000000
0.705882 0.247059 0.000000
0.737255 0.250980 0.000000
0.760784 0.250980 0.000000
0.788235 0.250980 0.000000
0.819608 0.250980 0.000000
0.847059 0.250980 0.000000
0.874510 0.250980 0.000000
0.901961 0.250980 0.000000
0.933333 0.247059 0.000000
0.960784 0.247059 0.000000
0.988235 0.247059 0.000000
1.000000 0.247059 0.000000
0.003922 0.286275 0.000000
0.031373 0.286275 0.000000
0.062745 0.286275 0.000000
0.090196 0.286275 0.000000
0.121569 0.286275 0.000000
0.152941 0.286275 0.000000
0.180392 0.286275 0.000000
0.215686 0.282353 0.000000
0.243137 0.282353 0.000000
0.270588 0.282353 0.000000
0.298039 0.282353 0.000000
0.329412 0.282353 0.000000
0.352941 0.282353 0.000000
0.384314 0.278431 0.000000
0.415686 0.278431 0.000000
0.439216 0.278431 0.000000
0.470588 0.278431 0.000000
0.498039 0.278431 0.000000
0.533333 0.278431 0.000000
0.556863 0.274510 0.000000
0.588235 0.274510 0.000000
0.619608 0.278431 0.000000
0.643137 0.278431 0.000000
0.674510 0.278431 0.000000
0.701961 0.274510 0.000000
0.733333 0.278431 0.000000
0.760784 0.278431 0.000000
0.788235 0.278431 0.000000
0.815686 0.282353 0.000000
0.843137 0.278431 0.000000
0.870588 0.278431 0.000000
0.898039 0.278431 0.000000
0.929412 0.278431 0.000000
0.956863 0.274510 0.000000
0.984314 0.274510 0.000000
1.000000 0.274510 0.000000
0.000000 0.317647 0.000000
0.027451 0.317647 0.000000
0.054902 0.313725 0.000000
0.086275 0.313725 0.000000
0.113725 0.313725 0.000000
0.145098 0.313725 0.000000
0.172549 0.313725 0.000000
0.207843 0.313725 0.000000
0.239216 0.309804 0.000000
0.262745 0.309804 0.000000
0.294118 0.309804 0.000000
0.325490 0.309804 0.000000
0.352941 0.309804 0.000000
0.384314 0.309804 0.000000
0.411765 0.309804 0.000000
0.439216 0.305882 0.000000
0.466667 0.305882 0.000000
0.494118 0.305882 0.000000
0.529412 0.305882 0.000000
0.556863 0.305882 0.000000
0.584314 0.301961 0.000000
0.615686 0.305882 0.000000
0.643137 0.305882 0.000000
0.674510 0.305882 0.000000
0.698039 0.305882 0.000000
0.729412 0.309804 0.000000
0.756863 0.305882 0.000000
0.784314 0.305882 0.000000
0.815686 0.309804 0.000000
0.843137 0.309804 0.000000
0.866667 0.305882 0.000000
0.894118 0.305882 0.000000
0.925490 0.305882 0.000000
0.952941 0.305882 0.000000
0.980392 0.305882 0.000000
1.000000 0.301961 0.000000
0.000000 0.345098 0.000000
0.023529 0.345098 0.000000
0.054902 0.345098 0.000000
0.082353 0.341176 0.000000
0.113725 0.341176 0.000000
0.141176 0.341176 0.000000
0.172549 0.341176 0.000000
0.207843 0.341176 0.000000
0.235294 0.341176 0.000000
0.262745 0.341176 0.000000
0.290196 0.337255 0.000000
0.325490 0.337255 0.000000
0.349020 0.337255 0.000000
0.380392 0.337255 0.000000
0.411765 0.337255 0.000000
0.435294 0.337255 0.000000
0.466667 0.333333 0.000000
0.494118 0.333333 0.000000
0.525490 0.333333 0.000000
0.552941 0.333333 0.000000
0.584314 0.333333 0.000000
0.611765 0.337255 0.000000
0.639216 0.333333 0.000000
0.670588 0.333333 0.000000
0.698039 0.333333 0.000000
0.729412 0.337255 0.000000
0.752941 0.337255 0.000000
0.780392 0.333333 0.000000
0.811765 0.337255 0.000000
0.839216 0.337255 0.000000
0.866667 0.337255 0.000000
0.894118 0.337255 0.000000
0.925490 0.333333 0.000000
0.952941 0.333333 0.000000
0.976471 0.333333 0.000000
1.000000 0.333333 0.000000
0.000000 0.368627 0.000000
0.019608 0.368627 0.000000
0.050980 0.368627 0.000000
0.082353 0.368627 0.000000
0.109804 0.368627 0.000000
0.141176 0.364706 0.000000
0.168627 0.364706 0.000000
0.203922 0.364706 0.000000
0.235294 0.364706 0.000000
0.258824 0.364706 0.000000
0.290196 0.364706 0.000000
0.321569 0.360784 0.000000
0.349020 0.360784 0.000000
0.380392 0.360784 0.000000
0.407843 0.360784 0.000000
0.435294 0.360784 0.000000
0.462745 0.360784 0.000000
0.490196 0.356863 0.000000
0.525490 0.356863 0.000000
0.549020 0.356863 0.000000
0.580392 0.356863 0.000000
0.611765 0.360784 0.000000
0.639216 0.360784 0.000000
0.666667 0.356863 0.000000
0.694118 0.356863 0.000000
0.725490 0.360784 0.000000
0.752941 0.360784 0.000000
0.780392 0.360784 0.000000
0.807843 0.360784 0.000000
0.835294 0.360784 0.000000
0.862745 0.360784 0.000000
0.890196 0.360784 0.000000
0.921569 0.360784 0.000000
0.949020 0.356863 0.000000
0.976471 0.356863 0.000000
1.000000 0.356863 0.000000
0.000000 0.400000 0.000000
0.019608 0.400000 0.000000
0.047059 0.400000 0.000000
0.078431 0.400000 0.000000
0.105882 0.400000 0.000000
0.137255 0.400000 0.000000
0.168627 0.400000 0.000000
0.200000 0.396078 0.000000
0.231373 0.396078 0.000000
0.254902 0.396078 0.000000
0.286275 0.396078 0.000000
0.321569 0.396078 0.000000
0.345098 0.396078 0.000000
0.376471 0.392157 0.000000
0.407843 0.392157 0.000000
0.431373 0.392157 0.000000
0.462745 0.392157 0.000000
0.486275 0.392157 0.000000
0.521569 0.392157 0.000000
0.549020 0.388235 0.000000
0.580392 0.388235 0.000000
0.607843 0.392157 0.000000
0.635294 0.392157 0.000000
0.666667 0.392157 0.000000
0.690196 0.392157 0.000000
0.721569 0.392157 0.000000
0.749020 0.392157 0.000000
0.776471 0.392157 0.000000
0.807843 0.396078 0.000000
0.831373 0.396078 0.000000
0.858824 0.392157 0.000000
0.886275 0.392157 0.000000
0.917647 0.392157 0.000000
0.945098 0.392157 0.000000
0.972549 0.388235 0.000000
1.000000 0.388235 0.000000
0.000000 0.427451 0.000000
0.011765 0.427451 0.000000
0.043137 0.423529 0.000000
0.070588 0.423529 0.000000
0.101961 0.423529 0.000000
0.129412 0.423529 0.000000
0.160784 0.423529 0.000000
0.196078 0.423529 0.000000
0.223529 0.419608 0.000000
0.250980 0.419608 0.000000
0.282353 0.419608 0.000000
0.313725 0.419608 0.000000
0.341176 0.419608 0.000000
0.368627 0.419608 0.000000
0.403922 0.415686 0.000000
0.431373 0.415686 0.000000
0.458824 0.415686 0.000000
0.486275 0.415686 0.000000
0.521569 0.415686 0.000000
0.545098 0.415686 0.000000
0.576471 0.411765 0.000000
0.607843 0.415686 0.000000
0.631373 0.415686 0.000000
0.662745 0.415686 0.000000
0.690196 0.415686 0.000000
0.721569 0.419608 0.000000
0.745098 0.415686 0.000000
0.772549 0.415686 0.000000
0.803922 0.419608 0.000000
0.831373 0.419608 0.000000
0.858824 0.419608 0.000000
0.886275 0.415686 0.000000
0.917647 0.415686 0.000000
0.941176 0.415686 0.000000
0.968627 0.415686 0.000000
1.000000 0.411765 0.000000
0.000000 0.454902 0.000000
0.007843 0.454902 0.000000
0.039216 0.454902 0.000000
0.066667 0.454902 0.000000
0.098039 0.450980 0.000000
0.129412 0.450980 0.000000
0.156863 0.450980 0.000000
0.192157 0.450980 0.000000
0.223529 0.450980 0.000000
0.247059 0.450980 0.000000
0.278431 0.447059 0.000000
0.313725 0.447059 0.000000
0.337255 0.447059 0.000000
0.368627 0.447059 0.000000
0.400000 0.447059 0.000000
0.427451 0.443137 0.000000
0.458824 0.443137 0.000000
0.482353 0.443137 0.000000
0.517647 0.443137 0.000000
0.545098 0.443137 0.000000
0.572549 0.443137 0.000000
0.603922 0.447059 0.000000
0.631373 0.443137 0.000000
0.662745 0.443137 0.000000
0.686275 0.443137 0.000000
0.717647 0.447059 0.000000
0.745098 0.447059 0.000000
0.772549 0.443137 0.000000
0.800000 0.447059 0.000000
0.827451 0.447059 0.000000
0.854902 0.447059 0.000000
0.882353 0.447059 0.000000
0.913725 0.443137 0.000000
0.941176 0.443137 0.000000
0.968627 0.443137 0.000000
1.000000 0.443137 0.000000
0.000000 0.478431 0.000000
0.007843 0.478431 0.000000
0.035294 0.478431 0.000000
0.066667 0.478431 0.000000
0.098039 0.478431 0.000000
0.125490 0.474510 0.000000
0.156863 0.474510 0.000000
0.192157 0.474510 0.000000
0.219608 0.474510 0.000000
0.247059 0.474510 0.000000
0.274510 0.474510 0.000000
0.309804 0.470588 0.000000
0.337255 0.470588 0.000000
0.364706 0.470588 0.000000
0.400000 0.470588 0.000000
0.427451 0.470588 0.000000
0.454902 0.470588 0.000000
0.482353 0.466667 0.000000
0.517647 0.466667 0.000000
0.541176 0.466667 0.000000
0.572549 0.466667 0.000000
0.603922 0.470588 0.000000
0.627451 0.470588 0.000000
0.658824 0.466667 0.000000
0.686275 0.466667 0.000000
0.713725 0.470588 0.000000
0.741176 0.470588 0.000000
0.768627 0.470588 0.000000
0.800000 0.474510 0.000000
0.827451 0.470588 0.000000
0.850980 0.470588 0.000000
0.878431 0.470588 0.000000
0.909804 0.470588 0.000000
0.937255 0.466667 0.000000
0.964706 0.466667 0.000000
0.996078 0.466667 0.000000
0.000000 0.509804 0.000000
0.003922 0.505882 0.000000
0.031373 0.505882 0.000000
0.062745 0.505882 0.000000
0.094118 0.505882 0.000000
0.121569 0.505882 0.000000
0.152941 0.505882 0.000000
0.188235 0.501961 0.000000
0.215686 0.501961 0.000000
0.243137 0.501961 0.000000
0.274510 0.501961 0.000000
0.305882 0.501961 0.000000
0.333333 0.498039 0.000000
0.364706 0.498039 0.000000
0.396078 0.498039 0.000000
0.423529 0.498039 0.000000
0.454902 0.498039 0.000000
0.478431 0.498039 0.000000
0.513725 0.494118 0.000000
0.541176 0.494118 0.000000
0.568627 0.494118 0.000000
0.600000 0.498039 0.000000
0.627451 0.498039 0.000000
0.654902 0.498039 0.000000
0.682353 0.494118 0.000000
0.713725 0.498039 0.000000
0.737255 0.498039 0.000000
0.764706 0.498039 0.000000
0.796078 0.501961 0.000000
0.823529 0.501961 0.000000
0.850980 0.498039 0.000000
0.874510 0.498039 0.000000
0.905882 0.498039 0.000000
0.933333 0.498039 0.000000
0.960784 0.498039 0.000000
0.992157 0.494118 0.000000
0.000000 0.537255 0.000000
0.000000 0.537255 0.000000
0.031373 0.537255 0.000000
0.058824 0.533333 0.000000
0.090196 0.533333 0.000000
0.121569 0.533333 0.000000
0.149020 0.533333 0.000000
0.184314 0.533333 0.000000
0.215686 0.529412 0.000000
0.239216 0.529412 0.000000
0.270588 0.529412 0.000000
0.305882 0.529412 0.000000
0.329412 0.529412 0.000000
0.360784 0.529412 0.000000
0.396078 0.525490 0.000000
0.419608 0.525490 0.000000
0.450980 0.525490 0.000000
0.478431 0.525490 0.000000
0.509804 0.525490 0.000000
0.537255 0.525490 0.000000
0.568627 0.521569 0.000000
0.596078 0.525490 0.000000
0.623529 0.525490 0.000000
0.654902 0.525490 0.000000
0.678431 0.525490 0.000000
0.709804 0.529412 0.000000
0.737255 0.525490 0.000000
0.764706 0.525490 0.000000
0.792157 0.529412 0.000000
0.819608 0.529412 0.000000
0.847059 0.529412 0.000000
0.874510 0.529412 0.000000
0.905882 0.525490 0.000000
0.933333 0.525490 0.000000
0.956863 0.525490 0.000000
0.988235 0.525490 0.000000
0.000000 0.560784 0.000000
0.000000 0.560784 0.000000
0.027451 0.560784 0.000000
0.058824 0.560784 0.000000
0.086275 0.556863 0.000000
0.117647 0.556863 0.000000
0.149020 0.556863 0.000000
0.184314 0.556863 0.000000
0.211765 0.556863 0.000000
0.239216 0.556863 0.000000
0.266667 0.552941 0.000000
0.301961 0.552941 0.000000
0.329412 0.552941 0.000000
0.356863 0.552941 0.000000
0.392157 0.552941 0.000000
0.419608 0.549020 0.000000
0.447059 0.549020 0.000000
0.474510 0.549020 0.000000
0.509804 0.549020 0.000000
0.533333 0.549020 0.000000
0.564706 0.549020 0.000000
0.596078 0.549020 0.000000
0.619608 0.549020 0.000000
0.650980 0.549020 0.000000
0.678431 0.549020 0.000000
0.709804 0.552941 0.000000
0.733333 0.552941 0.000000
0.760784 0.549020 0.000000
0.792157 0.552941 0.000000
0.815686 0.552941 0.000000
0.843137 0.552941 0.000000
0.870588 0.552941 0.000000
0.901961 0.552941 0.000000
0.929412 0.549020 0.000000
0.956863 0.549020 0.000000
0.988235 0.549020 0.000000
0.000000 0.592157 0.000000
0.000000 0.588235 0.000000
0.023529 0.588235 0.000000
0.054902 0.588235 0.000000
0.086275 0.588235 0.000000
0.113725 0.588235 0.000000
0.145098 0.584314 0.000000
0.180392 0.584314 0.000000
0.207843 0.584314 0.000000
0.235294 0.584314 0.000000
0.266667 0.584314 0.000000
0.301961 0.580392 0.000000
0.325490 0.580392 0.000000
0.356863 0.580392 0.000000
0.392157 0.580392 0.000000
0.415686 0.580392 0.000000
0.447059 0.580392 0.000000
0.470588 0.576471 0.000000
0.505882 0.576471 0.000000
0.533333 0.576471 0.000000
0.560784 0.576471 0.000000
0.592157 0.580392 0.000000
0.619608 0.580392 0.000000
0.647059 0.576471 0.000000
0.674510 0.576471 0.000000
0.705882 0.580392 0.000000
0.733333 0.580392 0.000000
0.756863 0.580392 0.000000
0.788235 0.584314 0.000000
0.815686 0.580392 0.000000
0.843137 0.580392 0.000000
0.866667 0.580392 0.000000
0.898039 0.580392 0.000000
0.925490 0.580392 0.000000
0.952941 0.576471 0.000000
0.984314 0.576471 0.000000
0.000000 0.619608 0.000000
0.000000 0.619608 0.000000
0.019608 0.619608 0.000000
0.050980 0.615686 0.000000
0.082353 0.615686 0.000000
0.109804 0.615686 0.000000
0.141176 0.615686 0.000000
0.176471 0.615686 0.000000
0.207843 0.611765 0.000000
0.231373 0.611765 0.000000
0.262745 0.611765 0.000000
0.298039 0.611765 0.000000
0.321569 0.611765 0.000000
0.352941 0.607843 0.000000
0.388235 0.607843 0.000000
0.411765 0.607843 0.000000
0.443137 0.607843 0.000000
0.470588 0.607843 0.000000
0.505882 0.603922 0.000000
0.529412 0.603922 0.000000
0.560784 0.603922 0.000000
0.592157 0.603922 0.000000
0.615686 0.603922 0.000000
0.647059 0.603922 0.000000
0.674510 0.600000 0.000000
0.701961 0.603922 0.000000
0.729412 0.603922 0.000000
0.756863 0.603922 0.000000
0.784314 0.607843 0.000000
0.811765 0.607843 0.000000
0.839216 0.603922 0.000000
0.866667 0.603922 0.000000
0.898039 0.603922 0.000000
0.921569 0.603922 0.000000
0.949020 0.603922 0.000000
0.980392 0.600000 0.000000
0.000000 0.643137 0.000000
0.000000 0.643137 0.000000
0.019608 0.643137 0.000000
0.047059 0.643137 0.000000
0.078431 0.639216 0.000000
0.109804 0.639216 0.000000
0.137255 0.639216 0.000000
0.172549 0.639216 0.000000
0.203922 0.639216 0.000000
0.231373 0.635294 0.000000
0.258824 0.635294 0.000000
0.294118 0.635294 0.000000
0.321569 0.635294 0.000000
0.349020 0.635294 0.000000
0.384314 0.631373 0.000000
0.411765 0.631373 0.000000
0.443137 0.631373 0.000000
0.466667 0.631373 0.000000
0.501961 0.631373 0.000000
0.529412 0.631373 0.000000
0.556863 0.627451 0.000000
0.588235 0.627451 0.000000
0.615686 0.627451 0.000000
0.643137 0.627451 0.000000
0.670588 0.627451 0.000000
0.701961 0.631373 0.000000
0.725490 0.627451 0.000000
0.752941 0.627451 0.000000
0.784314 0.631373 0.000000
0.811765 0.631373 0.000000
0.835294 0.631373 0.000000
0.862745 0.631373 0.000000
0.894118 0.627451 0.000000
0.921569 0.627451 0.000000
0.949020 0.627451 0.000000
0.980392 0.627451 0.000000
0.000000 0.666667 0.000000
0.000000 0.666667 0.000000
0.015686 0.666667 0.000000
0.047059 0.666667 0.000000
0.074510 0.666667 0.000000
0.105882 0.666667 0.000000
0.137255 0.662745 0.000000
0.172549 0.662745 0.000000
0.200000 0.662745 0.000000
0.227451 0.662745 0.000000
0.258824 0.662745 0.000000
0.290196 0.658824 0.000000
0.317647 0.658824 0.000000
0.349020 0.658824 0.000000
0.384314 0.658824 0.000000
0.407843 0.658824 0.000000
0.439216 0.654902 0.000000
0.466667 0.654902 0.000000
0.498039 0.654902 0.000000
0.525490 0.654902 0.000000
0.556863 0.654902 0.000000
0.584314 0.650980 0.000000
0.611765 0.650980 0.000000
