luts/subtle/honey.cube
TITLE "honey (subtle)"
LUT_3D_SIZE 6
0.019608 0.019608 0.019608
0.219608 0.015686 0.015686
0.419608 0.019608 0.011765
0.619608 0.019608 0.011765
0.811765 0.015686 0.007843
1.000000 0.011765 0.003922
0.011765 0.207843 0.011765
0.215686 0.207843 0.007843
0.411765 0.207843 0.003922
0.611765 0.207843 0.000000
0.803922 0.207843 0.000000
0.992157 0.203922 0.000000
0.003922 0.396078 0.003922
0.207843 0.392157 0.000000
0.403922 0.392157 0.000000
0.603922 0.392157 0.000000
0.792157 0.392157 0.000000
0.984314 0.388235 0.000000
0.000000 0.588235 0.000000
0.200000 0.584314 0.000000
0.396078 0.584314 0.000000
0.592157 0.580392 0.000000
0.784314 0.576471 0.000000
0.972549 0.576471 0.000000
0.000000 0.768627 0.000000
0.188235 0.764706 0.000000
0.388235 0.764706 0.000000
0.584314 0.760784 0.000000
0.776471 0.756863 0.000000
0.964706 0.756863 0.000000
0.000000 0.941176 0.000000
0.176471 0.941176 0.000000
0.376471 0.937255 0.000000
0.576471 0.933333 0.000000
0.768627 0.929412 0.000000
0.952941 0.929412 0.000000
0.015686 0.015686 0.207843
0.219608 0.015686 0.203922
0.419608 0.019608 0.203922
0.619608 0.015686 0.200000
0.811765 0.011765 0.200000
1.000000 0.007843 0.196078
0.011765 0.207843 0.200000
0.215686 0.207843 0.196078
0.407843 0.211765 0.196078
0.607843 0.207843 0.192157
0.800000 0.207843 0.188235
0.988235 0.203922 0.188235
0.003922 0.396078 0.192157
0.207843 0.396078 0.192157
0.403922 0.396078 0.188235
0.600000 0.392157 0.184314
0.792157 0.388235 0.180392
0.980392 0.388235 0.176471
0.000000 0.588235 0.184314
0.200000 0.584314 0.184314
0.396078 0.580392 0.180392
0.592157 0.580392 0.180392
0.780392 0.576471 0.172549
0.968627 0.576471 0.168627
0.000000 0.768627 0.172549
0.188235 0.764706 0.172549
0.388235 0.760784 0.172549
0.584314 0.760784 0.168627
0.772549 0.756863 0.164706
0.960784 0.752941 0.160784
0.000000 0.941176 0.160784
0.180392 0.937255 0.160784
0.376471 0.933333 0.160784
0.576471 0.933333 0.156863
0.764706 0.929412 0.152941
0.952941 0.925490 0.152941
0.015686 0.019608 0.396078
0.219608 0.019608 0.396078
0.415686 0.019608 0.392157
0.615686 0.015686 0.392157
0.811765 0.011765 0.392157
1.000000 0.007843 0.388235
0.007843 0.211765 0.388235
0.211765 0.211765 0.384314
0.407843 0.211765 0.384314
0.607843 0.207843 0.384314
0.796078 0.203922 0.380392
0.988235 0.200000 0.380392
0.000000 0.396078 0.380392
0.207843 0.396078 0.380392
0.403922 0.392157 0.376471
0.596078 0.392157 0.376471
0.788235 0.388235 0.372549
0.976471 0.388235 0.368627
0.000000 0.588235 0.376471
0.200000 0.584314 0.372549
0.396078 0.580392 0.372549
0.592157 0.580392 0.368627
0.780392 0.576471 0.364706
0.964706 0.572549 0.360784
0.000000 0.768627 0.364706
0.188235 0.764706 0.364706
0.388235 0.760784 0.364706
0.584314 0.756863 0.360784
0.772549 0.756863 0.360784
0.956863 0.752941 0.352941
0.000000 0.941176 0.356863
0.180392 0.937255 0.352941
0.380392 0.933333 0.352941
0.576471 0.929412 0.352941
0.764706 0.929412 0.349020
0.952941 0.925490 0.345098
0.015686 0.023529 0.580392
0.219608 0.019608 0.580392
0.419608 0.019608 0.576471
0.615686 0.015686 0.572549
0.807843 0.011765 0.572549
1.000000 0.007843 0.572549
0.007843 0.215686 0.572549
0.211765 0.211765 0.568627
0.407843 0.211765 0.564706
0.603922 0.207843 0.564706
0.796078 0.203922 0.564706
0.984314 0.200000 0.560784
0.000000 0.400000 0.564706
0.203922 0.396078 0.560784
0.403922 0.392157 0.556863
0.596078 0.392157 0.556863
0.788235 0.388235 0.556863
0.972549 0.384314 0.552941
0.000000 0.584314 0.556863
0.200000 0.584314 0.552941
0.396078 0.580392 0.552941
0.592157 0.576471 0.549020
0.776471 0.576471 0.549020
0.964706 0.572549 0.545098
0.000000 0.764706 0.549020
0.188235 0.760784 0.545098
0.388235 0.760784 0.545098
0.584314 0.756863 0.545098
0.772549 0.756863 0.541176
0.956863 0.752941 0.537255
0.000000 0.941176 0.541176
0.176471 0.937255 0.537255
0.380392 0.933333 0.537255
0.576471 0.929412 0.537255
0.764706 0.925490 0.533333
0.949020 0.925490 0.533333
0.015686 0.023529 0.764706
0.219608 0.019608 0.760784
0.419608 0.015686 0.756863
0.615686 0.015686 0.756863
0.807843 0.011765 0.752941
1.000000 0.007843 0.752941
0.003922 0.215686 0.752941
0.211765 0.211765 0.749020
0.407843 0.207843 0.745098
0.607843 0.207843 0.745098
0.796078 0.203922 0.741176
0.984314 0.200000 0.741176
0.000000 0.396078 0.745098
0.203922 0.396078 0.741176
0.400000 0.392157 0.737255
0.596078 0.392157 0.733333
0.784314 0.388235 0.733333
0.972549 0.384314 0.733333
0.000000 0.584314 0.737255
0.196078 0.584314 0.733333
0.396078 0.580392 0.729412
0.592157 0.576471 0.725490
0.776471 0.576471 0.725490
0.964706 0.572549 0.721569
0.000000 0.764706 0.729412
0.188235 0.760784 0.725490
0.388235 0.760784 0.721569
0.584314 0.756863 0.721569
0.772549 0.752941 0.717647
0.952941 0.752941 0.717647
0.000000 0.937255 0.721569
0.176471 0.933333 0.717647
0.376471 0.929412 0.713725
0.576471 0.929412 0.713725
0.764706 0.925490 0.713725
0.949020 0.925490 0.709804
0.011765 0.019608 0.949020
0.219608 0.019608 0.945098
0.419608 0.015686 0.941176
0.619608 0.011765 0.941176
0.811765 0.007843 0.937255
1.000000 0.007843 0.937255
0.003922 0.211765 0.937255
0.211765 0.211765 0.929412
0.407843 0.207843 0.929412
0.607843 0.203922 0.925490
0.796078 0.203922 0.921569
0.984314 0.200000 0.921569
0.000000 0.396078 0.929412
0.203922 0.396078 0.921569
0.400000 0.392157 0.917647
0.596078 0.388235 0.913725
0.788235 0.388235 0.909804
0.972549 0.384314 0.909804
0.000000 0.584314 0.917647
0.192157 0.580392 0.913725
0.392157 0.580392 0.909804
0.588235 0.576471 0.901961
0.776471 0.576471 0.901961
0.960784 0.572549 0.901961
0.000000 0.764706 0.909804
0.184314 0.760784 0.905882
0.384314 0.756863 0.901961
0.584314 0.756863 0.898039
0.772549 0.752941 0.894118
0.952941 0.752941 0.894118
0.000000 0.937255 0.901961
0.176471 0.933333 0.898039
0.376471 0.929412 0.894118
0.576471 0.925490 0.890196
0.764706 0.925490 0.890196
0.949020 0.921569 0.886275
