luts/subtle/honey.cube
TITLE "honey (subtle)"
LUT_3D_SIZE 36
0.019608 0.019608 0.019608
0.047059 0.015686 0.015686
0.074510 0.015686 0.015686
0.101961 0.015686 0.015686
0.129412 0.015686 0.015686
0.160784 0.015686 0.015686
0.188235 0.015686 0.015686
0.219608 0.015686 0.015686
0.247059 0.015686 0.015686
0.274510 0.019608 0.015686
0.301961 0.019608 0.015686
0.333333 0.019608 0.015686
0.360784 0.019608 0.015686
0.388235 0.015686 0.011765
0.419608 0.019608 0.011765
0.447059 0.019608 0.011765
0.474510 0.019608 0.011765
0.501961 0.019608 0.011765
0.533333 0.019608 0.011765
0.560784 0.019608 0.011765
0.588235 0.019608 0.011765
0.619608 0.019608 0.011765
0.643137 0.015686 0.007843
0.674510 0.015686 0.007843
0.698039 0.015686 0.007843
0.729412 0.015686 0.007843
0.752941 0.015686 0.007843
0.784314 0.015686 0.007843
0.811765 0.015686 0.007843
0.839216 0.015686 0.007843
0.862745 0.011765 0.003922
0.894118 0.011765 0.003922
0.921569 0.011765 0.003922
0.949020 0.011765 0.003922
0.972549 0.011765 0.003922
1.000000 0.011765 0.003922
0.015686 0.043137 0.015686
0.047059 0.043137 0.015686
0.074510 0.039216 0.015686
0.101961 0.039216 0.015686
0.129412 0.039216 0.015686
0.160784 0.039216 0.015686
0.188235 0.039216 0.015686
0.219608 0.039216 0.015686
0.243137 0.039216 0.015686
0.274510 0.043137 0.015686
0.301961 0.043137 0.015686
0.329412 0.043137 0.011765
0.360784 0.043137 0.011765
0.388235 0.043137 0.011765
0.419608 0.043137 0.011765
0.447059 0.043137 0.011765
0.470588 0.043137 0.011765
0.501961 0.043137 0.011765
0.533333 0.043137 0.011765
0.560784 0.043137 0.011765
0.588235 0.043137 0.007843
0.615686 0.043137 0.007843
0.643137 0.043137 0.007843
0.670588 0.039216 0.007843
0.698039 0.039216 0.007843
0.725490 0.039216 0.007843
0.752941 0.039216 0.007843
0.780392 0.039216 0.003922
0.811765 0.039216 0.003922
0.835294 0.039216 0.003922
0.862745 0.035294 0.003922
0.890196 0.035294 0.003922
0.921569 0.035294 0.003922
0.945098 0.035294 0.003922
0.972549 0.035294 0.000000
1.000000 0.035294 0.000000
0.015686 0.070588 0.015686
0.043137 0.070588 0.015686
0.074510 0.070588 0.015686
0.101961 0.066667 0.015686
0.129412 0.066667 0.015686
0.156863 0.066667 0.015686
0.188235 0.066667 0.015686
0.219608 0.066667 0.015686
0.243137 0.066667 0.011765
0.274510 0.070588 0.011765
0.301961 0.070588 0.011765
0.329412 0.070588 0.011765
0.360784 0.070588 0.011765
0.388235 0.070588 0.011765
0.415686 0.074510 0.011765
0.447059 0.070588 0.011765
0.470588 0.070588 0.011765
0.498039 0.070588 0.007843
0.533333 0.070588 0.007843
0.556863 0.070588 0.007843
0.588235 0.070588 0.007843
0.615686 0.070588 0.007843
0.643137 0.070588 0.007843
0.670588 0.070588 0.007843
0.694118 0.066667 0.007843
0.725490 0.066667 0.003922
0.749020 0.066667 0.003922
0.780392 0.066667 0.003922
0.807843 0.066667 0.003922
0.835294 0.066667 0.003922
0.858824 0.066667 0.003922
0.890196 0.062745 0.003922
0.921569 0.062745 0.000000
0.945098 0.062745 0.000000
0.972549 0.062745 0.000000
1.000000 0.062745 0.000000
0.015686 0.098039 0.015686
0.043137 0.098039 0.015686
0.070588 0.098039 0.015686
0.101961 0.098039 0.015686
0.129412 0.094118 0.015686
0.156863 0.094118 0.015686
0.184314 0.094118 0.011765
0.219608 0.094118 0.011765
0.243137 0.094118 0.011765
0.270588 0.098039 0.011765
0.301961 0.098039 0.011765
0.329412 0.098039 0.011765
0.356863 0.098039 0.011765
0.388235 0.098039 0.011765
0.415686 0.101961 0.011765
0.443137 0.101961 0.007843
0.470588 0.098039 0.007843
0.498039 0.098039 0.007843
0.533333 0.098039 0.007843
0.556863 0.098039 0.007843
0.584314 0.098039 0.007843
0.615686 0.098039 0.007843
0.639216 0.098039 0.007843
0.670588 0.098039 0.003922
0.694118 0.098039 0.003922
0.725490 0.094118 0.003922
0.749020 0.094118 0.003922
0.780392 0.094118 0.003922
0.807843 0.094118 0.003922
0.835294 0.094118 0.000000
0.858824 0.094118 0.000000
0.890196 0.094118 0.000000
0.917647 0.090196 0.000000
0.945098 0.090196 0.000000
0.968627 0.090196 0.000000
1.000000 0.090196 0.000000
0.015686 0.125490 0.015686
0.043137 0.125490 0.015686
0.070588 0.125490 0.015686
0.098039 0.125490 0.011765
0.129412 0.125490 0.011765
0.156863 0.125490 0.011765
0.184314 0.121569 0.011765
0.215686 0.121569 0.011765
0.243137 0.121569 0.011765
0.270588 0.125490 0.011765
0.298039 0.125490 0.011765
0.329412 0.125490 0.011765
0.356863 0.125490 0.011765
0.384314 0.125490 0.007843
0.415686 0.129412 0.007843
0.443137 0.129412 0.007843
0.466667 0.129412 0.007843
0.498039 0.125490 0.007843
0.529412 0.125490 0.007843
0.556863 0.125490 0.007843
0.584314 0.125490 0.003922
0.615686 0.125490 0.003922
0.639216 0.125490 0.003922
0.666667 0.125490 0.003922
0.694118 0.125490 0.003922
0.721569 0.125490 0.003922
0.749020 0.121569 0.003922
0.776471 0.121569 0.000000
0.807843 0.121569 0.000000
0.831373 0.121569 0.000000
0.858824 0.121569 0.000000
0.886275 0.121569 0.000000
0.917647 0.121569 0.000000
0.941176 0.117647 0.000000
0.968627 0.117647 0.000000
0.996078 0.117647 0.000000
0.011765 0.149020 0.011765
0.043137 0.149020 0.011765
0.070588 0.149020 0.011765
0.098039 0.149020 0.011765
0.125490 0.149020 0.011765
0.156863 0.149020 0.011765
0.184314 0.149020 0.011765
0.215686 0.145098 0.011765
0.239216 0.145098 0.011765
0.270588 0.149020 0.011765
0.298039 0.149020 0.011765
0.325490 0.149020 0.007843
0.356863 0.149020 0.007843
0.384314 0.149020 0.007843
0.411765 0.152941 0.007843
0.443137 0.152941 0.007843
0.466667 0.152941 0.007843
0.498039 0.152941 0.007843
0.529412 0.149020 0.003922
0.552941 0.149020 0.003922
0.584314 0.149020 0.003922
0.611765 0.149020 0.003922
0.639216 0.149020 0.003922
0.666667 0.149020 0.003922
0.694118 0.149020 0.003922
0.721569 0.149020 0.000000
0.745098 0.149020 0.000000
0.776471 0.145098 0.000000
0.803922 0.145098 0.000000
0.831373 0.145098 0.000000
0.854902 0.145098 0.000000
0.886275 0.145098 0.000000
0.913725 0.145098 0.000000
0.941176 0.145098 0.000000
0.964706 0.141176 0.000000
0.996078 0.141176 0.000000
0.011765 0.176471 0.011765
0.039216 0.176471 0.011765
0.070588 0.176471 0.011765
0.098039 0.176471 0.011765
0.125490 0.176471 0.011765
0.152941 0.176471 0.011765
0.184314 0.176471 0.011765
0.215686 0.176471 0.011765
0.239216 0.172549 0.011765
0.270588 0.176471 0.007843
0.298039 0.176471 0.007843
0.325490 0.176471 0.007843
0.352941 0.176471 0.007843
0.384314 0.176471 0.007843
0.411765 0.180392 0.007843
0.443137 0.180392 0.007843
0.466667 0.180392 0.007843
0.494118 0.180392 0.003922
0.529412 0.180392 0.003922
0.552941 0.176471 0.003922
0.580392 0.176471 0.003922
0.611765 0.176471 0.003922
0.635294 0.176471 0.003922
0.666667 0.176471 0.000000
0.690196 0.176471 0.000000
0.721569 0.176471 0.000000
0.745098 0.176471 0.000000
0.776471 0.176471 0.000000
0.803922 0.172549 0.000000
0.831373 0.172549 0.000000
0.854902 0.172549 0.000000
0.886275 0.172549 0.000000
0.913725 0.172549 0.000000
0.941176 0.172549 0.000000
0.964706 0.172549 0.000000
0.996078 0.168627 0.000000
0.011765 0.207843 0.011765
0.039216 0.207843 0.011765
0.066667 0.207843 0.011765
0.098039 0.207843 0.011765
0.125490 0.207843 0.011765
0.152941 0.207843 0.011765
0.180392 0.207843 0.007843
0.215686 0.207843 0.007843
0.239216 0.207843 0.007843
0.266667 0.207843 0.007843
0.298039 0.207843 0.007843
0.325490 0.207843 0.007843
0.352941 0.207843 0.007843
0.384314 0.207843 0.007843
0.411765 0.207843 0.003922
0.439216 0.211765 0.003922
0.466667 0.211765 0.003922
0.494118 0.211765 0.003922
0.525490 0.211765 0.003922
0.552941 0.211765 0.003922
0.580392 0.211765 0.003922
0.611765 0.207843 0.000000
0.635294 0.207843 0.000000
0.662745 0.207843 0.000000
0.690196 0.207843 0.000000
0.717647 0.207843 0.000000
0.745098 0.207843 0.000000
0.772549 0.207843 0.000000
0.803922 0.207843 0.000000
0.827451 0.203922 0.000000
0.854902 0.203922 0.000000
0.882353 0.203922 0.000000
0.913725 0.203922 0.000000
0.937255 0.203922 0.000000
0.964706 0.203922 0.000000
0.992157 0.203922 0.000000
0.011765 0.231373 0.011765
0.039216 0.231373 0.011765
0.066667 0.231373 0.007843
0.094118 0.231373 0.007843
0.125490 0.231373 0.007843
0.152941 0.231373 0.007843
0.180392 0.231373 0.007843
0.215686 0.231373 0.007843
0.239216 0.231373 0.007843
0.266667 0.231373 0.007843
0.294118 0.235294 0.007843
0.325490 0.231373 0.007843
0.352941 0.231373 0.003922
0.380392 0.231373 0.003922
0.411765 0.231373 0.003922
0.439216 0.235294 0.003922
0.462745 0.235294 0.003922
0.494118 0.235294 0.003922
0.525490 0.235294 0.003922
0.549020 0.235294 0.000000
0.580392 0.235294 0.000000
0.607843 0.235294 0.000000
0.635294 0.231373 0.000000
0.662745 0.231373 0.000000
0.690196 0.231373 0.000000
0.717647 0.231373 0.000000
0.741176 0.231373 0.000000
0.772549 0.231373 0.000000
0.800000 0.231373 0.000000
0.827451 0.231373 0.000000
0.850980 0.227451 0.000000
0.882353 0.227451 0.000000
0.909804 0.227451 0.000000
0.937255 0.227451 0.000000
0.960784 0.227451 0.000000
0.992157 0.227451 0.000000
0.007843 0.254902 0.007843
0.039216 0.254902 0.007843
0.066667 0.254902 0.007843
0.094118 0.254902 0.007843
0.121569 0.254902 0.007843
0.152941 0.254902 0.007843
0.180392 0.254902 0.007843
0.211765 0.254902 0.007843
0.239216 0.254902 0.007843
0.266667 0.254902 0.007843
0.294118 0.258824 0.007843
0.321569 0.258824 0.003922
0.352941 0.254902 0.003922
0.380392 0.254902 0.003922
0.407843 0.254902 0.003922
0.439216 0.258824 0.003922
0.462745 0.258824 0.003922
0.490196 0.258824 0.003922
0.525490 0.258824 0.000000
0.549020 0.258824 0.000000
0.580392 0.258824 0.000000
0.607843 0.258824 0.000000
0.631373 0.258824 0.000000
0.662745 0.254902 0.000000
0.686275 0.254902 0.000000
0.717647 0.254902 0.000000
0.741176 0.254902 0.000000
0.772549 0.254902 0.000000
0.800000 0.254902 0.000000
0.827451 0.254902 0.000000
0.850980 0.254902 0.000000
0.882353 0.250980 0.000000
0.909804 0.250980 0.000000
0.937255 0.250980 0.000000
0.960784 0.250980 0.000000
0.992157 0.250980 0.000000
0.007843 0.286275 0.007843
0.035294 0.286275 0.007843
0.066667 0.286275 0.007843
0.094118 0.286275 0.007843
0.121569 0.286275 0.007843
0.149020 0.286275 0.007843
0.180392 0.286275 0.007843
0.211765 0.286275 0.007843
0.235294 0.286275 0.003922
0.266667 0.286275 0.003922
0.294118 0.286275 0.003922
0.321569 0.286275 0.003922
0.349020 0.286275 0.003922
0.380392 0.282353 0.003922
0.407843 0.282353 0.003922
0.435294 0.286275 0.003922
0.462745 0.286275 0.000000
0.490196 0.286275 0.000000
0.525490 0.286275 0.000000
0.549020 0.286275 0.000000
0.576471 0.286275 0.000000
0.607843 0.286275 0.000000
0.631373 0.286275 0.000000
0.662745 0.286275 0.000000
0.686275 0.282353 0.000000
0.713725 0.282353 0.000000
0.741176 0.282353 0.000000
0.768627 0.282353 0.000000
0.800000 0.282353 0.000000
0.823529 0.282353 0.000000
0.850980 0.282353 0.000000
0.878431 0.282353 0.000000
0.909804 0.278431 0.000000
0.933333 0.278431 0.000000
0.960784 0.278431 0.000000
0.988235 0.278431 0.000000
0.007843 0.317647 0.007843
0.035294 0.317647 0.007843
0.062745 0.313725 0.007843
0.094118 0.313725 0.007843
0.121569 0.313725 0.003922
0.149020 0.313725 0.003922
0.176471 0.313725 0.003922
0.211765 0.313725 0.003922
0.235294 0.313725 0.003922
0.262745 0.313725 0.003922
0.294118 0.313725 0.003922
0.321569 0.313725 0.003922
0.349020 0.313725 0.003922
0.380392 0.313725 0.003922
0.407843 0.313725 0.000000
0.435294 0.313725 0.000000
0.458824 0.313725 0.000000
0.490196 0.313725 0.000000
0.521569 0.313725 0.000000
0.549020 0.313725 0.000000
0.576471 0.313725 0.000000
0.603922 0.313725 0.000000
0.631373 0.313725 0.000000
0.658824 0.313725 0.000000
0.686275 0.313725 0.000000
0.713725 0.309804 0.000000
0.737255 0.309804 0.000000
0.768627 0.309804 0.000000
0.796078 0.309804 0.000000
0.823529 0.309804 0.000000
0.847059 0.309804 0.000000
0.878431 0.309804 0.000000
0.905882 0.309804 0.000000
0.933333 0.309804 0.000000
0.956863 0.305882 0.000000
0.988235 0.305882 0.000000
0.003922 0.345098 0.003922
0.035294 0.345098 0.003922
0.062745 0.345098 0.003922
0.090196 0.341176 0.003922
0.121569 0.341176 0.003922
0.149020 0.341176 0.003922
0.176471 0.341176 0.003922
0.211765 0.341176 0.003922
0.235294 0.341176 0.003922
0.262745 0.341176 0.003922
0.290196 0.341176 0.003922
0.321569 0.341176 0.003922
0.349020 0.341176 0.000000
0.376471 0.341176 0.000000
0.407843 0.341176 0.000000
0.435294 0.345098 0.000000
0.458824 0.341176 0.000000
0.490196 0.341176 0.000000
0.521569 0.341176 0.000000
0.545098 0.341176 0.000000
0.576471 0.341176 0.000000
0.603922 0.341176 0.000000
0.627451 0.341176 0.000000
0.658824 0.341176 0.000000
0.682353 0.341176 0.000000
0.713725 0.341176 0.000000
0.737255 0.337255 0.000000
0.768627 0.337255 0.000000
0.796078 0.337255 0.000000
0.819608 0.337255 0.000000
0.847059 0.337255 0.000000
0.874510 0.337255 0.000000
0.905882 0.337255 0.000000
0.929412 0.337255 0.000000
0.956863 0.337255 0.000000
0.984314 0.333333 0.000000
0.003922 0.372549 0.003922
0.031373 0.372549 0.003922
0.062745 0.372549 0.003922
0.090196 0.372549 0.003922
0.117647 0.372549 0.003922
0.149020 0.368627 0.003922
0.176471 0.368627 0.003922
0.207843 0.368627 0.003922
0.231373 0.368627 0.000000
0.262745 0.368627 0.000000
0.290196 0.368627 0.000000
0.317647 0.368627 0.000000
0.349020 0.368627 0.000000
0.376471 0.368627 0.000000
0.403922 0.368627 0.000000
0.435294 0.372549 0.000000
0.458824 0.372549 0.000000
0.486275 0.368627 0.000000
0.521569 0.368627 0.000000
0.545098 0.368627 0.000000
0.572549 0.368627 0.000000
0.603922 0.368627 0.000000
0.627451 0.368627 0.000000
0.658824 0.368627 0.000000
0.682353 0.368627 0.000000
0.709804 0.368627 0.000000
0.737255 0.368627 0.000000
0.764706 0.368627 0.000000
0.796078 0.364706 0.000000
0.819608 0.364706 0.000000
0.847059 0.364706 0.000000
0.874510 0.364706 0.000000
0.905882 0.364706 0.000000
0.929412 0.364706 0.000000
0.952941 0.364706 0.000000
0.984314 0.364706 0.000000
0.003922 0.396078 0.003922
0.031373 0.396078 0.003922
0.058824 0.396078 0.003922
0.090196 0.396078 0.003922
0.117647 0.396078 0.000000
0.145098 0.396078 0.000000
0.176471 0.392157 0.000000
0.207843 0.392157 0.000000
0.231373 0.392157 0.000000
0.262745 0.392157 0.000000
0.290196 0.392157 0.000000
0.317647 0.392157 0.000000
0.345098 0.392157 0.000000
0.376471 0.392157 0.000000
0.403922 0.392157 0.000000
0.431373 0.396078 0.000000
0.458824 0.396078 0.000000
0.486275 0.396078 0.000000
0.517647 0.392157 0.000000
0.545098 0.392157 0.000000
0.572549 0.392157 0.000000
0.603922 0.392157 0.000000
0.627451 0.392157 0.000000
0.654902 0.392157 0.000000
0.682353 0.392157 0.000000
0.709804 0.392157 0.000000
0.733333 0.392157 0.000000
0.764706 0.392157 0.000000
0.792157 0.392157 0.000000
0.819608 0.388235 0.000000
0.843137 0.388235 0.000000
0.874510 0.388235 0.000000
0.901961 0.388235 0.000000
0.929412 0.388235 0.000000
0.952941 0.388235 0.000000
0.984314 0.388235 0.000000
0.000000 0.427451 0.000000
0.031373 0.427451 0.000000
0.058824 0.427451 0.000000
0.086275 0.427451 0.000000
0.117647 0.427451 0.000000
0.145098 0.427451 0.000000
0.172549 0.427451 0.000000
0.207843 0.427451 0.000000
0.231373 0.419608 0.000000
0.258824 0.419608 0.000000
0.290196 0.419608 0.000000
0.317647 0.419608 0.000000
0.345098 0.419608 0.000000
0.372549 0.419608 0.000000
0.403922 0.419608 0.000000
0.431373 0.423529 0.000000
0.454902 0.423529 0.000000
0.486275 0.423529 0.000000
0.517647 0.423529 0.000000
0.541176 0.423529 0.000000
0.572549 0.419608 0.000000
0.600000 0.419608 0.000000
0.627451 0.419608 0.000000
0.654902 0.419608 0.000000
0.678431 0.419608 0.000000
0.709804 0.419608 0.000000
0.733333 0.419608 0.000000
0.764706 0.419608 0.000000
0.792157 0.419608 0.000000
0.815686 0.419608 0.000000
0.843137 0.415686 0.000000
0.870588 0.415686 0.000000
0.901961 0.415686 0.000000
0.925490 0.415686 0.000000
0.952941 0.415686 0.000000
0.980392 0.415686 0.000000
0.000000 0.454902 0.000000
0.027451 0.454902 0.000000
0.058824 0.454902 0.000000
0.086275 0.454902 0.000000
0.113725 0.454902 0.000000
0.145098 0.454902 0.000000
0.172549 0.454902 0.000000
0.203922 0.454902 0.000000
0.231373 0.454902 0.000000
0.258824 0.450980 0.000000
0.286275 0.450980 0.000000
0.317647 0.450980 0.000000
0.345098 0.450980 0.000000
0.372549 0.450980 0.000000
0.400000 0.450980 0.000000
0.431373 0.450980 0.000000
0.454902 0.450980 0.000000
0.482353 0.450980 0.000000
0.517647 0.450980 0.000000
0.541176 0.450980 0.000000
0.568627 0.450980 0.000000
0.600000 0.447059 0.000000
0.623529 0.447059 0.000000
0.654902 0.447059 0.000000
0.678431 0.447059 0.000000
0.705882 0.447059 0.000000
0.733333 0.447059 0.000000
0.760784 0.447059 0.000000
0.792157 0.447059 0.000000
0.815686 0.447059 0.000000
0.843137 0.447059 0.000000
0.870588 0.443137 0.000000
0.901961 0.443137 0.000000
0.925490 0.443137 0.000000
0.949020 0.443137 0.000000
0.980392 0.443137 0.000000
0.000000 0.478431 0.000000
0.027451 0.478431 0.000000
0.054902 0.478431 0.000000
0.086275 0.478431 0.000000
0.113725 0.478431 0.000000
0.141176 0.478431 0.000000
0.172549 0.478431 0.000000
0.203922 0.478431 0.000000
0.227451 0.478431 0.000000
0.258824 0.478431 0.000000
0.286275 0.478431 0.000000
0.313725 0.474510 0.000000
0.345098 0.474510 0.000000
0.372549 0.474510 0.000000
0.400000 0.474510 0.000000
0.431373 0.474510 0.000000
0.454902 0.474510 0.000000
0.482353 0.474510 0.000000
0.517647 0.474510 0.000000
0.541176 0.474510 0.000000
0.568627 0.474510 0.000000
0.600000 0.474510 0.000000
0.623529 0.474510 0.000000
0.650980 0.470588 0.000000
0.678431 0.470588 0.000000
0.705882 0.470588 0.000000
0.729412 0.470588 0.000000
0.760784 0.470588 0.000000
0.788235 0.470588 0.000000
0.815686 0.470588 0.000000
0.839216 0.470588 0.000000
0.870588 0.470588 0.000000
0.898039 0.466667 0.000000
0.925490 0.466667 0.000000
0.949020 0.466667 0.000000
0.980392 0.466667 0.000000
0.000000 0.509804 0.000000
0.027451 0.505882 0.000000
0.054902 0.505882 0.000000
0.082353 0.505882 0.000000
0.113725 0.505882 0.000000
0.141176 0.505882 0.000000
0.168627 0.505882 0.000000
0.203922 0.505882 0.000000
0.227451 0.505882 0.000000
0.254902 0.505882 0.000000
0.286275 0.505882 0.000000
0.313725 0.505882 0.000000
0.341176 0.501961 0.000000
0.372549 0.501961 0.000000
0.400000 0.501961 0.000000
0.427451 0.501961 0.000000
0.454902 0.501961 0.000000
0.482353 0.501961 0.000000
0.513725 0.501961 0.000000
0.541176 0.501961 0.000000
0.568627 0.501961 0.000000
0.596078 0.501961 0.000000
0.623529 0.501961 0.000000
0.650980 0.501961 0.000000
0.674510 0.498039 0.000000
0.705882 0.498039 0.000000
0.729412 0.498039 0.000000
0.760784 0.498039 0.000000
0.788235 0.498039 0.000000
0.811765 0.498039 0.000000
0.839216 0.498039 0.000000
0.866667 0.498039 0.000000
0.898039 0.498039 0.000000
0.921569 0.498039 0.000000
0.949020 0.494118 0.000000
0.976471 0.494118 0.000000
0.000000 0.537255 0.000000
0.023529 0.537255 0.000000
0.054902 0.537255 0.000000
0.082353 0.533333 0.000000
0.109804 0.533333 0.000000
0.141176 0.533333 0.000000
0.168627 0.533333 0.000000
0.200000 0.533333 0.000000
0.227451 0.533333 0.000000
0.254902 0.533333 0.000000
0.282353 0.533333 0.000000
0.313725 0.533333 0.000000
0.341176 0.533333 0.000000
0.368627 0.533333 0.000000
0.400000 0.529412 0.000000
0.427451 0.529412 0.000000
0.450980 0.529412 0.000000
0.482353 0.529412 0.000000
0.513725 0.529412 0.000000
0.537255 0.529412 0.000000
0.568627 0.529412 0.000000
0.596078 0.529412 0.000000
0.619608 0.529412 0.000000
0.650980 0.529412 0.000000
0.674510 0.529412 0.000000
0.701961 0.525490 0.000000
0.729412 0.525490 0.000000
0.756863 0.525490 0.000000
0.788235 0.525490 0.000000
0.811765 0.525490 0.000000
0.835294 0.525490 0.000000
0.866667 0.525490 0.000000
0.894118 0.525490 0.000000
0.921569 0.525490 0.000000
0.945098 0.525490 0.000000
0.976471 0.521569 0.000000
0.000000 0.560784 0.000000
0.023529 0.560784 0.000000
0.050980 0.560784 0.000000
0.082353 0.560784 0.000000
0.109804 0.556863 0.000000
0.137255 0.556863 0.000000
0.168627 0.556863 0.000000
0.200000 0.556863 0.000000
0.223529 0.556863 0.000000
0.254902 0.556863 0.000000
0.282353 0.556863 0.000000
0.309804 0.556863 0.000000
0.341176 0.556863 0.000000
0.368627 0.556863 0.000000
0.396078 0.556863 0.000000
0.427451 0.552941 0.000000
0.450980 0.552941 0.000000
0.478431 0.552941 0.000000
0.513725 0.552941 0.000000
0.537255 0.552941 0.000000
0.564706 0.552941 0.000000
0.596078 0.552941 0.000000
0.619608 0.552941 0.000000
0.647059 0.552941 0.000000
0.674510 0.552941 0.000000
0.701961 0.552941 0.000000
0.729412 0.552941 0.000000
0.756863 0.549020 0.000000
0.784314 0.549020 0.000000
0.811765 0.549020 0.000000
0.835294 0.549020 0.000000
0.866667 0.549020 0.000000
0.894118 0.549020 0.000000
0.921569 0.549020 0.000000
0.945098 0.549020 0.000000
0.976471 0.549020 0.000000
0.000000 0.588235 0.000000
0.023529 0.588235 0.000000
0.050980 0.588235 0.000000
0.078431 0.588235 0.000000
0.109804 0.588235 0.000000
0.137255 0.588235 0.000000
0.164706 0.584314 0.000000
0.200000 0.584314 0.000000
0.223529 0.584314 0.000000
0.250980 0.584314 0.000000
0.282353 0.584314 0.000000
0.309804 0.584314 0.000000
0.337255 0.584314 0.000000
0.368627 0.584314 0.000000
0.396078 0.584314 0.000000
0.423529 0.584314 0.000000
0.450980 0.584314 0.000000
0.478431 0.580392 0.000000
0.509804 0.580392 0.000000
0.537255 0.580392 0.000000
0.564706 0.580392 0.000000
0.592157 0.580392 0.000000
0.619608 0.580392 0.000000
0.647059 0.580392 0.000000
0.670588 0.580392 0.000000
0.701961 0.580392 0.000000
0.725490 0.580392 0.000000
0.756863 0.580392 0.000000
0.784314 0.576471 0.000000
0.807843 0.576471 0.000000
0.835294 0.576471 0.000000
0.862745 0.576471 0.000000
0.894118 0.576471 0.000000
0.917647 0.576471 0.000000
0.945098 0.576471 0.000000
0.972549 0.576471 0.000000
0.000000 0.611765 0.000000
0.019608 0.611765 0.000000
0.050980 0.611765 0.000000
0.078431 0.611765 0.000000
0.105882 0.611765 0.000000
0.137255 0.611765 0.000000
0.164706 0.611765 0.000000
0.196078 0.607843 0.000000
0.223529 0.607843 0.000000
0.250980 0.607843 0.000000
0.278431 0.607843 0.000000
0.309804 0.607843 0.000000
0.337255 0.607843 0.000000
0.364706 0.607843 0.000000
0.396078 0.607843 0.000000
0.423529 0.607843 0.000000
0.447059 0.607843 0.000000
0.478431 0.607843 0.000000
0.509804 0.603922 0.000000
0.533333 0.603922 0.000000
0.564706 0.603922 0.000000
0.592157 0.603922 0.000000
0.615686 0.603922 0.000000
0.647059 0.603922 0.000000
0.670588 0.603922 0.000000
0.701961 0.603922 0.000000
0.725490 0.603922 0.000000
0.752941 0.603922 0.000000
0.784314 0.603922 0.000000
0.807843 0.600000 0.000000
0.831373 0.600000 0.000000
0.862745 0.600000 0.000000
0.890196 0.600000 0.000000
0.917647 0.600000 0.000000
0.941176 0.600000 0.000000
0.972549 0.600000 0.000000
0.000000 0.635294 0.000000
0.019608 0.635294 0.000000
0.047059 0.635294 0.000000
0.078431 0.635294 0.000000
0.105882 0.635294 0.000000
0.133333 0.635294 0.000000
0.164706 0.635294 0.000000
0.196078 0.635294 0.000000
0.219608 0.635294 0.000000
0.250980 0.631373 0.000000
0.278431 0.631373 0.000000
0.305882 0.631373 0.000000
0.337255 0.631373 0.000000
0.364706 0.631373 0.000000
0.392157 0.631373 0.000000
0.423529 0.631373 0.000000
0.447059 0.631373 0.000000
0.474510 0.631373 0.000000
0.509804 0.631373 0.000000
0.533333 0.627451 0.000000
0.564706 0.627451 0.000000
0.592157 0.627451 0.000000
0.615686 0.627451 0.000000
0.647059 0.627451 0.000000
0.670588 0.627451 0.000000
0.698039 0.627451 0.000000
0.725490 0.627451 0.000000
0.752941 0.627451 0.000000
0.780392 0.627451 0.000000
0.807843 0.627451 0.000000
0.831373 0.627451 0.000000
0.862745 0.623529 0.000000
0.890196 0.623529 0.000000
0.917647 0.623529 0.000000
0.941176 0.623529 0.000000
0.968627 0.623529 0.000000
0.000000 0.662745 0.000000
0.015686 0.662745 0.000000
0.047059 0.662745 0.000000
0.074510 0.662745 0.000000
0.101961 0.662745 0.000000
0.133333 0.662745 0.000000
0.160784 0.662745 0.000000
0.196078 0.662745 0.000000
0.219608 0.662745 0.000000
0.247059 0.662745 0.000000
0.278431 0.658824 0.000000
0.305882 0.658824 0.000000
0.333333 0.658824 0.000000
0.364706 0.658824 0.000000
0.392157 0.658824 0.000000
0.419608 0.658824 0.000000
0.447059 0.658824 0.000000
0.474510 0.658824 0.000000
0.509804 0.658824 0.000000
0.533333 0.658824 0.000000
0.560784 0.658824 0.000000
0.592157 0.654902 0.000000
0.615686 0.654902 0.000000
