luts/subtle/honey.cube
TITLE "honey (subtle)"
LUT_3D_SIZE 8
0.019608 0.019608 0.019608
0.160784 0.015686 0.015686
0.301961 0.019608 0.015686
0.447059 0.019608 0.011765
0.588235 0.019608 0.011765
0.729412 0.015686 0.007843
0.862745 0.011765 0.003922
1.000000 0.011765 0.003922
0.011765 0.149020 0.011765
0.156863 0.149020 0.011765
0.298039 0.149020 0.011765
0.443137 0.152941 0.007843
0.584314 0.149020 0.003922
0.721569 0.149020 0.000000
0.854902 0.145098 0.000000
0.996078 0.141176 0.000000
0.007843 0.286275 0.007843
0.149020 0.286275 0.007843
0.294118 0.286275 0.003922
0.435294 0.286275 0.003922
0.576471 0.286275 0.000000
0.713725 0.282353 0.000000
0.850980 0.282353 0.000000
0.988235 0.278431 0.000000
0.000000 0.427451 0.000000
0.145098 0.427451 0.000000
0.290196 0.419608 0.000000
0.431373 0.423529 0.000000
0.572549 0.419608 0.000000
0.709804 0.419608 0.000000
0.843137 0.415686 0.000000
0.980392 0.415686 0.000000
0.000000 0.560784 0.000000
0.137255 0.556863 0.000000
0.282353 0.556863 0.000000
0.427451 0.552941 0.000000
0.564706 0.552941 0.000000
0.701961 0.552941 0.000000
0.835294 0.549020 0.000000
0.976471 0.549020 0.000000
0.000000 0.694118 0.000000
0.129412 0.690196 0.000000
0.274510 0.690196 0.000000
0.419608 0.686275 0.000000
0.560784 0.686275 0.000000
0.698039 0.682353 0.000000
0.827451 0.682353 0.000000
0.968627 0.678431 0.000000
0.000000 0.819608 0.000000
0.121569 0.815686 0.000000
0.266667 0.811765 0.000000
0.411765 0.811765 0.000000
0.552941 0.807843 0.000000
0.690196 0.807843 0.000000
0.823529 0.803922 0.000000
0.960784 0.803922 0.000000
0.000000 0.941176 0.000000
0.113725 0.941176 0.000000
0.258824 0.937255 0.000000
0.403922 0.937255 0.000000
0.545098 0.933333 0.000000
0.682353 0.933333 0.000000
0.815686 0.929412 0.000000
0.952941 0.929412 0.000000
0.015686 0.015686 0.149020
0.160784 0.015686 0.149020
0.301961 0.019608 0.145098
0.447059 0.019608 0.145098
0.588235 0.019608 0.145098
0.725490 0.015686 0.141176
0.862745 0.011765 0.141176
1.000000 0.007843 0.137255
0.011765 0.149020 0.145098
0.156863 0.149020 0.141176
0.298039 0.152941 0.141176
0.439216 0.152941 0.141176
0.580392 0.149020 0.137255
0.717647 0.149020 0.137255
0.854902 0.145098 0.133333
0.992157 0.141176 0.129412
0.007843 0.286275 0.141176
0.149020 0.290196 0.137255
0.294118 0.290196 0.137255
0.435294 0.286275 0.133333
0.576471 0.286275 0.133333
0.713725 0.282353 0.129412
0.847059 0.282353 0.125490
0.984314 0.278431 0.125490
0.000000 0.427451 0.133333
0.145098 0.423529 0.133333
0.290196 0.423529 0.133333
0.431373 0.423529 0.129412
0.568627 0.419608 0.125490
0.705882 0.419608 0.125490
0.839216 0.415686 0.121569
0.980392 0.415686 0.117647
0.000000 0.560784 0.125490
0.141176 0.556863 0.125490
0.282353 0.556863 0.125490
0.427451 0.552941 0.125490
0.564706 0.552941 0.121569
0.701961 0.549020 0.117647
0.835294 0.549020 0.113725
0.972549 0.545098 0.109804
0.000000 0.690196 0.121569
0.133333 0.690196 0.121569
0.274510 0.686275 0.117647
0.419608 0.686275 0.117647
0.560784 0.682353 0.113725
0.694118 0.682353 0.113725
0.827451 0.682353 0.109804
0.964706 0.678431 0.101961
0.000000 0.815686 0.113725
0.125490 0.815686 0.113725
0.270588 0.811765 0.109804
0.411765 0.811765 0.109804
0.552941 0.807843 0.105882
0.690196 0.807843 0.105882
0.823529 0.803922 0.101961
0.960784 0.803922 0.098039
0.000000 0.941176 0.101961
0.117647 0.937255 0.101961
0.262745 0.937255 0.101961
0.407843 0.933333 0.098039
0.545098 0.933333 0.098039
0.682353 0.929412 0.094118
0.815686 0.929412 0.094118
0.952941 0.925490 0.090196
0.015686 0.019608 0.286275
0.160784 0.019608 0.282353
0.301961 0.019608 0.282353
0.447059 0.019608 0.282353
0.588235 0.015686 0.278431
0.725490 0.015686 0.278431
0.862745 0.011765 0.278431
1.000000 0.007843 0.274510
0.011765 0.152941 0.278431
0.152941 0.152941 0.278431
0.298039 0.152941 0.274510
0.439216 0.152941 0.274510
0.580392 0.149020 0.274510
0.717647 0.149020 0.274510
0.850980 0.145098 0.270588
0.992157 0.141176 0.270588
0.007843 0.286275 0.274510
0.149020 0.290196 0.274510
0.294118 0.286275 0.270588
0.435294 0.286275 0.270588
0.572549 0.286275 0.270588
0.709804 0.282353 0.266667
0.843137 0.282353 0.266667
0.980392 0.278431 0.262745
0.000000 0.427451 0.270588
0.145098 0.423529 0.270588
0.290196 0.423529 0.266667
0.431373 0.423529 0.266667
0.568627 0.419608 0.262745
0.705882 0.419608 0.262745
0.839216 0.415686 0.258824
0.976471 0.415686 0.254902
0.000000 0.560784 0.262745
0.137255 0.556863 0.262745
0.282353 0.552941 0.262745
0.427451 0.552941 0.262745
0.564706 0.552941 0.258824
0.698039 0.549020 0.254902
0.831373 0.549020 0.254902
0.968627 0.545098 0.250980
0.000000 0.690196 0.258824
0.133333 0.690196 0.254902
0.278431 0.686275 0.254902
0.419608 0.686275 0.254902
0.560784 0.682353 0.254902
0.694118 0.682353 0.250980
0.827451 0.678431 0.247059
0.964706 0.678431 0.243137
0.000000 0.815686 0.250980
0.125490 0.811765 0.250980
0.270588 0.811765 0.250980
0.415686 0.807843 0.247059
0.552941 0.807843 0.247059
0.690196 0.803922 0.243137
0.819608 0.803922 0.243137
0.956863 0.803922 0.239216
0.000000 0.941176 0.243137
0.117647 0.937255 0.243137
0.262745 0.937255 0.243137
0.407843 0.933333 0.239216
0.549020 0.933333 0.239216
0.682353 0.929412 0.235294
0.815686 0.929412 0.235294
0.952941 0.925490 0.231373
0.015686 0.023529 0.415686
0.160784 0.023529 0.415686
0.301961 0.019608 0.415686
0.447059 0.019608 0.411765
0.588235 0.015686 0.411765
0.725490 0.015686 0.411765
0.862745 0.011765 0.411765
1.000000 0.007843 0.411765
0.011765 0.156863 0.411765
0.152941 0.152941 0.407843
0.298039 0.152941 0.407843
0.439216 0.149020 0.407843
0.580392 0.149020 0.407843
0.717647 0.145098 0.403922
0.850980 0.145098 0.403922
0.992157 0.141176 0.403922
0.003922 0.286275 0.407843
0.149020 0.290196 0.403922
0.294118 0.286275 0.403922
0.435294 0.286275 0.400000
0.572549 0.286275 0.400000
0.709804 0.282353 0.400000
0.843137 0.282353 0.396078
0.980392 0.278431 0.396078
0.000000 0.427451 0.400000
0.145098 0.423529 0.400000
0.286275 0.423529 0.400000
0.431373 0.419608 0.396078
0.568627 0.419608 0.396078
0.701961 0.419608 0.396078
0.835294 0.415686 0.392157
0.972549 0.415686 0.388235
0.000000 0.556863 0.396078
0.137255 0.556863 0.396078
0.282353 0.552941 0.392157
0.427451 0.552941 0.392157
0.564706 0.552941 0.392157
0.698039 0.549020 0.388235
0.831373 0.549020 0.388235
0.968627 0.545098 0.384314
0.000000 0.690196 0.392157
0.129412 0.690196 0.388235
0.278431 0.686275 0.388235
0.419608 0.682353 0.388235
0.560784 0.682353 0.384314
0.694118 0.682353 0.384314
0.823529 0.678431 0.380392
0.960784 0.678431 0.380392
0.000000 0.815686 0.384314
0.125490 0.811765 0.384314
0.270588 0.811765 0.384314
0.415686 0.807843 0.380392
0.552941 0.807843 0.380392
0.690196 0.803922 0.380392
0.819608 0.803922 0.376471
0.956863 0.800000 0.372549
0.000000 0.941176 0.376471
0.113725 0.937255 0.376471
0.262745 0.933333 0.376471
0.407843 0.933333 0.376471
0.549020 0.929412 0.372549
0.682353 0.929412 0.372549
0.815686 0.925490 0.368627
0.949020 0.925490 0.368627
0.015686 0.023529 0.552941
0.160784 0.019608 0.549020
0.301961 0.019608 0.549020
0.447059 0.019608 0.545098
0.588235 0.015686 0.545098
0.725490 0.011765 0.545098
0.858824 0.011765 0.545098
1.000000 0.007843 0.545098
0.011765 0.156863 0.545098
0.152941 0.152941 0.541176
0.298039 0.152941 0.541176
0.439216 0.149020 0.541176
0.580392 0.149020 0.537255
0.717647 0.145098 0.537255
0.850980 0.145098 0.537255
0.992157 0.141176 0.537255
0.003922 0.290196 0.541176
0.149020 0.290196 0.537255
0.290196 0.286275 0.533333
0.435294 0.286275 0.533333
0.572549 0.282353 0.533333
0.709804 0.282353 0.529412
0.843137 0.278431 0.529412
0.980392 0.278431 0.529412
0.000000 0.427451 0.533333
0.145098 0.423529 0.533333
0.286275 0.423529 0.529412
0.431373 0.419608 0.529412
0.568627 0.419608 0.525490
0.701961 0.419608 0.525490
0.835294 0.415686 0.525490
0.972549 0.415686 0.521569
0.000000 0.556863 0.529412
0.137255 0.556863 0.525490
0.282353 0.552941 0.525490
0.423529 0.552941 0.525490
0.564706 0.549020 0.521569
0.698039 0.549020 0.521569
0.827451 0.549020 0.517647
0.964706 0.545098 0.517647
0.000000 0.690196 0.525490
0.129412 0.686275 0.521569
0.274510 0.686275 0.521569
0.419608 0.682353 0.517647
0.560784 0.682353 0.517647
0.694118 0.682353 0.517647
0.823529 0.678431 0.513725
0.960784 0.678431 0.513725
0.000000 0.815686 0.517647
0.121569 0.811765 0.517647
0.270588 0.807843 0.513725
0.415686 0.807843 0.513725
0.552941 0.803922 0.513725
0.690196 0.803922 0.513725
0.819608 0.803922 0.509804
0.956863 0.800000 0.505882
0.000000 0.941176 0.509804
0.113725 0.937255 0.509804
0.262745 0.933333 0.509804
0.407843 0.929412 0.509804
0.549020 0.929412 0.505882
0.682353 0.929412 0.505882
0.815686 0.925490 0.505882
0.949020 0.925490 0.501961
0.015686 0.023529 0.686275
0.160784 0.019608 0.686275
0.301961 0.019608 0.682353
0.447059 0.015686 0.682353
0.588235 0.015686 0.678431
0.725490 0.011765 0.678431
0.858824 0.011765 0.678431
1.000000 0.007843 0.678431
0.007843 0.152941 0.682353
0.152941 0.152941 0.678431
0.298039 0.149020 0.674510
0.439216 0.149020 0.674510
0.580392 0.149020 0.670588
0.717647 0.145098 0.670588
0.850980 0.141176 0.670588
0.988235 0.141176 0.670588
0.003922 0.290196 0.674510
0.149020 0.290196 0.670588
0.290196 0.286275 0.666667
0.435294 0.286275 0.666667
0.572549 0.282353 0.662745
0.709804 0.282353 0.662745
0.843137 0.278431 0.662745
0.980392 0.278431 0.662745
0.000000 0.427451 0.670588
0.141176 0.423529 0.666667
0.286275 0.423529 0.662745
0.427451 0.419608 0.658824
0.568627 0.419608 0.658824
0.701961 0.419608 0.658824
0.835294 0.415686 0.654902
0.972549 0.411765 0.654902
0.000000 0.556863 0.662745
0.137255 0.556863 0.658824
0.282353 0.552941 0.658824
0.423529 0.552941 0.654902
0.564706 0.549020 0.654902
0.698039 0.549020 0.650980
0.827451 0.549020 0.650980
0.964706 0.545098 0.650980
0.000000 0.690196 0.654902
0.129412 0.686275 0.654902
0.274510 0.686275 0.650980
0.419608 0.682353 0.650980
0.560784 0.682353 0.650980
0.694118 0.678431 0.647059
0.823529 0.678431 0.647059
0.956863 0.678431 0.643137
0.000000 0.815686 0.650980
0.121569 0.811765 0.650980
0.270588 0.807843 0.647059
0.415686 0.807843 0.647059
0.552941 0.803922 0.643137
0.690196 0.803922 0.643137
0.819608 0.803922 0.643137
0.952941 0.800000 0.639216
0.000000 0.941176 0.643137
0.113725 0.937255 0.643137
0.262745 0.933333 0.643137
0.407843 0.929412 0.639216
0.549020 0.929412 0.639216
0.682353 0.925490 0.639216
0.815686 0.925490 0.639216
0.949020 0.925490 0.635294
0.015686 0.023529 0.815686
0.156863 0.019608 0.811765
0.301961 0.015686 0.811765
0.447059 0.015686 0.807843
0.588235 0.011765 0.807843
0.725490 0.011765 0.803922
0.858824 0.007843 0.803922
1.000000 0.007843 0.803922
0.007843 0.152941 0.807843
0.152941 0.152941 0.803922
0.298039 0.149020 0.800000
0.439216 0.149020 0.800000
0.580392 0.145098 0.800000
0.717647 0.145098 0.796078
0.850980 0.141176 0.796078
0.988235 0.141176 0.796078
0.000000 0.290196 0.803922
0.145098 0.286275 0.796078
0.290196 0.286275 0.792157
0.435294 0.282353 0.792157
0.572549 0.282353 0.788235
0.709804 0.282353 0.788235
0.843137 0.278431 0.788235
0.980392 0.274510 0.788235
0.000000 0.427451 0.796078
0.141176 0.423529 0.792157
0.286275 0.423529 0.788235
0.427451 0.419608 0.784314
0.568627 0.419608 0.784314
0.701961 0.415686 0.780392
0.835294 0.415686 0.780392
0.972549 0.411765 0.780392
0.000000 0.556863 0.788235
0.133333 0.556863 0.784314
0.278431 0.552941 0.780392
0.423529 0.552941 0.780392
0.560784 0.549020 0.776471
0.698039 0.549020 0.776471
0.827451 0.549020 0.772549
0.964706 0.545098 0.772549
0.000000 0.690196 0.784314
0.129412 0.686275 0.780392
0.274510 0.686275 0.776471
0.419608 0.682353 0.772549
0.556863 0.682353 0.772549
0.694118 0.678431 0.768627
0.823529 0.678431 0.768627
0.956863 0.678431 0.768627
0.000000 0.815686 0.776471
0.121569 0.811765 0.772549
0.266667 0.807843 0.772549
0.415686 0.807843 0.768627
0.552941 0.803922 0.768627
0.690196 0.803922 0.764706
0.819608 0.800000 0.764706
0.952941 0.800000 0.764706
0.000000 0.937255 0.772549
0.113725 0.937255 0.768627
0.262745 0.933333 0.764706
0.407843 0.929412 0.764706
0.549020 0.929412 0.764706
0.682353 0.925490 0.760784
0.815686 0.925490 0.760784
0.949020 0.925490 0.760784
0.011765 0.019608 0.949020
0.156863 0.019608 0.945098
0.301961 0.015686 0.945098
0.447059 0.015686 0.941176
0.588235 0.011765 0.941176
0.725490 0.011765 0.937255
0.858824 0.007843 0.937255
1.000000 0.007843 0.937255
0.007843 0.152941 0.941176
0.152941 0.152941 0.937255
0.298039 0.149020 0.933333
0.439216 0.145098 0.933333
0.580392 0.145098 0.929412
0.717647 0.141176 0.929412
0.850980 0.141176 0.925490
0.988235 0.137255 0.925490
0.000000 0.290196 0.933333
0.145098 0.286275 0.929412
0.290196 0.286275 0.925490
0.435294 0.282353 0.921569
0.572549 0.282353 0.921569
0.709804 0.278431 0.917647
0.843137 0.278431 0.917647
0.980392 0.274510 0.917647
0.000000 0.423529 0.929412
0.137255 0.423529 0.921569
0.282353 0.419608 0.917647
0.427451 0.419608 0.913725
0.568627 0.419608 0.913725
0.701961 0.415686 0.909804
0.835294 0.415686 0.909804
0.972549 0.411765 0.909804
0.000000 0.556863 0.921569
0.133333 0.556863 0.917647
0.278431 0.552941 0.913725
0.423529 0.549020 0.909804
0.560784 0.549020 0.905882
0.698039 0.549020 0.901961
0.827451 0.545098 0.901961
0.964706 0.545098 0.901961
0.000000 0.690196 0.913725
0.125490 0.686275 0.909804
0.270588 0.686275 0.905882
0.415686 0.682353 0.901961
0.556863 0.682353 0.901961
0.690196 0.678431 0.898039
0.823529 0.678431 0.898039
0.956863 0.678431 0.894118
0.000000 0.815686 0.905882
0.117647 0.811765 0.901961
0.266667 0.807843 0.901961
0.411765 0.807843 0.898039
0.552941 0.803922 0.894118
0.686275 0.803922 0.894118
0.819608 0.800000 0.890196
0.952941 0.800000 0.890196
0.000000 0.937255 0.901961
0.113725 0.933333 0.898039
0.258824 0.933333 0.894118
0.407843 0.929412 0.894118
0.549020 0.929412 0.890196
0.682353 0.925490 0.890196
0.815686 0.925490 0.886275
0.949020 0.921569 0.886275
