luts/subtle/linen.cube
TITLE "linen (subtle)"
LUT_3D_SIZE 36
0.007843 0.019608 0.003922
0.043137 0.015686 0.007843
0.066667 0.011765 0.003922
0.094118 0.015686 0.003922
0.121569 0.015686 0.007843
0.141176 0.019608 0.007843
0.168627 0.023529 0.000000
0.203922 0.019608 0.000000
0.231373 0.019608 0.003922
0.254902 0.015686 0.000000
0.282353 0.019608 0.000000
0.309804 0.019608 0.003922
0.341176 0.019608 0.003922
0.364706 0.015686 0.000000
0.388235 0.023529 0.015686
0.411765 0.019608 0.011765
0.439216 0.023529 0.011765
0.462745 0.019608 0.007843
0.490196 0.019608 0.007843
0.517647 0.019608 0.011765
0.541176 0.023529 0.011765
0.572549 0.019608 0.007843
0.592157 0.015686 0.011765
0.615686 0.019608 0.015686
0.631373 0.019608 0.011765
0.654902 0.015686 0.007843
0.678431 0.019608 0.007843
0.705882 0.019608 0.011765
0.729412 0.015686 0.015686
0.752941 0.011765 0.011765
0.772549 0.015686 0.011765
0.796078 0.011765 0.007843
0.823529 0.011765 0.011765
0.843137 0.011765 0.015686
0.862745 0.015686 0.015686
0.882353 0.015686 0.011765
0.007843 0.043137 0.003922
0.035294 0.043137 0.003922
0.062745 0.043137 0.007843
0.094118 0.043137 0.007843
0.125490 0.043137 0.007843
0.152941 0.047059 0.000000
0.172549 0.047059 0.000000
0.200000 0.047059 0.000000
0.227451 0.047059 0.000000
0.254902 0.047059 0.003922
0.282353 0.050980 0.003922
0.317647 0.047059 0.003922
0.341176 0.043137 0.007843
0.360784 0.047059 0.011765
0.396078 0.043137 0.011765
0.411765 0.050980 0.011765
0.443137 0.047059 0.007843
0.462745 0.050980 0.011765
0.498039 0.047059 0.011765
0.517647 0.050980 0.011765
0.541176 0.047059 0.011765
0.564706 0.047059 0.007843
0.592157 0.043137 0.015686
0.615686 0.043137 0.011765
0.639216 0.047059 0.011765
0.654902 0.047059 0.011765
0.682353 0.047059 0.011765
0.705882 0.043137 0.007843
0.729412 0.047059 0.007843
0.752941 0.043137 0.015686
0.776471 0.039216 0.011765
0.792157 0.039216 0.007843
0.819608 0.039216 0.007843
0.843137 0.043137 0.007843
0.866667 0.039216 0.015686
0.886275 0.043137 0.015686
0.007843 0.070588 0.007843
0.035294 0.074510 0.007843
0.058824 0.070588 0.003922
0.094118 0.066667 0.003922
0.121569 0.070588 0.000000
0.149020 0.070588 0.000000
0.176471 0.074510 0.000000
0.203922 0.074510 0.003922
0.231373 0.074510 0.003922
0.250980 0.074510 0.000000
0.278431 0.074510 0.007843
0.313725 0.070588 0.011765
0.341176 0.074510 0.011765
0.368627 0.074510 0.011765
0.396078 0.074510 0.015686
0.419608 0.070588 0.011765
0.439216 0.074510 0.011765
0.462745 0.074510 0.007843
0.498039 0.078431 0.015686
0.521569 0.074510 0.011765
0.541176 0.078431 0.011765
0.572549 0.074510 0.007843
0.588235 0.070588 0.011765
0.615686 0.070588 0.015686
0.643137 0.074510 0.015686
0.666667 0.070588 0.011765
0.678431 0.074510 0.007843
0.705882 0.074510 0.011765
0.729412 0.070588 0.007843
0.752941 0.066667 0.011765
0.776471 0.070588 0.011765
0.792157 0.070588 0.007843
0.827451 0.066667 0.011765
0.843137 0.066667 0.007843
0.862745 0.070588 0.015686
0.886275 0.066667 0.011765
0.007843 0.094118 0.003922
0.035294 0.098039 0.003922
0.066667 0.098039 0.007843
0.094118 0.098039 0.007843
0.121569 0.101961 0.000000
0.156863 0.098039 0.003922
0.180392 0.094118 0.000000
0.203922 0.105882 0.003922
0.227451 0.098039 0.007843
0.254902 0.101961 0.011765
0.282353 0.101961 0.011765
0.309804 0.101961 0.011765
0.341176 0.105882 0.015686
0.364706 0.101961 0.011765
0.396078 0.098039 0.011765
0.419608 0.101961 0.011765
0.443137 0.098039 0.011765
0.462745 0.101961 0.011765
0.490196 0.105882 0.011765
0.521569 0.105882 0.011765
0.541176 0.101961 0.011765
0.564706 0.098039 0.007843
0.596078 0.101961 0.007843
0.611765 0.098039 0.011765
0.639216 0.098039 0.015686
0.662745 0.098039 0.011765
0.690196 0.098039 0.011765
0.701961 0.101961 0.007843
0.729412 0.101961 0.007843
0.752941 0.098039 0.015686
0.776471 0.094118 0.011765
0.796078 0.098039 0.011765
0.819608 0.094118 0.007843
0.843137 0.098039 0.011765
0.866667 0.094118 0.015686
0.886275 0.098039 0.015686
0.007843 0.129412 0.000000
0.035294 0.129412 0.000000
0.062745 0.129412 0.000000
0.094118 0.133333 0.003922
0.125490 0.129412 0.003922
0.152941 0.129412 0.003922
0.184314 0.129412 0.015686
0.211765 0.129412 0.015686
0.227451 0.129412 0.011765
0.254902 0.133333 0.011765
0.282353 0.133333 0.015686
0.309804 0.133333 0.015686
0.345098 0.133333 0.015686
0.360784 0.133333 0.011765
0.396078 0.129412 0.015686
0.419608 0.133333 0.015686
0.443137 0.129412 0.011765
0.470588 0.133333 0.011765
0.498039 0.133333 0.015686
0.517647 0.137255 0.015686
0.541176 0.133333 0.011765
0.564706 0.129412 0.007843
0.592157 0.129412 0.011765
0.623529 0.133333 0.011765
0.639216 0.133333 0.007843
0.662745 0.125490 0.011765
0.690196 0.129412 0.015686
0.705882 0.129412 0.011765
0.729412 0.133333 0.011765
0.752941 0.129412 0.007843
0.776471 0.125490 0.011765
0.796078 0.129412 0.015686
0.819608 0.125490 0.011765
0.843137 0.129412 0.011765
0.866667 0.125490 0.007843
0.886275 0.129412 0.011765
0.011765 0.149020 0.003922
0.039216 0.149020 0.003922
0.066667 0.152941 0.007843
0.094118 0.152941 0.007843
0.121569 0.152941 0.007843
0.149020 0.156863 0.011765
0.176471 0.156863 0.011765
0.211765 0.152941 0.011765
0.235294 0.149020 0.007843
0.254902 0.156863 0.011765
0.286275 0.156863 0.011765
0.313725 0.156863 0.011765
0.341176 0.156863 0.015686
0.364706 0.152941 0.011765
0.392157 0.156863 0.011765
0.419608 0.156863 0.011765
0.447059 0.156863 0.015686
0.470588 0.152941 0.011765
0.494118 0.160784 0.011765
0.521569 0.160784 0.015686
0.545098 0.156863 0.011765
0.568627 0.152941 0.007843
0.596078 0.152941 0.007843
0.615686 0.156863 0.015686
0.639216 0.152941 0.015686
0.662745 0.149020 0.011765
0.690196 0.152941 0.011765
0.709804 0.152941 0.007843
0.737255 0.152941 0.011765
0.752941 0.149020 0.015686
0.776471 0.145098 0.011765
0.800000 0.152941 0.011765
0.819608 0.149020 0.007843
0.843137 0.152941 0.011765
0.866667 0.145098 0.015686
0.886275 0.149020 0.023529
0.015686 0.176471 0.007843
0.039216 0.180392 0.007843
0.066667 0.184314 0.007843
0.090196 0.176471 0.015686
0.121569 0.176471 0.007843
0.149020 0.176471 0.007843
0.180392 0.180392 0.007843
0.207843 0.180392 0.011765
0.235294 0.180392 0.011765
0.258824 0.176471 0.007843
0.278431 0.184314 0.011765
0.313725 0.180392 0.011765
0.341176 0.180392 0.011765
0.364706 0.184314 0.011765
0.396078 0.184314 0.015686
0.419608 0.180392 0.011765
0.447059 0.180392 0.011765
0.470588 0.184314 0.015686
0.505882 0.184314 0.015686
0.513725 0.188235 0.011765
0.541176 0.188235 0.011765
0.564706 0.184314 0.007843
0.596078 0.184314 0.011765
0.619608 0.180392 0.007843
0.639216 0.184314 0.015686
0.662745 0.180392 0.011765
0.686275 0.176471 0.011765
0.713725 0.180392 0.011765
0.729412 0.176471 0.007843
0.752941 0.172549 0.011765
0.776471 0.176471 0.011765
0.792157 0.176471 0.011765
0.819608 0.176471 0.019608
0.839216 0.176471 0.015686
0.866667 0.176471 0.015686
0.890196 0.172549 0.023529
0.015686 0.207843 0.007843
0.043137 0.207843 0.011765
0.066667 0.211765 0.011765
0.086275 0.211765 0.007843
0.121569 0.207843 0.007843
0.149020 0.207843 0.011765
0.176471 0.211765 0.011765
0.207843 0.211765 0.011765
0.239216 0.207843 0.015686
0.258824 0.207843 0.011765
0.286275 0.211765 0.011765
0.313725 0.211765 0.011765
0.341176 0.211765 0.015686
0.360784 0.215686 0.015686
0.396078 0.215686 0.007843
0.419608 0.211765 0.015686
0.447059 0.211765 0.015686
0.470588 0.215686 0.015686
0.501961 0.215686 0.007843
0.521569 0.215686 0.015686
0.541176 0.219608 0.015686
0.572549 0.211765 0.011765
0.592157 0.215686 0.011765
0.615686 0.211765 0.011765
0.639216 0.215686 0.011765
0.662745 0.211765 0.015686
0.686275 0.207843 0.011765
0.713725 0.207843 0.011765
0.729412 0.207843 0.011765
0.752941 0.203922 0.015686
0.780392 0.203922 0.015686
0.792157 0.207843 0.019608
0.819608 0.207843 0.023529
0.839216 0.207843 0.019608
0.866667 0.207843 0.019608
0.890196 0.203922 0.015686
0.015686 0.239216 0.011765
0.043137 0.231373 0.007843
0.066667 0.235294 0.007843
0.094118 0.239216 0.011765
0.121569 0.239216 0.011765
0.149020 0.239216 0.011765
0.176471 0.243137 0.015686
0.211765 0.239216 0.015686
0.235294 0.235294 0.011765
0.262745 0.235294 0.011765
0.290196 0.239216 0.015686
0.317647 0.239216 0.015686
0.341176 0.243137 0.015686
0.364706 0.239216 0.015686
0.392157 0.243137 0.007843
0.419608 0.243137 0.015686
0.447059 0.243137 0.015686
0.470588 0.239216 0.015686
0.498039 0.243137 0.007843
0.525490 0.243137 0.015686
0.549020 0.239216 0.011765
0.572549 0.243137 0.015686
0.596078 0.239216 0.011765
0.615686 0.243137 0.011765
0.639216 0.239216 0.007843
0.662745 0.235294 0.011765
0.690196 0.235294 0.015686
0.709804 0.235294 0.019608
0.737255 0.235294 0.019608
0.760784 0.231373 0.015686
0.776471 0.231373 0.015686
0.803922 0.231373 0.023529
0.823529 0.231373 0.019608
0.843137 0.235294 0.019608
0.866667 0.231373 0.015686
0.890196 0.235294 0.019608
0.015686 0.262745 0.015686
0.039216 0.258824 0.015686
0.066667 0.258824 0.007843
0.090196 0.262745 0.007843
0.121569 0.262745 0.011765
0.149020 0.262745 0.011765
0.180392 0.262745 0.011765
0.211765 0.262745 0.011765
0.235294 0.258824 0.011765
0.258824 0.262745 0.011765
0.286275 0.262745 0.011765
0.321569 0.262745 0.015686
0.341176 0.266667 0.015686
0.364706 0.262745 0.011765
0.392157 0.262745 0.011765
0.419608 0.266667 0.015686
0.447059 0.266667 0.015686
0.470588 0.262745 0.011765
0.498039 0.262745 0.011765
0.529412 0.266667 0.015686
0.545098 0.266667 0.011765
0.580392 0.262745 0.011765
0.588235 0.266667 0.007843
0.619608 0.266667 0.011765
0.643137 0.262745 0.015686
0.662745 0.254902 0.019608
0.686275 0.262745 0.019608
0.709804 0.258824 0.015686
0.737255 0.258824 0.019608
0.760784 0.254902 0.023529
0.776471 0.254902 0.019608
0.800000 0.258824 0.019608
0.827451 0.258824 0.023529
0.843137 0.258824 0.019608
0.862745 0.258824 0.015686
0.890196 0.258824 0.015686
0.015686 0.282353 0.015686
0.039216 0.282353 0.011765
0.066667 0.282353 0.011765
0.098039 0.282353 0.015686
0.125490 0.286275 0.007843
0.152941 0.286275 0.007843
0.180392 0.286275 0.011765
0.207843 0.290196 0.011765
0.243137 0.286275 0.011765
0.258824 0.286275 0.007843
0.286275 0.286275 0.011765
0.321569 0.286275 0.011765
0.349020 0.286275 0.011765
0.360784 0.290196 0.007843
0.392157 0.286275 0.011765
0.423529 0.290196 0.011765
0.450980 0.290196 0.011765
0.466667 0.290196 0.011765
0.501961 0.286275 0.011765
0.521569 0.290196 0.011765
0.545098 0.286275 0.007843
0.580392 0.286275 0.011765
0.596078 0.282353 0.015686
0.619608 0.286275 0.023529
0.635294 0.286275 0.019608
0.658824 0.282353 0.015686
0.686275 0.282353 0.019608
0.709804 0.282353 0.015686
0.733333 0.286275 0.015686
0.756863 0.278431 0.019608
0.780392 0.278431 0.015686
0.800000 0.282353 0.019608
0.827451 0.282353 0.019608
0.847059 0.282353 0.015686
0.862745 0.278431 0.019608
0.890196 0.282353 0.023529
0.015686 0.317647 0.011765
0.039216 0.313725 0.007843
0.066667 0.313725 0.007843
0.094118 0.313725 0.007843
0.129412 0.313725 0.011765
0.152941 0.317647 0.011765
0.180392 0.317647 0.011765
0.211765 0.317647 0.015686
0.243137 0.317647 0.015686
0.258824 0.317647 0.011765
0.286275 0.317647 0.011765
0.321569 0.317647 0.015686
0.349020 0.317647 0.015686
0.372549 0.313725 0.011765
0.392157 0.317647 0.011765
0.419608 0.317647 0.015686
0.450980 0.321569 0.015686
0.466667 0.321569 0.011765
0.501961 0.317647 0.011765
0.529412 0.317647 0.015686
0.545098 0.317647 0.019608
0.580392 0.313725 0.019608
0.596078 0.313725 0.015686
0.623529 0.317647 0.019608
0.643137 0.317647 0.015686
0.666667 0.309804 0.019608
0.686275 0.313725 0.019608
0.709804 0.309804 0.015686
0.733333 0.317647 0.019608
0.756863 0.309804 0.023529
0.784314 0.313725 0.023529
0.800000 0.309804 0.019608
0.827451 0.313725 0.023529
0.850980 0.309804 0.019608
0.866667 0.309804 0.015686
0.890196 0.313725 0.015686
0.019608 0.341176 0.007843
0.047059 0.341176 0.007843
0.074510 0.341176 0.011765
0.101961 0.341176 0.011765
0.129412 0.345098 0.011765
0.152941 0.341176 0.007843
0.172549 0.345098 0.011765
0.207843 0.341176 0.011765
0.235294 0.345098 0.011765
0.262745 0.345098 0.015686
0.286275 0.341176 0.011765
0.313725 0.341176 0.011765
0.345098 0.345098 0.011765
0.372549 0.345098 0.015686
0.400000 0.345098 0.015686
0.415686 0.345098 0.011765
0.443137 0.345098 0.011765
0.470588 0.349020 0.015686
0.501961 0.349020 0.023529
0.521569 0.345098 0.019608
0.552941 0.345098 0.023529
0.576471 0.341176 0.019608
0.603922 0.341176 0.019608
0.619608 0.341176 0.015686
0.647059 0.345098 0.015686
0.666667 0.341176 0.023529
0.686275 0.337255 0.019608
0.709804 0.341176 0.019608
0.733333 0.337255 0.015686
0.756863 0.333333 0.019608
0.776471 0.337255 0.023529
0.800000 0.333333 0.019608
0.827451 0.337255 0.019608
0.847059 0.337255 0.015686
0.874510 0.337255 0.019608
0.890196 0.337255 0.015686
0.011765 0.364706 0.011765
0.039216 0.364706 0.015686
0.066667 0.364706 0.015686
0.101961 0.364706 0.015686
0.129412 0.368627 0.011765
0.152941 0.364706 0.007843
0.176471 0.368627 0.007843
0.207843 0.364706 0.007843
0.239216 0.368627 0.011765
0.258824 0.372549 0.011765
0.290196 0.364706 0.007843
0.317647 0.364706 0.011765
0.345098 0.368627 0.011765
0.372549 0.368627 0.011765
0.400000 0.368627 0.011765
0.423529 0.364706 0.011765
0.447059 0.368627 0.019608
0.474510 0.368627 0.019608
0.501961 0.368627 0.023529
0.525490 0.368627 0.019608
0.545098 0.372549 0.019608
0.576471 0.364706 0.015686
0.596078 0.368627 0.015686
0.619608 0.364706 0.023529
0.647059 0.364706 0.023529
0.666667 0.364706 0.019608
0.682353 0.364706 0.015686
0.709804 0.364706 0.019608
0.733333 0.360784 0.015686
0.760784 0.360784 0.023529
0.780392 0.360784 0.019608
0.796078 0.360784 0.015686
0.831373 0.360784 0.019608
0.847059 0.360784 0.015686
0.870588 0.364706 0.015686
0.898039 0.360784 0.023529
0.011765 0.396078 0.007843
0.039216 0.396078 0.007843
0.074510 0.396078 0.011765
0.101961 0.396078 0.011765
0.129412 0.396078 0.011765
0.152941 0.396078 0.007843
0.180392 0.396078 0.011765
0.207843 0.396078 0.011765
0.235294 0.396078 0.011765
0.258824 0.403922 0.015686
0.290196 0.396078 0.011765
0.321569 0.400000 0.015686
0.345098 0.396078 0.011765
0.372549 0.400000 0.015686
0.400000 0.400000 0.023529
0.423529 0.396078 0.019608
0.450980 0.396078 0.023529
0.474510 0.400000 0.023529
0.501961 0.400000 0.023529
0.525490 0.396078 0.019608
0.545098 0.403922 0.023529
0.576471 0.396078 0.019608
0.603922 0.396078 0.019608
0.619608 0.396078 0.015686
0.647059 0.396078 0.019608
0.670588 0.392157 0.023529
0.690196 0.392157 0.019608
0.709804 0.396078 0.019608
0.737255 0.396078 0.019608
0.760784 0.396078 0.019608
0.780392 0.392157 0.023529
0.803922 0.388235 0.019608
0.831373 0.388235 0.019608
0.847059 0.388235 0.015686
0.870588 0.392157 0.019608
0.898039 0.396078 0.019608
0.019608 0.415686 0.015686
0.047059 0.415686 0.015686
0.070588 0.411765 0.011765
0.098039 0.415686 0.011765
0.125490 0.415686 0.015686
0.152941 0.415686 0.015686
0.184314 0.415686 0.015686
0.215686 0.415686 0.011765
0.239216 0.419608 0.011765
0.262745 0.415686 0.007843
0.290196 0.419608 0.007843
0.317647 0.419608 0.011765
0.345098 0.419608 0.019608
0.368627 0.415686 0.015686
0.396078 0.415686 0.015686
0.423529 0.419608 0.019608
0.450980 0.419608 0.019608
0.470588 0.419608 0.015686
0.498039 0.419608 0.015686
0.525490 0.419608 0.019608
0.549020 0.415686 0.015686
0.576471 0.415686 0.023529
0.600000 0.415686 0.019608
0.623529 0.419608 0.023529
0.643137 0.415686 0.019608
0.666667 0.411765 0.015686
0.698039 0.411765 0.015686
0.705882 0.415686 0.011765
0.733333 0.415686 0.023529
0.756863 0.411765 0.019608
0.780392 0.415686 0.019608
0.803922 0.411765 0.015686
0.831373 0.411765 0.019608
0.847059 0.411765 0.023529
0.874510 0.411765 0.023529
0.894118 0.411765 0.019608
0.015686 0.443137 0.011765
0.043137 0.443137 0.011765
0.070588 0.443137 0.015686
0.098039 0.443137 0.015686
0.133333 0.443137 0.015686
0.160784 0.443137 0.019608
0.184314 0.443137 0.007843
0.211765 0.443137 0.007843
0.239216 0.443137 0.007843
0.262745 0.447059 0.011765
0.290196 0.447059 0.019608
0.321569 0.447059 0.019608
0.345098 0.443137 0.015686
0.368627 0.447059 0.019608
0.403922 0.443137 0.019608
0.431373 0.447059 0.019608
0.454902 0.443137 0.015686
0.474510 0.447059 0.019608
0.501961 0.447059 0.019608
0.521569 0.447059 0.015686
0.549020 0.447059 0.019608
0.572549 0.443137 0.015686
0.600000 0.443137 0.023529
0.623529 0.443137 0.019608
0.643137 0.447059 0.019608
0.666667 0.443137 0.019608
0.690196 0.439216 0.015686
0.717647 0.439216 0.015686
0.733333 0.447059 0.023529
0.756863 0.443137 0.023529
0.780392 0.439216 0.019608
0.800000 0.439216 0.015686
0.827451 0.439216 0.015686
0.847059 0.443137 0.027451
0.870588 0.439216 0.023529
0.898039 0.439216 0.023529
0.015686 0.462745 0.007843
0.043137 0.466667 0.011765
0.070588 0.466667 0.011765
0.098039 0.466667 0.011765
0.125490 0.470588 0.015686
0.160784 0.466667 0.015686
0.184314 0.462745 0.011765
0.211765 0.462745 0.011765
0.239216 0.466667 0.015686
0.262745 0.466667 0.023529
0.290196 0.470588 0.023529
0.317647 0.470588 0.019608
0.349020 0.466667 0.015686
0.368627 0.470588 0.015686
0.403922 0.466667 0.015686
0.423529 0.470588 0.019608
0.447059 0.470588 0.015686
0.474510 0.470588 0.015686
0.509804 0.466667 0.019608
0.521569 0.470588 0.015686
0.549020 0.470588 0.015686
0.572549 0.466667 0.019608
0.600000 0.466667 0.019608
0.623529 0.462745 0.019608
0.647059 0.470588 0.019608
0.670588 0.466667 0.015686
0.698039 0.466667 0.023529
0.713725 0.462745 0.023529
0.741176 0.466667 0.023529
0.760784 0.466667 0.019608
0.780392 0.462745 0.015686
0.800000 0.458824 0.019608
0.827451 0.462745 0.023529
0.847059 0.466667 0.023529
0.870588 0.462745 0.019608
0.894118 0.466667 0.019608
0.019608 0.494118 0.011765
0.043137 0.498039 0.011765
0.070588 0.498039 0.015686
0.098039 0.498039 0.015686
0.133333 0.498039 0.007843
0.160784 0.498039 0.011765
0.184314 0.494118 0.015686
0.211765 0.494118 0.015686
0.239216 0.498039 0.015686
0.266667 0.498039 0.019608
0.290196 0.501961 0.019608
0.325490 0.498039 0.019608
0.349020 0.498039 0.015686
0.368627 0.501961 0.019608
0.403922 0.498039 0.019608
0.423529 0.501961 0.019608
0.447059 0.498039 0.019608
0.474510 0.501961 0.019608
0.509804 0.498039 0.019608
0.533333 0.501961 0.019608
0.549020 0.501961 0.019608
0.572549 0.498039 0.015686
0.600000 0.498039 0.023529
0.623529 0.494118 0.019608
0.643137 0.498039 0.023529
0.666667 0.494118 0.019608
0.698039 0.498039 0.019608
0.713725 0.498039 0.015686
0.741176 0.498039 0.015686
0.764706 0.494118 0.023529
0.780392 0.494118 0.019608
0.800000 0.494118 0.015686
0.827451 0.494118 0.015686
0.847059 0.498039 0.019608
0.870588 0.494118 0.023529
0.894118 0.498039 0.023529
0.023529 0.513725 0.011765
0.050980 0.517647 0.011765
0.070588 0.521569 0.011765
0.101961 0.521569 0.011765
0.129412 0.521569 0.015686
0.156863 0.521569 0.023529
0.180392 0.517647 0.019608
0.211765 0.517647 0.015686
0.243137 0.521569 0.015686
0.270588 0.517647 0.023529
0.298039 0.521569 0.023529
0.317647 0.525490 0.019608
0.341176 0.521569 0.015686
0.368627 0.525490 0.015686
0.403922 0.521569 0.019608
0.427451 0.525490 0.019608
0.450980 0.521569 0.015686
0.478431 0.525490 0.015686
0.505882 0.525490 0.019608
0.533333 0.525490 0.019608
0.556863 0.521569 0.015686
0.572549 0.521569 0.019608
0.600000 0.521569 0.023529
0.619608 0.521569 0.019608
0.647059 0.521569 0.019608
0.670588 0.517647 0.015686
0.698039 0.517647 0.027451
0.713725 0.517647 0.023529
0.741176 0.521569 0.023529
0.764706 0.517647 0.019608
0.788235 0.513725 0.015686
0.803922 0.521569 0.019608
0.827451 0.517647 0.015686
0.850980 0.517647 0.023529
0.874510 0.517647 0.019608
0.894118 0.521569 0.023529
0.023529 0.537255 0.015686
0.050980 0.537255 0.015686
0.074510 0.533333 0.011765
0.098039 0.537255 0.015686
0.125490 0.541176 0.015686
0.156863 0.537255 0.015686
0.188235 0.541176 0.019608
0.215686 0.541176 0.019608
0.243137 0.541176 0.019608
0.266667 0.537255 0.015686
0.294118 0.537255 0.019608
0.321569 0.541176 0.019608
0.349020 0.541176 0.019608
0.372549 0.545098 0.023529
0.403922 0.545098 0.023529
0.423529 0.545098 0.019608
0.450980 0.545098 0.019608
0.474510 0.541176 0.019608
0.513725 0.545098 0.023529
0.529412 0.541176 0.019608
0.556863 0.545098 0.023529
0.576471 0.545098 0.019608
0.596078 0.541176 0.015686
0.627451 0.541176 0.015686
0.647059 0.545098 0.027451
0.670588 0.541176 0.023529
0.694118 0.537255 0.019608
0.717647 0.541176 0.019608
0.737255 0.537255 0.015686
0.760784 0.533333 0.019608
0.792157 0.533333 0.023529
0.807843 0.533333 0.019608
0.827451 0.537255 0.019608
0.847059 0.537255 0.015686
0.874510 0.537255 0.027451
0.890196 0.537255 0.023529
0.019608 0.564706 0.011765
0.047059 0.564706 0.015686
0.074510 0.564706 0.015686
0.101961 0.568627 0.015686
0.129412 0.568627 0.019608
0.156863 0.568627 0.019608
0.180392 0.564706 0.015686
0.219608 0.568627 0.023529
0.243137 0.564706 0.019608
0.266667 0.568627 0.019608
0.294118 0.568627 0.019608
0.325490 0.568627 0.023529
0.349020 0.572549 0.023529
0.372549 0.568627 0.019608
0.400000 0.568627 0.019608
0.427451 0.572549 0.023529
0.450980 0.568627 0.019608
0.474510 0.572549 0.019608
0.505882 0.568627 0.023529
0.533333 0.572549 0.023529
0.552941 0.568627 0.019608
0.580392 0.564706 0.015686
0.596078 0.572549 0.015686
0.619608 0.568627 0.015686
0.647059 0.568627 0.023529
0.670588 0.564706 0.019608
0.694118 0.568627 0.019608
0.717647 0.564706 0.019608
0.737255 0.568627 0.019608
0.760784 0.564706 0.023529
0.784314 0.560784 0.019608
0.807843 0.564706 0.023529
0.831373 0.560784 0.027451
0.850980 0.564706 0.027451
0.870588 0.564706 0.023529
0.898039 0.564706 0.023529
0.019608 0.584314 0.019608
0.047059 0.584314 0.019608
0.074510 0.588235 0.023529
0.105882 0.580392 0.019608
0.125490 0.584314 0.019608
0.152941 0.584314 0.019608
0.184314 0.588235 0.023529
0.215686 0.584314 0.023529
0.243137 0.584314 0.023529
0.262745 0.584314 0.019608
0.298039 0.584314 0.023529
0.325490 0.588235 0.015686
0.352941 0.588235 0.015686
0.372549 0.592157 0.019608
0.400000 0.592157 0.019608
0.423529 0.588235 0.015686
0.450980 0.592157 0.015686
0.482353 0.592157 0.019608
0.509804 0.592157 0.019608
0.533333 0.588235 0.015686
0.552941 0.592157 0.015686
0.576471 0.588235 0.015686
0.603922 0.588235 0.023529
0.627451 0.592157 0.023529
0.643137 0.592157 0.019608
0.666667 0.592157 0.019608
0.694118 0.592157 0.019608
0.717647 0.588235 0.015686
0.741176 0.592157 0.015686
0.764706 0.588235 0.023529
0.788235 0.580392 0.027451
0.807843 0.588235 0.027451
0.831373 0.584314 0.023529
0.854902 0.588235 0.023529
0.870588 0.584314 0.031373
0.898039 0.588235 0.031373
0.019608 0.607843 0.015686
0.047059 0.607843 0.019608
0.078431 0.611765 0.019608
0.101961 0.607843 0.015686
0.133333 0.603922 0.015686
0.156863 0.607843 0.019608
0.184314 0.611765 0.019608
0.219608 0.607843 0.019608
0.247059 0.607843 0.023529
0.262745 0.607843 0.019608
0.290196 0.611765 0.019608
0.325490 0.607843 0.019608
0.352941 0.607843 0.023529
0.380392 0.611765 0.023529
0.403922 0.615686 0.023529
0.427451 0.611765 0.023529
0.454902 0.611765 0.023529
0.474510 0.615686 0.023529
0.509804 0.615686 0.027451
0.533333 0.611765 0.023529
0.552941 0.615686 0.023529
0.576471 0.611765 0.019608
0.607843 0.611765 0.019608
0.635294 0.615686 0.023529
0.643137 0.615686 0.019608
0.666667 0.611765 0.015686
0.694118 0.611765 0.023529
0.713725 0.611765 0.023529
0.741176 0.611765 0.031373
0.764706 0.607843 0.027451
0.788235 0.603922 0.023529
0.807843 0.607843 0.031373
0.831373 0.607843 0.023529
0.854902 0.607843 0.031373
0.870588 0.607843 0.027451
0.894118 0.611765 0.027451
0.023529 0.631373 0.023529
0.050980 0.631373 0.023529
0.078431 0.631373 0.023529
0.101961 0.627451 0.023529
0.137255 0.627451 0.015686
0.156863 0.631373 0.015686
0.184314 0.635294 0.019608
0.211765 0.635294 0.019608
0.239216 0.635294 0.019608
0.262745 0.631373 0.015686
0.294118 0.631373 0.019608
0.325490 0.631373 0.019608
0.352941 0.631373 0.019608
0.376471 0.635294 0.023529
0.403922 0.639216 0.023529
0.419608 0.639216 0.019608
0.454902 0.635294 0.019608
0.478431 0.639216 0.023529
0.509804 0.639216 0.023529
0.529412 0.639216 0.019608
0.556863 0.639216 0.019608
0.580392 0.635294 0.019608
0.607843 0.635294 0.019608
