luts/subtle/linen.cube
TITLE "linen (subtle)"
LUT_3D_SIZE 8
0.007843 0.019608 0.003922
0.141176 0.019608 0.007843
0.282353 0.019608 0.000000
0.411765 0.019608 0.011765
0.541176 0.023529 0.011765
0.654902 0.015686 0.007843
0.772549 0.015686 0.011765
0.882353 0.015686 0.011765
0.011765 0.149020 0.003922
0.149020 0.156863 0.011765
0.286275 0.156863 0.011765
0.419608 0.156863 0.011765
0.545098 0.156863 0.011765
0.662745 0.149020 0.011765
0.776471 0.145098 0.011765
0.886275 0.149020 0.023529
0.015686 0.282353 0.015686
0.152941 0.286275 0.007843
0.286275 0.286275 0.011765
0.423529 0.290196 0.011765
0.545098 0.286275 0.007843
0.658824 0.282353 0.015686
0.780392 0.278431 0.015686
0.890196 0.282353 0.023529
0.019608 0.415686 0.015686
0.152941 0.415686 0.015686
0.290196 0.419608 0.007843
0.423529 0.419608 0.019608
0.549020 0.415686 0.015686
0.666667 0.411765 0.015686
0.780392 0.415686 0.019608
0.894118 0.411765 0.019608
0.023529 0.537255 0.015686
0.156863 0.537255 0.015686
0.294118 0.537255 0.019608
0.423529 0.545098 0.019608
0.556863 0.545098 0.023529
0.670588 0.541176 0.023529
0.792157 0.533333 0.023529
0.890196 0.537255 0.023529
0.023529 0.654902 0.019608
0.164706 0.650980 0.023529
0.294118 0.654902 0.015686
0.423529 0.658824 0.015686
0.556863 0.662745 0.019608
0.670588 0.654902 0.027451
0.784314 0.654902 0.027451
0.901961 0.654902 0.023529
0.023529 0.760784 0.019608
0.164706 0.760784 0.023529
0.294118 0.764706 0.015686
0.431373 0.764706 0.027451
0.552941 0.764706 0.023529
0.670588 0.764706 0.027451
0.788235 0.768627 0.023529
0.898039 0.768627 0.023529
0.027451 0.870588 0.023529
0.160784 0.870588 0.023529
0.301961 0.866667 0.023529
0.431373 0.870588 0.027451
0.560784 0.866667 0.023529
0.674510 0.874510 0.027451
0.792157 0.874510 0.027451
0.901961 0.878431 0.031373
0.007843 0.015686 0.129412
0.149020 0.015686 0.133333
0.278431 0.019608 0.133333
0.411765 0.019608 0.133333
0.541176 0.023529 0.137255
0.654902 0.019608 0.137255
0.776471 0.015686 0.137255
0.882353 0.011765 0.145098
0.015686 0.152941 0.141176
0.149020 0.152941 0.133333
0.278431 0.156863 0.137255
0.419608 0.156863 0.137255
0.541176 0.149020 0.145098
0.662745 0.149020 0.145098
0.776471 0.152941 0.149020
0.890196 0.149020 0.141176
0.019608 0.282353 0.141176
0.145098 0.286275 0.133333
0.286275 0.286275 0.141176
0.415686 0.290196 0.145098
0.549020 0.282353 0.149020
0.658824 0.282353 0.141176
0.784314 0.278431 0.145098
0.886275 0.282353 0.145098
0.015686 0.415686 0.145098
0.156863 0.415686 0.141176
0.286275 0.419608 0.141176
0.427451 0.415686 0.141176
0.549020 0.415686 0.149020
0.670588 0.407843 0.141176
0.780392 0.411765 0.152941
0.894118 0.407843 0.152941
0.019608 0.537255 0.149020
0.156863 0.529412 0.145098
0.290196 0.533333 0.145098
0.423529 0.533333 0.141176
0.552941 0.537255 0.149020
0.666667 0.533333 0.149020
0.784314 0.533333 0.152941
0.898039 0.541176 0.152941
0.019608 0.654902 0.145098
0.164706 0.650980 0.145098
0.294118 0.650980 0.156863
0.435294 0.650980 0.156863
0.552941 0.650980 0.152941
0.678431 0.650980 0.152941
0.788235 0.654902 0.156863
0.901961 0.654902 0.149020
0.027451 0.760784 0.145098
0.160784 0.760784 0.156863
0.294118 0.760784 0.149020
0.431373 0.760784 0.149020
0.552941 0.768627 0.152941
0.678431 0.768627 0.156863
0.784314 0.768627 0.149020
0.901961 0.768627 0.160784
0.027451 0.866667 0.152941
0.160784 0.870588 0.149020
0.298039 0.870588 0.149020
0.431373 0.870588 0.152941
0.560784 0.874510 0.152941
0.678431 0.874510 0.164706
0.792157 0.874510 0.156863
0.901961 0.878431 0.164706
0.007843 0.015686 0.254902
0.149020 0.019608 0.262745
0.286275 0.023529 0.262745
0.419608 0.019608 0.270588
0.545098 0.019608 0.270588
0.662745 0.015686 0.270588
0.776471 0.011765 0.262745
0.886275 0.015686 0.266667
0.015686 0.152941 0.258824
0.152941 0.149020 0.266667
0.286275 0.152941 0.270588
0.415686 0.156863 0.262745
0.545098 0.152941 0.266667
0.666667 0.145098 0.266667
0.776471 0.152941 0.262745
0.882353 0.152941 0.266667
0.011765 0.282353 0.262745
0.149020 0.286275 0.266667
0.282353 0.286275 0.266667
0.419608 0.278431 0.262745
0.545098 0.278431 0.262745
0.662745 0.278431 0.274510
0.780392 0.282353 0.270588
0.886275 0.282353 0.270588
0.015686 0.415686 0.262745
0.160784 0.419608 0.270588
0.290196 0.415686 0.266667
0.427451 0.411765 0.274510
0.552941 0.411765 0.278431
0.670588 0.407843 0.274510
0.780392 0.411765 0.278431
0.894118 0.415686 0.274510
0.019608 0.537255 0.262745
0.160784 0.533333 0.274510
0.290196 0.529412 0.270588
0.427451 0.529412 0.274510
0.556863 0.533333 0.274510
0.674510 0.537255 0.278431
0.788235 0.533333 0.270588
0.898039 0.537255 0.282353
0.023529 0.658824 0.274510
0.160784 0.650980 0.278431
0.294118 0.650980 0.274510
0.431373 0.654902 0.274510
0.552941 0.650980 0.270588
0.674510 0.650980 0.282353
0.792157 0.654902 0.282353
0.898039 0.654902 0.282353
0.027451 0.756863 0.270588
0.160784 0.760784 0.270588
0.298039 0.760784 0.274510
0.431373 0.760784 0.274510
0.552941 0.768627 0.286275
0.678431 0.764706 0.282353
0.796078 0.768627 0.286275
0.901961 0.768627 0.278431
0.027451 0.866667 0.270588
0.168627 0.870588 0.278431
0.301961 0.870588 0.286275
0.431373 0.874510 0.286275
0.560784 0.870588 0.286275
0.674510 0.878431 0.282353
0.796078 0.874510 0.286275
0.898039 0.882353 0.278431
0.007843 0.023529 0.384314
0.149020 0.019608 0.384314
0.286275 0.019608 0.388235
0.419608 0.019608 0.388235
0.537255 0.023529 0.384314
0.662745 0.015686 0.384314
0.772549 0.015686 0.384314
0.890196 0.015686 0.400000
0.011765 0.152941 0.388235
0.152941 0.156863 0.388235
0.294118 0.156863 0.388235
0.415686 0.156863 0.388235
0.549020 0.149020 0.400000
0.658824 0.149020 0.392157
0.776471 0.149020 0.396078
0.890196 0.152941 0.392157
0.015686 0.282353 0.388235
0.160784 0.286275 0.388235
0.290196 0.278431 0.400000
0.419608 0.282353 0.400000
0.549020 0.282353 0.400000
0.666667 0.282353 0.396078
0.780392 0.278431 0.396078
0.898039 0.282353 0.400000
0.019608 0.415686 0.400000
0.156863 0.419608 0.392157
0.286275 0.415686 0.400000
0.423529 0.407843 0.396078
0.552941 0.411765 0.396078
0.670588 0.415686 0.392157
0.776471 0.411765 0.400000
0.894118 0.415686 0.407843
0.027451 0.537255 0.400000
0.156863 0.537255 0.400000
0.294118 0.529412 0.396078
0.419608 0.533333 0.396078
0.556863 0.533333 0.407843
0.666667 0.537255 0.403922
0.792157 0.537255 0.407843
0.894118 0.541176 0.400000
0.023529 0.654902 0.400000
0.160784 0.650980 0.396078
0.298039 0.650980 0.396078
0.431373 0.650980 0.407843
0.549020 0.650980 0.403922
0.674510 0.650980 0.400000
0.784314 0.654902 0.403922
0.901961 0.658824 0.403922
0.027451 0.756863 0.396078
0.160784 0.764706 0.407843
0.301961 0.764706 0.403922
0.431373 0.768627 0.403922
0.560784 0.764706 0.400000
0.674510 0.768627 0.407843
0.796078 0.768627 0.403922
0.898039 0.768627 0.411765
0.027451 0.870588 0.407843
0.168627 0.870588 0.400000
0.305882 0.870588 0.403922
0.431373 0.874510 0.403922
0.556863 0.874510 0.400000
0.674510 0.874510 0.415686
0.792157 0.878431 0.411765
0.905882 0.874510 0.411765
0.011765 0.023529 0.501961
0.152941 0.019608 0.501961
0.282353 0.023529 0.501961
0.423529 0.019608 0.513725
0.541176 0.023529 0.509804
0.666667 0.011765 0.509804
0.776471 0.015686 0.513725
0.890196 0.015686 0.505882
0.011765 0.152941 0.498039
0.149020 0.152941 0.509804
0.290196 0.149020 0.509804
0.419608 0.152941 0.509804
0.549020 0.149020 0.509804
0.662745 0.149020 0.509804
0.780392 0.149020 0.505882
0.890196 0.152941 0.517647
0.015686 0.282353 0.505882
0.156863 0.278431 0.513725
0.286275 0.274510 0.509804
0.423529 0.278431 0.505882
0.549020 0.282353 0.513725
0.670588 0.282353 0.517647
0.780392 0.278431 0.521569
0.894118 0.286275 0.517647
0.023529 0.419608 0.509804
0.160784 0.411765 0.513725
0.290196 0.407843 0.509804
0.423529 0.407843 0.517647
0.549020 0.411765 0.521569
0.670588 0.411765 0.517647
0.784314 0.411765 0.517647
0.898039 0.415686 0.513725
0.019608 0.545098 0.509804
0.156863 0.537255 0.513725
0.294118 0.529412 0.513725
0.423529 0.533333 0.513725
0.556863 0.533333 0.513725
0.670588 0.537255 0.521569
0.788235 0.541176 0.517647
0.894118 0.541176 0.525490
0.019608 0.658824 0.513725
0.164706 0.647059 0.521569
0.290196 0.654902 0.513725
0.431373 0.650980 0.513725
0.556863 0.658824 0.517647
0.674510 0.650980 0.525490
0.788235 0.658824 0.521569
0.905882 0.658824 0.525490
0.023529 0.756863 0.517647
0.164706 0.764706 0.517647
0.305882 0.764706 0.517647
0.431373 0.768627 0.521569
0.564706 0.760784 0.525490
0.674510 0.768627 0.521569
0.792157 0.768627 0.525490
0.898039 0.768627 0.529412
0.027451 0.874510 0.517647
0.168627 0.870588 0.517647
0.298039 0.874510 0.529412
0.439216 0.870588 0.529412
0.556863 0.874510 0.525490
0.682353 0.874510 0.521569
0.792157 0.878431 0.529412
0.905882 0.874510 0.521569
0.007843 0.015686 0.611765
0.149020 0.015686 0.615686
0.282353 0.015686 0.615686
0.419608 0.015686 0.615686
0.541176 0.023529 0.619608
0.658824 0.019608 0.611765
0.772549 0.015686 0.619608
0.890196 0.015686 0.623529
0.019608 0.149020 0.615686
0.149020 0.145098 0.611765
0.286275 0.149020 0.615686
0.419608 0.149020 0.615686
0.545098 0.145098 0.619608
0.662745 0.149020 0.623529
0.780392 0.149020 0.623529
0.886275 0.149020 0.623529
0.015686 0.286275 0.615686
0.160784 0.274510 0.619608
0.290196 0.278431 0.619608
0.423529 0.278431 0.623529
0.549020 0.278431 0.619608
0.666667 0.278431 0.623529
0.784314 0.282353 0.619608
0.894118 0.286275 0.627451
0.023529 0.411765 0.619608
0.156863 0.407843 0.623529
0.290196 0.407843 0.627451
0.427451 0.407843 0.619608
0.552941 0.411765 0.623529
0.670588 0.415686 0.627451
0.784314 0.411765 0.627451
0.898039 0.415686 0.631373
0.023529 0.537255 0.623529
0.160784 0.529412 0.619608
0.294118 0.529412 0.619608
0.423529 0.533333 0.623529
0.556863 0.533333 0.631373
0.670588 0.537255 0.635294
0.784314 0.537255 0.627451
0.901961 0.537255 0.635294
0.027451 0.658824 0.623529
0.164706 0.650980 0.619608
0.294118 0.654902 0.631373
0.435294 0.650980 0.631373
0.552941 0.654902 0.627451
0.674510 0.654902 0.627451
0.788235 0.658824 0.631373
0.901961 0.654902 0.631373
0.023529 0.760784 0.627451
0.164706 0.764706 0.635294
0.305882 0.764706 0.635294
0.435294 0.768627 0.635294
0.556863 0.768627 0.635294
0.674510 0.768627 0.631373
0.792157 0.768627 0.643137
0.901961 0.772549 0.635294
0.027451 0.866667 0.627451
0.172549 0.870588 0.635294
0.301961 0.874510 0.635294
0.443137 0.874510 0.631373
0.560784 0.874510 0.635294
0.682353 0.874510 0.639216
0.796078 0.878431 0.635294
0.909804 0.874510 0.635294
0.011765 0.011765 0.717647
0.152941 0.007843 0.717647
0.278431 0.015686 0.709804
0.415686 0.015686 0.721569
0.545098 0.019608 0.721569
0.662745 0.019608 0.725490
0.776471 0.015686 0.729412
0.894118 0.019608 0.725490
0.015686 0.149020 0.717647
0.152941 0.145098 0.729412
0.286275 0.149020 0.729412
0.423529 0.149020 0.725490
0.545098 0.149020 0.721569
0.662745 0.149020 0.725490
0.780392 0.152941 0.721569
0.890196 0.152941 0.729412
0.011765 0.278431 0.725490
0.160784 0.274510 0.725490
0.290196 0.278431 0.729412
0.423529 0.278431 0.729412
0.549020 0.278431 0.725490
0.666667 0.282353 0.733333
0.784314 0.282353 0.737255
0.890196 0.282353 0.729412
0.023529 0.407843 0.725490
0.156863 0.407843 0.725490
0.290196 0.411765 0.725490
0.427451 0.407843 0.737255
0.552941 0.407843 0.733333
0.670588 0.411765 0.729412
0.788235 0.411765 0.737255
0.894118 0.415686 0.729412
0.019608 0.533333 0.725490
0.160784 0.529412 0.737255
0.298039 0.529412 0.737255
0.431373 0.533333 0.729412
0.556863 0.533333 0.729412
0.674510 0.533333 0.733333
0.784314 0.537255 0.737255
0.901961 0.541176 0.741176
0.031373 0.650980 0.737255
0.164706 0.650980 0.737255
0.294118 0.658824 0.729412
0.435294 0.654902 0.733333
0.552941 0.654902 0.737255
0.678431 0.654902 0.741176
0.788235 0.658824 0.741176
0.901961 0.654902 0.741176
0.027451 0.760784 0.737255
0.160784 0.764706 0.729412
0.301961 0.760784 0.733333
0.431373 0.764706 0.741176
0.560784 0.768627 0.741176
0.678431 0.772549 0.741176
0.792157 0.768627 0.741176
0.901961 0.772549 0.745098
0.027451 0.870588 0.729412
0.168627 0.866667 0.737255
0.298039 0.870588 0.741176
0.439216 0.870588 0.741176
0.560784 0.878431 0.745098
0.686275 0.878431 0.741176
0.796078 0.882353 0.745098
0.909804 0.878431 0.745098
0.007843 0.007843 0.819608
0.152941 0.011765 0.827451
0.282353 0.015686 0.827451
0.423529 0.015686 0.823529
0.541176 0.015686 0.827451
0.662745 0.011765 0.831373
0.776471 0.019608 0.827451
0.890196 0.015686 0.827451
0.011765 0.145098 0.823529
0.149020 0.145098 0.823529
0.290196 0.145098 0.819608
0.419608 0.149020 0.827451
0.549020 0.152941 0.831373
0.666667 0.152941 0.835294
0.780392 0.149020 0.827451
0.890196 0.156863 0.831373
0.015686 0.274510 0.823529
0.156863 0.270588 0.831373
0.286275 0.274510 0.831373
0.419608 0.278431 0.827451
0.549020 0.282353 0.827451
0.674510 0.282353 0.831373
0.784314 0.286275 0.831373
0.894118 0.286275 0.839216
0.019608 0.403922 0.827451
0.156863 0.411765 0.835294
0.298039 0.407843 0.835294
0.427451 0.415686 0.831373
0.552941 0.411765 0.835294
0.670588 0.411765 0.839216
0.788235 0.415686 0.843137
0.894118 0.415686 0.835294
0.023529 0.525490 0.831373
0.160784 0.533333 0.835294
0.298039 0.533333 0.831373
0.431373 0.533333 0.839216
0.556863 0.533333 0.835294
0.674510 0.537255 0.843137
0.784314 0.541176 0.839216
0.898039 0.537255 0.839216
0.027451 0.650980 0.831373
0.160784 0.647059 0.843137
0.298039 0.650980 0.835294
0.431373 0.650980 0.835294
0.552941 0.658824 0.839216
0.678431 0.658824 0.843137
0.792157 0.654902 0.835294
0.901961 0.658824 0.847059
0.027451 0.764706 0.839216
0.160784 0.764706 0.839216
0.301961 0.764706 0.839216
0.431373 0.768627 0.843137
0.560784 0.764706 0.839216
0.674510 0.768627 0.843137
0.792157 0.768627 0.847059
0.898039 0.772549 0.839216
0.027451 0.874510 0.839216
0.168627 0.870588 0.839216
0.298039 0.874510 0.839216
0.439216 0.874510 0.843137
0.556863 0.874510 0.847059
0.682353 0.874510 0.843137
0.792157 0.878431 0.850980
0.909804 0.882353 0.847059
