luts/subtle/linen.cube
TITLE "linen (subtle)"
LUT_3D_SIZE 6
0.007843 0.019608 0.003922
0.203922 0.019608 0.000000
0.388235 0.023529 0.015686
0.572549 0.019608 0.007843
0.729412 0.015686 0.015686
0.882353 0.015686 0.011765
0.015686 0.207843 0.007843
0.207843 0.211765 0.011765
0.396078 0.215686 0.007843
0.572549 0.211765 0.011765
0.729412 0.207843 0.011765
0.890196 0.203922 0.015686
0.011765 0.396078 0.007843
0.207843 0.396078 0.011765
0.400000 0.400000 0.023529
0.576471 0.396078 0.019608
0.737255 0.396078 0.019608
0.898039 0.396078 0.019608
0.019608 0.564706 0.011765
0.219608 0.568627 0.023529
0.400000 0.568627 0.019608
0.580392 0.564706 0.015686
0.737255 0.568627 0.019608
0.898039 0.564706 0.023529
0.023529 0.717647 0.019608
0.219608 0.717647 0.023529
0.411765 0.721569 0.019608
0.584314 0.721569 0.031373
0.737255 0.725490 0.023529
0.901961 0.717647 0.031373
0.027451 0.870588 0.023529
0.223529 0.870588 0.027451
0.403922 0.870588 0.027451
0.588235 0.870588 0.023529
0.745098 0.874510 0.027451
0.901961 0.878431 0.031373
0.011765 0.019608 0.188235
0.203922 0.023529 0.192157
0.396078 0.019608 0.192157
0.576471 0.019608 0.196078
0.725490 0.019608 0.196078
0.890196 0.015686 0.192157
0.019608 0.211765 0.192157
0.211765 0.211765 0.196078
0.396078 0.211765 0.192157
0.572549 0.207843 0.196078
0.733333 0.207843 0.200000
0.886275 0.211765 0.196078
0.015686 0.400000 0.188235
0.219608 0.392157 0.200000
0.400000 0.396078 0.200000
0.576471 0.392157 0.203922
0.737255 0.396078 0.196078
0.898039 0.392157 0.196078
0.023529 0.564706 0.203922
0.215686 0.560784 0.200000
0.400000 0.568627 0.196078
0.580392 0.560784 0.200000
0.737255 0.564706 0.211765
0.890196 0.564706 0.207843
0.019608 0.721569 0.200000
0.219608 0.713725 0.200000
0.407843 0.713725 0.211765
0.584314 0.721569 0.207843
0.745098 0.721569 0.211765
0.898039 0.721569 0.211765
0.027451 0.866667 0.207843
0.219608 0.874510 0.207843
0.407843 0.874510 0.207843
0.588235 0.874510 0.207843
0.749020 0.878431 0.207843
0.901961 0.874510 0.215686
0.011765 0.015686 0.364706
0.200000 0.019608 0.368627
0.400000 0.023529 0.364706
0.568627 0.019608 0.364706
0.725490 0.015686 0.372549
0.886275 0.015686 0.368627
0.011765 0.211765 0.368627
0.207843 0.211765 0.364706
0.396078 0.207843 0.368627
0.576471 0.200000 0.372549
0.733333 0.207843 0.376471
0.890196 0.211765 0.368627
0.015686 0.392157 0.372549
0.211765 0.396078 0.368627
0.403922 0.388235 0.376471
0.572549 0.388235 0.372549
0.737255 0.392157 0.376471
0.894118 0.396078 0.384314
0.019608 0.568627 0.376471
0.215686 0.556863 0.368627
0.403922 0.560784 0.376471
0.584314 0.560784 0.380392
0.737255 0.560784 0.380392
0.894118 0.568627 0.384314
0.027451 0.713725 0.376471
0.223529 0.713725 0.380392
0.403922 0.717647 0.380392
0.584314 0.717647 0.376471
0.745098 0.721569 0.380392
0.901961 0.725490 0.392157
0.031373 0.866667 0.380392
0.219608 0.870588 0.384314
0.415686 0.874510 0.380392
0.588235 0.870588 0.384314
0.745098 0.878431 0.384314
0.905882 0.878431 0.388235
0.011765 0.015686 0.525490
0.207843 0.019608 0.521569
0.400000 0.023529 0.525490
0.568627 0.019608 0.533333
0.729412 0.019608 0.537255
0.890196 0.019608 0.537255
0.011765 0.211765 0.517647
0.207843 0.207843 0.541176
0.396078 0.207843 0.529412
0.576471 0.200000 0.533333
0.733333 0.207843 0.529412
0.890196 0.211765 0.537255
0.027451 0.396078 0.537255
0.219608 0.392157 0.537255
0.403922 0.388235 0.537255
0.580392 0.392157 0.545098
0.737255 0.392157 0.533333
0.894118 0.396078 0.537255
0.019608 0.568627 0.537255
0.215686 0.556863 0.537255
0.403922 0.560784 0.541176
0.584314 0.560784 0.541176
0.741176 0.564706 0.545098
0.898039 0.564706 0.545098
0.023529 0.713725 0.537255
0.223529 0.713725 0.541176
0.407843 0.721569 0.545098
0.584314 0.717647 0.537255
0.745098 0.717647 0.549020
0.901961 0.725490 0.552941
0.027451 0.866667 0.541176
0.219608 0.874510 0.537255
0.415686 0.870588 0.549020
0.592157 0.874510 0.549020
0.741176 0.878431 0.545098
0.905882 0.878431 0.549020
0.011765 0.011765 0.670588
0.207843 0.007843 0.682353
0.400000 0.015686 0.678431
0.572549 0.019608 0.686275
0.733333 0.015686 0.678431
0.890196 0.015686 0.674510
0.011765 0.203922 0.682353
0.211765 0.203922 0.678431
0.400000 0.207843 0.682353
0.576471 0.203922 0.686275
0.733333 0.207843 0.690196
0.894118 0.211765 0.690196
0.027451 0.388235 0.686275
0.211765 0.388235 0.686275
0.403922 0.392157 0.690196
0.576471 0.396078 0.690196
0.737255 0.392157 0.686275
0.894118 0.400000 0.690196
0.019608 0.560784 0.694118
0.211765 0.556863 0.690196
0.411765 0.560784 0.686275
0.584314 0.564706 0.694118
0.741176 0.568627 0.698039
0.898039 0.564706 0.698039
0.023529 0.717647 0.690196
0.223529 0.717647 0.694118
0.411765 0.721569 0.698039
0.580392 0.717647 0.698039
0.745098 0.721569 0.694118
0.901961 0.729412 0.698039
0.027451 0.866667 0.701961
0.219608 0.874510 0.698039
0.415686 0.874510 0.701961
0.592157 0.878431 0.701961
0.741176 0.878431 0.698039
0.905882 0.878431 0.709804
0.007843 0.007843 0.819608
0.211765 0.003922 0.823529
0.396078 0.011765 0.819608
0.568627 0.019608 0.819608
0.737255 0.015686 0.831373
0.890196 0.015686 0.827451
0.019608 0.203922 0.827451
0.207843 0.207843 0.823529
0.403922 0.200000 0.831373
0.576471 0.207843 0.831373
0.733333 0.211765 0.835294
0.890196 0.207843 0.831373
0.023529 0.388235 0.835294
0.219608 0.388235 0.831373
0.400000 0.388235 0.831373
0.580392 0.392157 0.831373
0.741176 0.392157 0.839216
0.898039 0.396078 0.843137
0.023529 0.556863 0.831373
0.219608 0.560784 0.827451
0.411765 0.560784 0.839216
0.580392 0.560784 0.835294
0.741176 0.564706 0.839216
0.905882 0.564706 0.839216
0.031373 0.713725 0.843137
0.219608 0.721569 0.839216
0.407843 0.717647 0.835294
0.588235 0.721569 0.835294
0.745098 0.725490 0.847059
0.898039 0.725490 0.847059
0.027451 0.874510 0.839216
0.231373 0.870588 0.843137
0.411765 0.874510 0.835294
0.584314 0.874510 0.847059
0.749020 0.878431 0.843137
0.909804 0.882353 0.847059
