luts/subtle/oat-milk.cube
TITLE "oat-milk (subtle)"
LUT_3D_SIZE 8
0.043137 0.035294 0.019608
0.176471 0.039216 0.023529
0.313725 0.039216 0.023529
0.443137 0.043137 0.023529
0.560784 0.035294 0.027451
0.658824 0.047059 0.039216
0.760784 0.039216 0.035294
0.874510 0.043137 0.039216
0.043137 0.176471 0.023529
0.180392 0.176471 0.023529
0.305882 0.180392 0.027451
0.443137 0.180392 0.027451
0.560784 0.184314 0.023529
0.666667 0.184314 0.035294
0.764706 0.180392 0.039216
0.874510 0.184314 0.043137
0.035294 0.313725 0.023529
0.180392 0.313725 0.027451
0.309804 0.321569 0.023529
0.439216 0.317647 0.019608
0.556863 0.317647 0.023529
0.662745 0.317647 0.031373
0.764706 0.317647 0.039216
0.882353 0.321569 0.039216
0.039216 0.447059 0.023529
0.176471 0.450980 0.027451
0.317647 0.450980 0.019608
0.447059 0.454902 0.023529
0.560784 0.450980 0.023529
0.666667 0.447059 0.031373
0.768627 0.450980 0.039216
0.886275 0.450980 0.043137
0.027451 0.572549 0.023529
0.172549 0.576471 0.027451
0.309804 0.576471 0.031373
0.439216 0.572549 0.027451
0.556863 0.576471 0.023529
0.666667 0.576471 0.043137
0.764706 0.572549 0.047059
0.882353 0.576471 0.047059
0.019608 0.690196 0.035294
0.149020 0.694118 0.039216
0.290196 0.694118 0.031373
0.427451 0.694118 0.039216
0.549020 0.690196 0.047059
0.662745 0.698039 0.043137
0.768627 0.694118 0.050980
0.882353 0.694118 0.043137
0.011765 0.803922 0.043137
0.145098 0.803922 0.039216
0.286275 0.800000 0.047059
0.419608 0.803922 0.047059
0.545098 0.803922 0.047059
0.662745 0.803922 0.050980
0.764706 0.807843 0.043137
0.882353 0.807843 0.047059
0.011765 0.909804 0.043137
0.156863 0.913725 0.050980
0.286275 0.917647 0.050980
0.415686 0.913725 0.043137
0.545098 0.917647 0.050980
0.662745 0.921569 0.047059
0.776471 0.917647 0.047059
0.882353 0.917647 0.047059
0.039216 0.035294 0.152941
0.176471 0.043137 0.160784
0.305882 0.039216 0.156863
0.443137 0.039216 0.164706
0.560784 0.039216 0.168627
0.666667 0.039216 0.180392
0.760784 0.043137 0.180392
0.874510 0.039216 0.180392
0.043137 0.180392 0.160784
0.176471 0.180392 0.168627
0.313725 0.180392 0.164706
0.431373 0.184314 0.168627
0.537255 0.180392 0.176471
0.662745 0.180392 0.180392
0.768627 0.180392 0.180392
0.874510 0.180392 0.176471
0.039216 0.313725 0.168627
0.172549 0.313725 0.160784
0.313725 0.313725 0.160784
0.427451 0.317647 0.168627
0.537255 0.321569 0.180392
0.658824 0.313725 0.180392
0.768627 0.317647 0.184314
0.882353 0.317647 0.176471
0.035294 0.447059 0.164706
0.172549 0.447059 0.168627
0.305882 0.450980 0.168627
0.431373 0.450980 0.164706
0.541176 0.450980 0.180392
0.658824 0.454902 0.184314
0.764706 0.454902 0.184314
0.878431 0.450980 0.176471
0.027451 0.576471 0.168627
0.152941 0.572549 0.180392
0.286275 0.572549 0.180392
0.419608 0.572549 0.184314
0.541176 0.576471 0.180392
0.658824 0.576471 0.184314
0.768627 0.576471 0.176471
0.878431 0.576471 0.176471
0.019608 0.694118 0.180392
0.145098 0.694118 0.176471
0.278431 0.694118 0.180392
0.415686 0.694118 0.180392
0.537255 0.694118 0.176471
0.658824 0.694118 0.184314
0.768627 0.701961 0.180392
0.882353 0.698039 0.188235
0.011765 0.800000 0.176471
0.149020 0.803922 0.184314
0.286275 0.807843 0.184314
0.415686 0.803922 0.180392
0.541176 0.803922 0.176471
0.662745 0.800000 0.184314
0.768627 0.807843 0.188235
0.882353 0.803922 0.188235
0.011765 0.917647 0.180392
0.152941 0.913725 0.184314
0.282353 0.917647 0.176471
0.415686 0.917647 0.188235
0.541176 0.917647 0.192157
0.662745 0.917647 0.188235
0.772549 0.917647 0.188235
0.882353 0.921569 0.184314
0.035294 0.039216 0.298039
0.172549 0.043137 0.290196
0.305882 0.043137 0.294118
0.443137 0.043137 0.294118
0.556863 0.039216 0.294118
0.662745 0.039216 0.301961
0.764706 0.039216 0.309804
0.874510 0.047059 0.317647
0.039216 0.180392 0.294118
0.180392 0.176471 0.294118
0.309804 0.180392 0.298039
0.431373 0.180392 0.301961
0.545098 0.180392 0.321569
0.658824 0.180392 0.313725
0.764706 0.180392 0.313725
0.874510 0.184314 0.317647
0.035294 0.313725 0.290196
0.180392 0.317647 0.298039
0.305882 0.313725 0.301961
0.415686 0.317647 0.313725
0.541176 0.317647 0.321569
0.658824 0.317647 0.317647
0.764706 0.317647 0.317647
0.882353 0.321569 0.321569
0.043137 0.450980 0.301961
0.164706 0.447059 0.305882
0.282353 0.447059 0.313725
0.419608 0.450980 0.313725
0.537255 0.450980 0.317647
0.658824 0.450980 0.317647
0.768627 0.450980 0.317647
0.886275 0.450980 0.321569
0.027451 0.572549 0.305882
0.149020 0.576471 0.317647
0.282353 0.572549 0.313725
0.415686 0.576471 0.317647
0.541176 0.572549 0.321569
0.658824 0.576471 0.317647
0.764706 0.576471 0.317647
0.882353 0.576471 0.313725
0.023529 0.690196 0.313725
0.145098 0.698039 0.313725
0.286275 0.694118 0.317647
0.419608 0.698039 0.317647
0.545098 0.694118 0.321569
0.662745 0.698039 0.317647
0.768627 0.698039 0.321569
0.878431 0.698039 0.313725
0.011765 0.803922 0.321569
0.152941 0.803922 0.313725
0.286275 0.803922 0.317647
0.415686 0.807843 0.317647
0.545098 0.803922 0.313725
0.662745 0.803922 0.321569
0.764706 0.807843 0.321569
0.882353 0.811765 0.317647
0.011765 0.913725 0.313725
0.152941 0.917647 0.321569
0.286275 0.917647 0.321569
0.415686 0.917647 0.317647
0.545098 0.921569 0.321569
0.662745 0.921569 0.317647
0.776471 0.917647 0.317647
0.878431 0.921569 0.325490
0.039216 0.035294 0.431373
0.172549 0.039216 0.423529
0.309804 0.039216 0.423529
0.443137 0.043137 0.427451
0.560784 0.043137 0.431373
0.666667 0.039216 0.439216
0.764706 0.047059 0.447059
0.874510 0.043137 0.439216
0.039216 0.176471 0.423529
0.168627 0.180392 0.435294
0.298039 0.184314 0.435294
0.427451 0.180392 0.435294
0.537255 0.184314 0.447059
0.662745 0.184314 0.443137
0.768627 0.184314 0.443137
0.878431 0.184314 0.443137
0.039216 0.317647 0.427451
0.164706 0.313725 0.435294
0.294118 0.317647 0.443137
0.411765 0.321569 0.439216
0.533333 0.317647 0.443137
0.658824 0.317647 0.450980
0.764706 0.317647 0.450980
0.882353 0.317647 0.454902
0.035294 0.450980 0.427451
0.168627 0.447059 0.431373
0.290196 0.450980 0.443137
0.419608 0.443137 0.454902
0.537255 0.447059 0.450980
0.654902 0.450980 0.447059
0.768627 0.454902 0.454902
0.878431 0.450980 0.454902
0.027451 0.576471 0.435294
0.152941 0.572549 0.450980
0.286275 0.576471 0.450980
0.415686 0.572549 0.447059
0.545098 0.576471 0.450980
0.654902 0.576471 0.450980
0.772549 0.576471 0.454902
0.878431 0.576471 0.447059
0.015686 0.690196 0.447059
0.145098 0.694118 0.447059
0.282353 0.694118 0.447059
0.415686 0.698039 0.450980
0.541176 0.698039 0.447059
0.662745 0.694118 0.450980
0.764706 0.698039 0.450980
0.882353 0.701961 0.450980
0.011765 0.800000 0.454902
0.152941 0.800000 0.447059
0.282353 0.803922 0.450980
0.415686 0.803922 0.450980
0.541176 0.803922 0.447059
0.666667 0.803922 0.450980
0.772549 0.803922 0.450980
0.882353 0.807843 0.450980
0.011765 0.917647 0.450980
0.152941 0.913725 0.450980
0.286275 0.917647 0.454902
0.415686 0.921569 0.454902
0.541176 0.921569 0.450980
0.666667 0.921569 0.450980
0.772549 0.921569 0.450980
0.878431 0.917647 0.450980
0.031373 0.039216 0.552941
0.160784 0.043137 0.556863
0.301961 0.039216 0.556863
0.439216 0.043137 0.560784
0.560784 0.039216 0.556863
0.670588 0.039216 0.564706
0.764706 0.043137 0.572549
0.878431 0.043137 0.564706
0.027451 0.180392 0.556863
0.152941 0.176471 0.572549
0.282353 0.180392 0.572549
0.415686 0.184314 0.564706
0.541176 0.180392 0.572549
0.658824 0.184314 0.568627
0.772549 0.180392 0.568627
0.870588 0.184314 0.568627
0.023529 0.313725 0.556863
0.152941 0.317647 0.572549
0.282353 0.313725 0.564706
0.411765 0.317647 0.564706
0.537255 0.317647 0.568627
0.654902 0.317647 0.564706
0.772549 0.321569 0.572549
0.878431 0.321569 0.572549
0.031373 0.450980 0.560784
0.149020 0.450980 0.572549
0.282353 0.450980 0.572549
0.415686 0.447059 0.572549
0.537255 0.454902 0.572549
0.654902 0.450980 0.564706
0.768627 0.454902 0.576471
0.882353 0.450980 0.576471
0.027451 0.576471 0.560784
0.152941 0.572549 0.564706
0.290196 0.576471 0.568627
0.411765 0.576471 0.564706
0.549020 0.572549 0.580392
0.658824 0.580392 0.580392
0.764706 0.580392 0.580392
0.878431 0.576471 0.572549
0.023529 0.694118 0.564706
0.145098 0.694118 0.564706
0.282353 0.694118 0.572549
0.415686 0.694118 0.572549
0.541176 0.694118 0.572549
0.666667 0.694118 0.576471
0.764706 0.694118 0.576471
0.882353 0.698039 0.572549
0.011765 0.800000 0.568627
0.149020 0.800000 0.572549
0.282353 0.803922 0.572549
0.419608 0.803922 0.576471
0.541176 0.803922 0.572549
0.658824 0.803922 0.576471
0.776471 0.803922 0.580392
0.878431 0.811765 0.572549
0.011765 0.917647 0.576471
0.152941 0.913725 0.576471
0.290196 0.913725 0.580392
0.419608 0.917647 0.580392
0.541176 0.917647 0.576471
0.666667 0.917647 0.572549
0.772549 0.917647 0.576471
0.890196 0.917647 0.580392
0.015686 0.039216 0.682353
0.152941 0.039216 0.682353
0.286275 0.039216 0.686275
0.423529 0.039216 0.686275
0.545098 0.039216 0.682353
0.662745 0.043137 0.690196
0.764706 0.043137 0.690196
0.870588 0.043137 0.690196
0.011765 0.180392 0.686275
0.145098 0.180392 0.686275
0.286275 0.180392 0.690196
0.411765 0.184314 0.690196
0.533333 0.184314 0.686275
0.658824 0.184314 0.690196
0.764706 0.184314 0.694118
0.874510 0.184314 0.686275
0.011765 0.317647 0.690196
0.145098 0.313725 0.686275
0.286275 0.313725 0.686275
0.411765 0.317647 0.690196
0.537255 0.317647 0.686275
0.654902 0.317647 0.690196
0.772549 0.317647 0.694118
0.878431 0.321569 0.686275
0.015686 0.450980 0.686275
0.149020 0.450980 0.690196
0.286275 0.450980 0.690196
0.415686 0.447059 0.686275
0.537255 0.454902 0.690196
0.662745 0.454902 0.694118
0.768627 0.454902 0.694118
0.882353 0.450980 0.686275
0.019608 0.572549 0.690196
0.149020 0.576471 0.690196
0.282353 0.576471 0.694118
0.411765 0.572549 0.690196
0.541176 0.576471 0.690196
0.658824 0.580392 0.694118
0.768627 0.580392 0.686275
0.882353 0.576471 0.698039
0.023529 0.694118 0.690196
0.149020 0.694118 0.686275
0.282353 0.694118 0.690196
0.419608 0.694118 0.690196
0.541176 0.694118 0.686275
0.666667 0.690196 0.701961
0.768627 0.694118 0.694118
0.886275 0.698039 0.698039
0.007843 0.803922 0.686275
0.149020 0.800000 0.690196
0.282353 0.803922 0.690196
0.419608 0.800000 0.698039
0.545098 0.800000 0.698039
0.662745 0.803922 0.694118
0.780392 0.803922 0.698039
0.878431 0.807843 0.698039
0.015686 0.917647 0.694118
0.156863 0.913725 0.694118
0.290196 0.913725 0.694118
0.419608 0.917647 0.698039
0.541176 0.917647 0.701961
0.666667 0.917647 0.698039
0.772549 0.917647 0.698039
0.890196 0.917647 0.694118
0.007843 0.035294 0.796078
0.141176 0.039216 0.788235
0.278431 0.039216 0.788235
0.411765 0.039216 0.792157
0.537255 0.039216 0.796078
0.654902 0.039216 0.800000
0.772549 0.043137 0.796078
0.874510 0.047059 0.800000
0.003922 0.180392 0.788235
0.149020 0.180392 0.796078
0.290196 0.180392 0.803922
0.407843 0.180392 0.803922
0.537255 0.184314 0.803922
0.654902 0.180392 0.796078
0.768627 0.184314 0.800000
0.882353 0.180392 0.800000
0.003922 0.317647 0.800000
0.145098 0.313725 0.803922
0.286275 0.313725 0.796078
0.419608 0.313725 0.796078
0.537255 0.317647 0.803922
0.654902 0.317647 0.800000
0.768627 0.317647 0.800000
0.882353 0.321569 0.803922
0.003922 0.447059 0.800000
0.145098 0.447059 0.800000
0.282353 0.447059 0.803922
0.415686 0.450980 0.796078
0.533333 0.450980 0.800000
0.658824 0.450980 0.796078
0.764706 0.450980 0.800000
0.882353 0.450980 0.803922
0.011765 0.572549 0.800000
0.145098 0.572549 0.796078
0.278431 0.572549 0.796078
0.415686 0.576471 0.796078
0.537255 0.576471 0.796078
0.658824 0.576471 0.800000
0.768627 0.580392 0.803922
0.882353 0.580392 0.796078
0.015686 0.694118 0.803922
0.156863 0.690196 0.796078
0.282353 0.694118 0.800000
0.419608 0.698039 0.800000
0.545098 0.698039 0.796078
0.666667 0.694118 0.800000
0.768627 0.698039 0.800000
0.886275 0.701961 0.800000
0.007843 0.803922 0.803922
0.149020 0.803922 0.796078
0.286275 0.803922 0.800000
0.419608 0.803922 0.800000
0.545098 0.803922 0.796078
0.662745 0.807843 0.803922
0.776471 0.800000 0.811765
0.882353 0.811765 0.807843
0.015686 0.917647 0.800000
0.156863 0.917647 0.803922
0.290196 0.917647 0.803922
0.419608 0.921569 0.803922
0.545098 0.917647 0.811765
0.666667 0.917647 0.807843
0.776471 0.917647 0.807843
0.890196 0.913725 0.807843
0.007843 0.039216 0.901961
0.145098 0.039216 0.905882
0.278431 0.039216 0.905882
0.415686 0.039216 0.905882
0.537255 0.039216 0.905882
0.654902 0.043137 0.901961
0.768627 0.039216 0.901961
0.874510 0.047059 0.913725
0.003922 0.180392 0.905882
0.145098 0.176471 0.905882
0.278431 0.180392 0.901961
0.407843 0.184314 0.901961
0.533333 0.184314 0.905882
0.654902 0.180392 0.913725
0.764706 0.180392 0.913725
0.882353 0.184314 0.909804
0.003922 0.317647 0.909804
0.145098 0.317647 0.901961
0.286275 0.313725 0.913725
0.415686 0.317647 0.913725
0.541176 0.317647 0.909804
0.658824 0.317647 0.917647
0.764706 0.317647 0.917647
0.882353 0.321569 0.913725
0.007843 0.450980 0.905882
0.149020 0.447059 0.909804
0.282353 0.450980 0.909804
0.419608 0.450980 0.913725
0.541176 0.450980 0.909804
0.658824 0.450980 0.913725
0.768627 0.450980 0.913725
0.886275 0.454902 0.909804
0.011765 0.572549 0.909804
0.145098 0.572549 0.909804
0.282353 0.572549 0.913725
0.415686 0.576471 0.913725
0.541176 0.576471 0.909804
0.658824 0.576471 0.917647
0.764706 0.576471 0.909804
0.882353 0.580392 0.913725
0.015686 0.694118 0.909804
0.149020 0.694118 0.913725
0.286275 0.698039 0.913725
0.419608 0.698039 0.917647
0.545098 0.698039 0.913725
0.662745 0.698039 0.917647
0.768627 0.698039 0.909804
0.882353 0.694118 0.909804
0.011765 0.803922 0.913725
0.152941 0.803922 0.913725
0.286275 0.803922 0.913725
0.415686 0.807843 0.917647
0.545098 0.803922 0.913725
0.662745 0.807843 0.909804
0.772549 0.807843 0.909804
0.882353 0.811765 0.917647
0.011765 0.913725 0.913725
0.156863 0.917647 0.917647
0.294118 0.917647 0.913725
0.415686 0.917647 0.909804
0.545098 0.921569 0.917647
0.662745 0.921569 0.917647
0.776471 0.921569 0.917647
0.890196 0.917647 0.917647
