luts/subtle/oat-milk.cube
TITLE "oat-milk (subtle)"
LUT_3D_SIZE 36
0.043137 0.035294 0.019608
0.062745 0.039216 0.023529
0.094118 0.043137 0.023529
0.117647 0.039216 0.019608
0.149020 0.035294 0.019608
0.176471 0.039216 0.023529
0.200000 0.043137 0.023529
0.223529 0.039216 0.019608
0.250980 0.039216 0.019608
0.278431 0.039216 0.023529
0.313725 0.039216 0.023529
0.341176 0.039216 0.023529
0.364706 0.035294 0.023529
0.384314 0.039216 0.023529
0.419608 0.039216 0.023529
0.443137 0.043137 0.023529
0.466667 0.039216 0.023529
0.494118 0.039216 0.023529
0.517647 0.035294 0.019608
0.537255 0.039216 0.027451
0.560784 0.035294 0.027451
0.584314 0.039216 0.035294
0.600000 0.039216 0.031373
0.627451 0.039216 0.031373
0.643137 0.039216 0.035294
0.658824 0.047059 0.039216
0.678431 0.043137 0.043137
0.701961 0.039216 0.039216
0.717647 0.039216 0.035294
0.741176 0.043137 0.039216
0.760784 0.039216 0.035294
0.784314 0.043137 0.043137
0.807843 0.039216 0.039216
0.835294 0.039216 0.043137
0.850980 0.039216 0.039216
0.874510 0.043137 0.039216
0.039216 0.062745 0.019608
0.066667 0.062745 0.019608
0.086275 0.066667 0.019608
0.113725 0.070588 0.023529
0.149020 0.066667 0.023529
0.176471 0.066667 0.023529
0.200000 0.066667 0.019608
0.227451 0.066667 0.023529
0.254902 0.066667 0.023529
0.286275 0.066667 0.023529
0.305882 0.062745 0.023529
0.337255 0.066667 0.023529
0.364706 0.066667 0.023529
0.392157 0.066667 0.023529
0.419608 0.070588 0.027451
0.443137 0.066667 0.023529
0.470588 0.066667 0.023529
0.494118 0.062745 0.019608
0.513725 0.066667 0.023529
0.545098 0.066667 0.031373
0.560784 0.066667 0.027451
0.588235 0.066667 0.027451
0.603922 0.066667 0.035294
0.623529 0.066667 0.031373
0.643137 0.066667 0.039216
0.666667 0.066667 0.035294
0.670588 0.070588 0.039216
0.701961 0.070588 0.043137
0.717647 0.070588 0.039216
0.745098 0.070588 0.039216
0.760784 0.070588 0.035294
0.784314 0.066667 0.031373
0.807843 0.070588 0.043137
0.831373 0.066667 0.039216
0.850980 0.070588 0.039216
0.874510 0.066667 0.035294
0.043137 0.090196 0.019608
0.070588 0.090196 0.023529
0.098039 0.094118 0.023529
0.117647 0.094118 0.019608
0.145098 0.094118 0.019608
0.172549 0.094118 0.023529
0.200000 0.094118 0.023529
0.227451 0.098039 0.023529
0.250980 0.094118 0.023529
0.278431 0.094118 0.023529
0.305882 0.094118 0.023529
0.333333 0.098039 0.023529
0.368627 0.094118 0.027451
0.388235 0.094118 0.023529
0.419608 0.094118 0.023529
0.443137 0.098039 0.027451
0.466667 0.094118 0.023529
0.494118 0.094118 0.023529
0.521569 0.094118 0.023529
0.537255 0.094118 0.027451
0.556863 0.094118 0.027451
0.584314 0.094118 0.027451
0.600000 0.094118 0.031373
0.623529 0.098039 0.031373
0.639216 0.094118 0.039216
0.666667 0.094118 0.039216
0.682353 0.094118 0.043137
0.694118 0.098039 0.039216
0.721569 0.098039 0.043137
0.741176 0.098039 0.039216
0.756863 0.098039 0.035294
0.784314 0.098039 0.035294
0.807843 0.094118 0.039216
0.831373 0.098039 0.043137
0.854902 0.094118 0.039216
0.874510 0.098039 0.039216
0.039216 0.117647 0.019608
0.066667 0.117647 0.019608
0.094118 0.117647 0.019608
0.121569 0.121569 0.023529
0.149020 0.121569 0.023529
0.176471 0.121569 0.023529
0.196078 0.121569 0.023529
0.227451 0.121569 0.023529
0.258824 0.121569 0.023529
0.286275 0.121569 0.023529
0.309804 0.117647 0.023529
0.337255 0.121569 0.023529
0.364706 0.121569 0.023529
0.392157 0.121569 0.027451
0.419608 0.121569 0.027451
0.443137 0.121569 0.023529
0.466667 0.125490 0.023529
0.494118 0.125490 0.027451
0.517647 0.121569 0.023529
0.545098 0.121569 0.031373
0.560784 0.121569 0.027451
0.584314 0.125490 0.031373
0.607843 0.121569 0.035294
0.623529 0.121569 0.031373
0.643137 0.121569 0.039216
0.666667 0.117647 0.035294
0.678431 0.121569 0.043137
0.705882 0.121569 0.043137
0.717647 0.125490 0.039216
0.745098 0.125490 0.039216
0.764706 0.125490 0.035294
0.784314 0.121569 0.035294
0.807843 0.125490 0.043137
0.835294 0.125490 0.043137
0.850980 0.125490 0.039216
0.874510 0.121569 0.039216
0.043137 0.152941 0.027451
0.066667 0.149020 0.023529
0.094118 0.149020 0.023529
0.121569 0.152941 0.023529
0.156863 0.149020 0.027451
0.176471 0.152941 0.027451
0.200000 0.149020 0.023529
0.227451 0.149020 0.023529
0.254902 0.152941 0.027451
0.286275 0.152941 0.027451
0.305882 0.149020 0.023529
0.337255 0.149020 0.027451
0.364706 0.152941 0.027451
0.392157 0.152941 0.027451
0.419608 0.156863 0.019608
0.443137 0.149020 0.027451
0.462745 0.152941 0.027451
0.494118 0.156863 0.027451
0.517647 0.152941 0.023529
0.545098 0.152941 0.027451
0.560784 0.152941 0.031373
0.584314 0.156863 0.031373
0.603922 0.152941 0.027451
0.623529 0.149020 0.031373
0.643137 0.156863 0.035294
0.666667 0.152941 0.031373
0.678431 0.152941 0.035294
0.705882 0.152941 0.035294
0.725490 0.152941 0.043137
0.745098 0.156863 0.043137
0.760784 0.156863 0.039216
0.784314 0.152941 0.035294
0.807843 0.156863 0.039216
0.835294 0.156863 0.039216
0.850980 0.156863 0.043137
0.874510 0.152941 0.039216
0.043137 0.176471 0.023529
0.070588 0.176471 0.023529
0.098039 0.176471 0.027451
0.121569 0.172549 0.023529
0.156863 0.180392 0.027451
0.180392 0.176471 0.023529
0.200000 0.180392 0.027451
0.227451 0.180392 0.027451
0.250980 0.176471 0.023529
0.278431 0.180392 0.027451
0.305882 0.180392 0.027451
0.333333 0.180392 0.027451
0.364706 0.184314 0.019608
0.388235 0.180392 0.027451
0.419608 0.180392 0.019608
0.443137 0.180392 0.027451
0.466667 0.176471 0.023529
0.494118 0.180392 0.027451
0.521569 0.180392 0.027451
0.537255 0.180392 0.023529
0.560784 0.184314 0.023529
0.584314 0.180392 0.031373
0.600000 0.180392 0.027451
0.623529 0.180392 0.035294
0.639216 0.180392 0.031373
0.666667 0.184314 0.035294
0.686275 0.180392 0.039216
0.701961 0.180392 0.035294
0.729412 0.180392 0.043137
0.745098 0.180392 0.039216
0.764706 0.180392 0.039216
0.784314 0.184314 0.039216
0.811765 0.184314 0.039216
0.831373 0.184314 0.035294
0.847059 0.184314 0.039216
0.874510 0.184314 0.043137
0.031373 0.203922 0.023529
0.066667 0.203922 0.023529
0.094118 0.203922 0.023529
0.121569 0.203922 0.023529
0.149020 0.207843 0.027451
0.176471 0.207843 0.027451
0.200000 0.203922 0.023529
0.223529 0.207843 0.027451
0.258824 0.207843 0.027451
0.286275 0.207843 0.027451
0.313725 0.207843 0.027451
0.337255 0.207843 0.019608
0.364706 0.207843 0.019608
0.384314 0.211765 0.027451
0.419608 0.207843 0.023529
0.443137 0.207843 0.019608
0.466667 0.207843 0.027451
0.494118 0.211765 0.027451
0.517647 0.207843 0.023529
0.545098 0.207843 0.027451
0.560784 0.207843 0.023529
0.584314 0.211765 0.031373
0.600000 0.211765 0.027451
0.623529 0.203922 0.035294
0.647059 0.207843 0.035294
0.662745 0.207843 0.031373
0.678431 0.207843 0.035294
0.705882 0.207843 0.039216
0.725490 0.207843 0.043137
0.752941 0.207843 0.043137
0.768627 0.207843 0.039216
0.792157 0.211765 0.039216
0.807843 0.211765 0.039216
0.835294 0.211765 0.039216
0.854902 0.211765 0.035294
0.874510 0.207843 0.039216
0.039216 0.231373 0.023529
0.066667 0.235294 0.023529
0.090196 0.231373 0.023529
0.117647 0.231373 0.023529
0.152941 0.227451 0.023529
0.180392 0.231373 0.027451
0.207843 0.231373 0.027451
0.227451 0.235294 0.027451
0.250980 0.231373 0.023529
0.278431 0.235294 0.027451
0.309804 0.235294 0.019608
0.337255 0.235294 0.019608
0.364706 0.239216 0.023529
0.388235 0.231373 0.027451
0.415686 0.235294 0.019608
0.443137 0.235294 0.019608
0.466667 0.231373 0.023529
0.494118 0.231373 0.027451
0.517647 0.239216 0.027451
0.541176 0.235294 0.023529
0.560784 0.239216 0.027451
0.584314 0.231373 0.031373
0.603922 0.239216 0.031373
0.623529 0.239216 0.027451
0.639216 0.235294 0.031373
0.666667 0.235294 0.035294
0.686275 0.235294 0.039216
0.701961 0.235294 0.035294
0.725490 0.239216 0.043137
0.749020 0.235294 0.039216
0.768627 0.239216 0.043137
0.792157 0.235294 0.039216
0.815686 0.239216 0.039216
0.831373 0.239216 0.035294
0.847059 0.239216 0.035294
0.874510 0.239216 0.043137
0.031373 0.258824 0.023529
0.062745 0.258824 0.023529
0.090196 0.262745 0.023529
0.121569 0.258824 0.027451
0.149020 0.258824 0.027451
0.180392 0.262745 0.027451
0.203922 0.258824 0.023529
0.231373 0.258824 0.027451
0.250980 0.262745 0.027451
0.278431 0.266667 0.019608
0.313725 0.262745 0.023529
0.337255 0.258824 0.019608
0.364706 0.262745 0.019608
0.388235 0.266667 0.019608
0.419608 0.262745 0.023529
0.439216 0.262745 0.019608
0.466667 0.262745 0.027451
0.494118 0.266667 0.019608
0.517647 0.258824 0.027451
0.537255 0.266667 0.027451
0.560784 0.262745 0.023529
0.584314 0.262745 0.031373
0.600000 0.262745 0.027451
0.623529 0.258824 0.027451
0.647059 0.262745 0.035294
0.662745 0.262745 0.031373
0.678431 0.262745 0.035294
0.709804 0.262745 0.039216
0.725490 0.262745 0.035294
0.745098 0.266667 0.043137
0.768627 0.262745 0.039216
0.792157 0.266667 0.043137
0.815686 0.262745 0.039216
0.835294 0.266667 0.039216
0.854902 0.266667 0.035294
0.870588 0.262745 0.039216
0.039216 0.286275 0.023529
0.066667 0.286275 0.027451
0.094118 0.290196 0.027451
0.117647 0.286275 0.023529
0.152941 0.282353 0.023529
0.180392 0.286275 0.027451
0.207843 0.286275 0.027451
0.235294 0.286275 0.027451
0.262745 0.290196 0.023529
0.282353 0.290196 0.019608
0.309804 0.290196 0.019608
0.337255 0.290196 0.019608
0.364706 0.294118 0.023529
0.388235 0.290196 0.019608
0.415686 0.290196 0.019608
0.443137 0.290196 0.019608
0.466667 0.286275 0.019608
0.494118 0.290196 0.019608
0.517647 0.290196 0.027451
0.541176 0.286275 0.023529
0.560784 0.294118 0.027451
0.584314 0.286275 0.031373
0.607843 0.290196 0.031373
0.623529 0.290196 0.027451
0.639216 0.290196 0.031373
0.666667 0.290196 0.035294
0.678431 0.290196 0.039216
0.701961 0.290196 0.035294
0.725490 0.294118 0.035294
0.749020 0.286275 0.043137
0.768627 0.294118 0.043137
0.792157 0.290196 0.039216
0.815686 0.294118 0.039216
0.839216 0.290196 0.035294
0.854902 0.290196 0.035294
0.878431 0.294118 0.035294
0.035294 0.313725 0.023529
0.062745 0.313725 0.023529
0.090196 0.313725 0.023529
0.117647 0.317647 0.027451
0.152941 0.313725 0.027451
0.180392 0.313725 0.027451
0.203922 0.313725 0.023529
0.231373 0.313725 0.019608
0.258824 0.313725 0.019608
0.286275 0.317647 0.019608
0.309804 0.321569 0.023529
0.333333 0.317647 0.019608
0.364706 0.313725 0.019608
0.388235 0.321569 0.019608
0.419608 0.317647 0.023529
0.439216 0.317647 0.019608
0.466667 0.317647 0.019608
0.494118 0.321569 0.019608
0.517647 0.313725 0.027451
0.541176 0.317647 0.027451
0.556863 0.317647 0.023529
0.584314 0.317647 0.031373
0.600000 0.317647 0.031373
0.619608 0.317647 0.027451
0.639216 0.321569 0.035294
0.662745 0.317647 0.031373
0.682353 0.313725 0.035294
0.701961 0.317647 0.039216
0.725490 0.317647 0.035294
0.749020 0.317647 0.043137
0.764706 0.317647 0.039216
0.792157 0.317647 0.043137
0.815686 0.317647 0.039216
0.839216 0.321569 0.039216
0.858824 0.317647 0.035294
0.882353 0.321569 0.039216
0.039216 0.341176 0.023529
0.066667 0.341176 0.027451
0.094118 0.341176 0.027451
0.117647 0.341176 0.023529
0.145098 0.341176 0.023529
0.172549 0.341176 0.027451
0.207843 0.341176 0.019608
0.235294 0.341176 0.019608
0.262745 0.345098 0.023529
0.286275 0.341176 0.019608
0.313725 0.341176 0.019608
0.337255 0.345098 0.019608
0.364706 0.345098 0.023529
0.388235 0.341176 0.019608
0.415686 0.345098 0.019608
0.443137 0.345098 0.019608
0.462745 0.345098 0.019608
0.490196 0.345098 0.019608
0.517647 0.349020 0.019608
0.541176 0.341176 0.023529
0.560784 0.345098 0.027451
0.580392 0.345098 0.031373
0.607843 0.345098 0.031373
0.623529 0.345098 0.027451
0.643137 0.345098 0.035294
0.670588 0.345098 0.035294
0.678431 0.345098 0.039216
0.709804 0.349020 0.039216
0.725490 0.345098 0.035294
0.749020 0.345098 0.035294
0.768627 0.345098 0.043137
0.792157 0.341176 0.039216
0.815686 0.345098 0.039216
0.839216 0.345098 0.039216
0.858824 0.349020 0.039216
0.882353 0.345098 0.035294
0.035294 0.368627 0.023529
0.062745 0.368627 0.023529
0.090196 0.368627 0.023529
0.117647 0.368627 0.027451
0.152941 0.368627 0.027451
0.180392 0.368627 0.027451
0.207843 0.372549 0.023529
0.231373 0.368627 0.019608
0.258824 0.368627 0.019608
0.286275 0.372549 0.019608
0.313725 0.372549 0.023529
0.341176 0.372549 0.023529
0.360784 0.372549 0.019608
0.388235 0.372549 0.019608
0.423529 0.372549 0.023529
0.439216 0.372549 0.019608
0.466667 0.372549 0.019608
0.494118 0.372549 0.023529
0.517647 0.368627 0.019608
0.541176 0.372549 0.027451
0.556863 0.372549 0.023529
0.584314 0.372549 0.035294
0.603922 0.372549 0.031373
0.619608 0.372549 0.027451
0.639216 0.372549 0.035294
0.662745 0.372549 0.031373
0.686275 0.372549 0.043137
0.701961 0.372549 0.039216
0.721569 0.372549 0.035294
0.749020 0.372549 0.035294
0.764706 0.372549 0.039216
0.792157 0.372549 0.043137
0.815686 0.368627 0.039216
0.839216 0.372549 0.039216
0.854902 0.372549 0.035294
0.882353 0.376471 0.039216
0.039216 0.396078 0.023529
0.062745 0.392157 0.023529
0.090196 0.392157 0.023529
0.117647 0.392157 0.023529
0.152941 0.392157 0.023529
0.180392 0.392157 0.027451
0.207843 0.392157 0.027451
0.231373 0.392157 0.023529
0.258824 0.392157 0.027451
0.290196 0.392157 0.027451
0.317647 0.392157 0.027451
0.345098 0.396078 0.027451
0.360784 0.396078 0.019608
0.388235 0.396078 0.027451
0.415686 0.400000 0.019608
0.439216 0.392157 0.023529
0.466667 0.396078 0.027451
0.498039 0.396078 0.027451
0.513725 0.396078 0.023529
0.541176 0.396078 0.023529
0.556863 0.396078 0.023529
0.584314 0.396078 0.031373
0.603922 0.396078 0.027451
0.619608 0.392157 0.031373
0.643137 0.396078 0.035294
0.666667 0.396078 0.031373
0.682353 0.400000 0.039216
0.705882 0.396078 0.035294
0.721569 0.396078 0.039216
0.749020 0.396078 0.043137
0.764706 0.396078 0.039216
0.796078 0.396078 0.039216
0.811765 0.396078 0.035294
0.839216 0.396078 0.039216
0.854902 0.396078 0.043137
0.882353 0.396078 0.043137
0.039216 0.427451 0.027451
0.062745 0.423529 0.023529
0.090196 0.423529 0.023529
0.117647 0.423529 0.027451
0.152941 0.423529 0.019608
0.180392 0.423529 0.019608
0.207843 0.427451 0.023529
0.231373 0.423529 0.019608
0.258824 0.423529 0.019608
0.286275 0.423529 0.019608
0.317647 0.427451 0.023529
0.345098 0.427451 0.023529
0.368627 0.423529 0.019608
0.388235 0.427451 0.023529
0.415686 0.427451 0.023529
0.443137 0.431373 0.023529
0.466667 0.427451 0.019608
0.494118 0.427451 0.023529
0.513725 0.427451 0.019608
0.541176 0.427451 0.027451
0.556863 0.427451 0.023529
0.584314 0.427451 0.035294
0.603922 0.427451 0.031373
0.623529 0.431373 0.031373
0.643137 0.427451 0.035294
0.666667 0.423529 0.031373
0.686275 0.427451 0.043137
0.701961 0.427451 0.039216
0.721569 0.427451 0.035294
0.749020 0.427451 0.035294
0.764706 0.427451 0.039216
0.792157 0.427451 0.043137
0.811765 0.427451 0.039216
0.839216 0.427451 0.039216
0.854902 0.427451 0.035294
0.882353 0.427451 0.039216
0.039216 0.447059 0.023529
0.062745 0.447059 0.023529
0.090196 0.447059 0.023529
0.121569 0.447059 0.023529
0.149020 0.447059 0.027451
0.176471 0.450980 0.027451
0.211765 0.447059 0.027451
0.231373 0.443137 0.023529
0.262745 0.447059 0.027451
0.290196 0.447059 0.027451
0.317647 0.450980 0.019608
0.345098 0.450980 0.023529
0.368627 0.447059 0.019608
0.396078 0.447059 0.027451
0.419608 0.450980 0.019608
0.447059 0.454902 0.023529
0.462745 0.450980 0.027451
0.498039 0.450980 0.027451
0.513725 0.450980 0.023529
0.541176 0.450980 0.027451
0.560784 0.450980 0.023529
0.580392 0.450980 0.031373
0.603922 0.450980 0.027451
0.627451 0.454902 0.031373
0.643137 0.450980 0.035294
0.666667 0.447059 0.031373
0.682353 0.454902 0.039216
0.705882 0.450980 0.035294
0.721569 0.447059 0.039216
0.749020 0.450980 0.043137
0.768627 0.450980 0.039216
0.796078 0.450980 0.039216
0.811765 0.450980 0.035294
0.839216 0.450980 0.039216
0.858824 0.450980 0.035294
0.886275 0.450980 0.043137
0.035294 0.474510 0.023529
0.066667 0.466667 0.019608
0.094118 0.470588 0.019608
0.121569 0.470588 0.023529
0.149020 0.470588 0.023529
0.176471 0.474510 0.023529
0.203922 0.474510 0.027451
0.227451 0.470588 0.023529
0.262745 0.466667 0.023529
0.290196 0.470588 0.023529
0.317647 0.470588 0.027451
0.345098 0.470588 0.027451
0.368627 0.466667 0.023529
0.392157 0.474510 0.023529
0.423529 0.470588 0.027451
0.447059 0.474510 0.027451
0.462745 0.474510 0.023529
0.490196 0.474510 0.027451
0.513725 0.470588 0.023529
0.537255 0.478431 0.023529
0.560784 0.470588 0.027451
0.580392 0.474510 0.031373
0.600000 0.474510 0.027451
0.627451 0.474510 0.035294
0.643137 0.474510 0.031373
0.662745 0.474510 0.035294
0.682353 0.478431 0.039216
0.705882 0.470588 0.043137
0.721569 0.470588 0.039216
0.749020 0.474510 0.039216
0.768627 0.474510 0.035294
0.788235 0.478431 0.039216
0.811765 0.474510 0.035294
0.839216 0.474510 0.043137
0.858824 0.470588 0.047059
0.878431 0.474510 0.050980
0.035294 0.498039 0.019608
0.066667 0.498039 0.023529
0.094118 0.501961 0.023529
0.121569 0.501961 0.023529
0.152941 0.498039 0.027451
0.176471 0.498039 0.023529
0.207843 0.498039 0.023529
0.235294 0.498039 0.023529
0.262745 0.498039 0.027451
0.290196 0.501961 0.027451
0.313725 0.498039 0.023529
0.341176 0.498039 0.023529
0.368627 0.498039 0.027451
0.396078 0.501961 0.027451
0.423529 0.501961 0.027451
0.447059 0.498039 0.027451
0.470588 0.501961 0.027451
0.494118 0.498039 0.023529
0.513725 0.501961 0.023529
0.541176 0.505882 0.027451
0.560784 0.501961 0.031373
0.588235 0.501961 0.031373
0.603922 0.501961 0.027451
0.623529 0.501961 0.031373
0.639216 0.501961 0.031373
0.666667 0.501961 0.039216
0.682353 0.501961 0.035294
0.705882 0.505882 0.035294
0.721569 0.501961 0.043137
0.749020 0.505882 0.043137
0.768627 0.501961 0.039216
0.792157 0.498039 0.043137
0.811765 0.501961 0.043137
0.835294 0.498039 0.043137
0.858824 0.501961 0.050980
0.882353 0.498039 0.047059
0.031373 0.525490 0.019608
0.058824 0.525490 0.019608
0.086275 0.525490 0.019608
0.113725 0.529412 0.023529
0.149020 0.525490 0.023529
0.176471 0.525490 0.023529
0.200000 0.525490 0.023529
0.227451 0.525490 0.023529
0.254902 0.525490 0.023529
0.286275 0.525490 0.023529
0.313725 0.529412 0.027451
0.337255 0.525490 0.023529
0.364706 0.525490 0.023529
0.392157 0.525490 0.027451
0.419608 0.529412 0.027451
0.443137 0.525490 0.023529
0.470588 0.525490 0.023529
0.494118 0.529412 0.027451
0.521569 0.529412 0.027451
0.537255 0.529412 0.023529
0.560784 0.525490 0.027451
0.584314 0.529412 0.031373
0.600000 0.529412 0.027451
0.619608 0.533333 0.035294
0.643137 0.529412 0.031373
0.666667 0.533333 0.035294
0.682353 0.533333 0.039216
0.705882 0.529412 0.035294
0.729412 0.529412 0.043137
0.745098 0.529412 0.047059
0.768627 0.525490 0.043137
0.792157 0.529412 0.047059
0.811765 0.525490 0.043137
0.843137 0.525490 0.043137
0.858824 0.525490 0.047059
0.878431 0.529412 0.050980
0.039216 0.549020 0.027451
0.062745 0.549020 0.027451
0.090196 0.549020 0.027451
0.117647 0.549020 0.027451
0.145098 0.549020 0.031373
0.172549 0.552941 0.031373
0.200000 0.552941 0.031373
0.231373 0.545098 0.027451
0.258824 0.549020 0.031373
0.286275 0.549020 0.031373
0.313725 0.549020 0.031373
0.341176 0.552941 0.027451
0.364706 0.549020 0.023529
0.392157 0.549020 0.031373
0.419608 0.549020 0.023529
0.443137 0.549020 0.019608
0.466667 0.549020 0.031373
0.494118 0.552941 0.031373
0.513725 0.556863 0.031373
0.537255 0.552941 0.031373
0.556863 0.552941 0.027451
0.584314 0.552941 0.027451
0.600000 0.552941 0.031373
0.623529 0.556863 0.035294
0.639216 0.552941 0.039216
0.666667 0.552941 0.039216
0.686275 0.552941 0.043137
0.701961 0.552941 0.047059
0.729412 0.552941 0.050980
0.745098 0.552941 0.047059
0.764706 0.552941 0.043137
0.792157 0.552941 0.043137
0.815686 0.549020 0.047059
0.835294 0.552941 0.050980
0.854902 0.552941 0.047059
0.882353 0.552941 0.047059
0.027451 0.572549 0.023529
0.054902 0.572549 0.023529
0.082353 0.576471 0.023529
0.109804 0.576471 0.027451
0.145098 0.572549 0.027451
0.172549 0.576471 0.027451
0.196078 0.572549 0.023529
0.223529 0.572549 0.027451
0.250980 0.572549 0.027451
0.282353 0.576471 0.027451
0.309804 0.576471 0.031373
0.333333 0.572549 0.027451
0.360784 0.572549 0.027451
0.388235 0.576471 0.031373
0.415686 0.576471 0.031373
0.439216 0.572549 0.027451
0.466667 0.572549 0.027451
0.494118 0.576471 0.031373
0.513725 0.572549 0.027451
0.533333 0.580392 0.027451
0.556863 0.576471 0.023529
0.584314 0.576471 0.035294
0.600000 0.572549 0.031373
0.623529 0.576471 0.039216
0.639216 0.576471 0.043137
0.666667 0.576471 0.043137
0.686275 0.576471 0.050980
0.701961 0.572549 0.047059
0.725490 0.580392 0.047059
0.749020 0.576471 0.043137
0.764706 0.572549 0.047059
0.792157 0.572549 0.050980
0.811765 0.572549 0.047059
0.839216 0.576471 0.047059
0.854902 0.576471 0.043137
0.882353 0.576471 0.047059
0.027451 0.603922 0.031373
0.050980 0.600000 0.031373
0.078431 0.600000 0.031373
0.105882 0.600000 0.031373
0.141176 0.600000 0.035294
0.168627 0.600000 0.035294
0.196078 0.600000 0.035294
0.223529 0.603922 0.035294
0.247059 0.600000 0.035294
0.274510 0.600000 0.035294
0.301961 0.603922 0.027451
0.333333 0.603922 0.031373
0.352941 0.600000 0.027451
0.384314 0.600000 0.035294
0.411765 0.603922 0.027451
0.439216 0.603922 0.031373
0.462745 0.600000 0.035294
0.490196 0.600000 0.027451
0.517647 0.600000 0.027451
0.533333 0.600000 0.035294
0.556863 0.603922 0.035294
0.584314 0.603922 0.043137
0.600000 0.603922 0.039216
0.623529 0.600000 0.035294
0.647059 0.603922 0.047059
0.662745 0.603922 0.043137
0.682353 0.600000 0.047059
0.709804 0.603922 0.047059
0.725490 0.600000 0.047059
0.749020 0.607843 0.047059
0.768627 0.600000 0.050980
0.788235 0.600000 0.047059
0.815686 0.600000 0.047059
0.843137 0.603922 0.050980
0.858824 0.603922 0.047059
0.878431 0.603922 0.043137
0.019608 0.623529 0.027451
0.047059 0.623529 0.027451
0.074510 0.627451 0.027451
0.101961 0.627451 0.031373
0.137255 0.623529 0.031373
0.164706 0.627451 0.031373
0.188235 0.623529 0.027451
0.215686 0.623529 0.031373
0.243137 0.623529 0.031373
0.270588 0.627451 0.031373
0.298039 0.627451 0.035294
0.321569 0.623529 0.031373
0.356863 0.619608 0.031373
0.376471 0.627451 0.031373
0.411765 0.623529 0.035294
0.427451 0.623529 0.031373
0.454902 0.623529 0.031373
0.486275 0.627451 0.035294
0.513725 0.627451 0.035294
0.537255 0.623529 0.039216
0.556863 0.627451 0.039216
0.576471 0.627451 0.035294
0.603922 0.627451 0.039216
0.619608 0.627451 0.035294
0.643137 0.627451 0.043137
0.662745 0.627451 0.039216
0.682353 0.623529 0.047059
0.701961 0.627451 0.047059
0.725490 0.623529 0.043137
0.749020 0.627451 0.050980
0.764706 0.627451 0.047059
0.788235 0.623529 0.047059
0.815686 0.623529 0.047059
0.839216 0.627451 0.047059
0.862745 0.627451 0.043137
0.878431 0.627451 0.043137
0.019608 0.647059 0.031373
0.047059 0.647059 0.035294
0.074510 0.647059 0.035294
0.101961 0.647059 0.035294
0.129412 0.650980 0.035294
0.152941 0.647059 0.027451
0.180392 0.647059 0.027451
0.215686 0.647059 0.027451
0.243137 0.647059 0.031373
0.270588 0.650980 0.031373
0.294118 0.647059 0.027451
0.321569 0.647059 0.027451
0.349020 0.647059 0.031373
0.380392 0.647059 0.031373
0.407843 0.650980 0.031373
0.431373 0.647059 0.027451
0.450980 0.650980 0.031373
0.478431 0.650980 0.039216
0.501961 0.647059 0.035294
0.529412 0.647059 0.035294
0.552941 0.643137 0.035294
0.576471 0.647059 0.035294
0.596078 0.650980 0.043137
0.619608 0.647059 0.039216
0.643137 0.650980 0.043137
0.666667 0.650980 0.039216
0.682353 0.647059 0.043137
0.705882 0.650980 0.043137
0.721569 0.650980 0.047059
0.749020 0.650980 0.050980
0.768627 0.650980 0.047059
0.788235 0.647059 0.043137
0.811765 0.650980 0.043137
0.839216 0.650980 0.047059
0.854902 0.650980 0.050980
0.878431 0.647059 0.047059
0.019608 0.666667 0.039216
0.047059 0.666667 0.039216
0.070588 0.662745 0.035294
0.098039 0.666667 0.035294
0.125490 0.666667 0.039216
0.156863 0.670588 0.031373
0.188235 0.666667 0.031373
0.215686 0.666667 0.035294
0.239216 0.666667 0.031373
0.266667 0.666667 0.031373
0.298039 0.666667 0.031373
0.325490 0.666667 0.035294
0.352941 0.670588 0.035294
0.376471 0.666667 0.031373
0.403922 0.666667 0.035294
0.431373 0.666667 0.035294
0.447059 0.666667 0.039216
0.474510 0.666667 0.039216
0.509804 0.666667 0.043137
0.529412 0.666667 0.039216
0.556863 0.666667 0.039216
0.584314 0.666667 0.039216
0.600000 0.666667 0.047059
