luts/subtle/oat-milk.cube
TITLE "oat-milk (subtle)"
LUT_3D_SIZE 6
0.043137 0.035294 0.019608
0.223529 0.039216 0.019608
0.419608 0.039216 0.023529
0.584314 0.039216 0.035294
0.717647 0.039216 0.035294
0.874510 0.043137 0.039216
0.039216 0.231373 0.023529
0.227451 0.235294 0.027451
0.415686 0.235294 0.019608
0.584314 0.231373 0.031373
0.725490 0.239216 0.043137
0.874510 0.239216 0.043137
0.039216 0.427451 0.027451
0.231373 0.423529 0.019608
0.415686 0.427451 0.023529
0.584314 0.427451 0.035294
0.721569 0.427451 0.035294
0.882353 0.427451 0.039216
0.027451 0.603922 0.031373
0.223529 0.603922 0.035294
0.411765 0.603922 0.027451
0.584314 0.603922 0.043137
0.725490 0.600000 0.047059
0.878431 0.603922 0.043137
0.007843 0.756863 0.039216
0.200000 0.764706 0.035294
0.396078 0.760784 0.047059
0.572549 0.756863 0.043137
0.729412 0.764706 0.047059
0.878431 0.764706 0.043137
0.011765 0.909804 0.043137
0.207843 0.909804 0.047059
0.392157 0.917647 0.043137
0.568627 0.913725 0.047059
0.729412 0.917647 0.050980
0.882353 0.917647 0.047059
0.039216 0.039216 0.215686
0.227451 0.039216 0.207843
0.415686 0.043137 0.211765
0.588235 0.039216 0.223529
0.713725 0.043137 0.231373
0.878431 0.043137 0.235294
0.035294 0.235294 0.211765
0.231373 0.235294 0.223529
0.403922 0.231373 0.227451
0.564706 0.235294 0.239216
0.729412 0.239216 0.231373
0.874510 0.239216 0.239216
0.031373 0.423529 0.219608
0.211765 0.423529 0.227451
0.407843 0.423529 0.231373
0.564706 0.427451 0.235294
0.725490 0.427451 0.231373
0.882353 0.431373 0.235294
0.023529 0.603922 0.231373
0.200000 0.600000 0.231373
0.392157 0.603922 0.235294
0.568627 0.600000 0.231373
0.721569 0.603922 0.235294
0.882353 0.603922 0.231373
0.011765 0.756863 0.239216
0.203922 0.760784 0.235294
0.392157 0.764706 0.239216
0.568627 0.760784 0.231373
0.725490 0.768627 0.235294
0.882353 0.764706 0.243137
0.007843 0.913725 0.235294
0.207843 0.913725 0.239216
0.396078 0.917647 0.235294
0.564706 0.917647 0.243137
0.729412 0.917647 0.247059
0.882353 0.917647 0.247059
0.035294 0.035294 0.403922
0.223529 0.039216 0.407843
0.423529 0.043137 0.403922
0.584314 0.043137 0.411765
0.717647 0.043137 0.423529
0.870588 0.043137 0.419608
0.039216 0.235294 0.411765
0.219608 0.235294 0.415686
0.400000 0.239216 0.407843
0.560784 0.239216 0.419608
0.721569 0.235294 0.427451
0.878431 0.239216 0.427451
0.035294 0.423529 0.400000
0.215686 0.423529 0.407843
0.396078 0.423529 0.431373
0.564706 0.431373 0.431373
0.721569 0.427451 0.427451
0.882353 0.423529 0.427451
0.023529 0.600000 0.415686
0.200000 0.600000 0.431373
0.396078 0.603922 0.427451
0.572549 0.600000 0.427451
0.725490 0.603922 0.431373
0.878431 0.603922 0.427451
0.007843 0.760784 0.427451
0.200000 0.764706 0.431373
0.392157 0.760784 0.423529
0.572549 0.760784 0.427451
0.729412 0.756863 0.427451
0.882353 0.764706 0.431373
0.011765 0.913725 0.431373
0.211765 0.913725 0.427451
0.396078 0.921569 0.431373
0.568627 0.917647 0.427451
0.733333 0.921569 0.427451
0.878431 0.925490 0.427451
0.027451 0.035294 0.588235
0.219608 0.039216 0.592157
0.407843 0.043137 0.588235
0.584314 0.039216 0.588235
0.729412 0.043137 0.596078
0.874510 0.047059 0.592157
0.023529 0.231373 0.588235
0.203922 0.231373 0.596078
0.388235 0.239216 0.600000
0.560784 0.235294 0.596078
0.725490 0.239216 0.600000
0.882353 0.235294 0.596078
0.023529 0.427451 0.584314
0.203922 0.423529 0.600000
0.388235 0.423529 0.592157
0.564706 0.427451 0.600000
0.721569 0.427451 0.588235
0.886275 0.427451 0.607843
0.035294 0.600000 0.588235
0.203922 0.607843 0.596078
0.396078 0.600000 0.596078
0.576471 0.600000 0.607843
0.725490 0.603922 0.600000
0.878431 0.603922 0.596078
0.007843 0.760784 0.596078
0.200000 0.760784 0.600000
0.396078 0.760784 0.603922
0.564706 0.760784 0.603922
0.729412 0.764706 0.600000
0.882353 0.764706 0.607843
0.011765 0.917647 0.603922
0.203922 0.913725 0.603922
0.396078 0.917647 0.607843
0.568627 0.913725 0.603922
0.733333 0.917647 0.603922
0.886275 0.917647 0.603922
0.003922 0.039216 0.749020
0.192157 0.043137 0.745098
0.392157 0.043137 0.756863
0.564706 0.039216 0.752941
0.729412 0.043137 0.756863
0.874510 0.047059 0.752941
0.003922 0.231373 0.752941
0.200000 0.231373 0.756863
0.388235 0.239216 0.760784
0.560784 0.235294 0.756863
0.725490 0.239216 0.760784
0.882353 0.235294 0.756863
0.007843 0.423529 0.756863
0.203922 0.423529 0.760784
0.388235 0.427451 0.752941
0.564706 0.427451 0.760784
0.725490 0.431373 0.764706
0.886275 0.427451 0.760784
0.011765 0.600000 0.760784
0.200000 0.607843 0.756863
0.396078 0.600000 0.752941
0.572549 0.600000 0.760784
0.725490 0.603922 0.752941
0.878431 0.603922 0.749020
0.007843 0.760784 0.756863
0.203922 0.760784 0.760784
0.396078 0.764706 0.756863
0.572549 0.760784 0.756863
0.733333 0.760784 0.768627
0.882353 0.764706 0.768627
0.015686 0.917647 0.756863
0.207843 0.913725 0.756863
0.392157 0.917647 0.768627
0.572549 0.921569 0.768627
0.733333 0.917647 0.764706
0.882353 0.917647 0.764706
0.007843 0.039216 0.901961
0.200000 0.039216 0.905882
0.384314 0.039216 0.905882
0.564706 0.043137 0.905882
0.729412 0.043137 0.909804
0.874510 0.047059 0.913725
0.003922 0.235294 0.905882
0.200000 0.235294 0.901961
0.392157 0.239216 0.905882
0.560784 0.239216 0.909804
0.725490 0.239216 0.913725
0.882353 0.235294 0.909804
0.003922 0.427451 0.909804
0.203922 0.427451 0.913725
0.396078 0.423529 0.913725
0.560784 0.431373 0.913725
0.721569 0.427451 0.909804
0.882353 0.431373 0.913725
0.015686 0.600000 0.913725
0.196078 0.600000 0.909804
0.392157 0.600000 0.913725
0.572549 0.603922 0.913725
0.725490 0.603922 0.913725
0.878431 0.603922 0.909804
0.007843 0.760784 0.917647
0.203922 0.760784 0.913725
0.396078 0.764706 0.917647
0.572549 0.760784 0.909804
0.733333 0.764706 0.913725
0.878431 0.768627 0.913725
0.011765 0.913725 0.913725
0.207843 0.913725 0.909804
0.392157 0.921569 0.913725
0.568627 0.917647 0.913725
0.733333 0.921569 0.909804
0.890196 0.917647 0.917647
