luts/subtle/popsicle.cube
TITLE "popsicle (subtle)"
LUT_3D_SIZE 36
0.023529 0.023529 0.023529
0.031373 0.019608 0.019608
0.062745 0.019608 0.019608
0.086275 0.019608 0.019608
0.117647 0.019608 0.019608
0.145098 0.019608 0.019608
0.176471 0.019608 0.019608
0.207843 0.019608 0.019608
0.235294 0.019608 0.019608
0.270588 0.019608 0.019608
0.305882 0.015686 0.015686
0.333333 0.015686 0.015686
0.360784 0.015686 0.015686
0.388235 0.015686 0.015686
0.427451 0.015686 0.015686
0.454902 0.015686 0.015686
0.486275 0.011765 0.011765
0.517647 0.011765 0.011765
0.552941 0.011765 0.011765
0.580392 0.015686 0.011765
0.607843 0.015686 0.011765
0.635294 0.015686 0.011765
0.666667 0.011765 0.007843
0.698039 0.015686 0.007843
0.729412 0.015686 0.007843
0.760784 0.015686 0.007843
0.792157 0.019608 0.007843
0.819608 0.015686 0.003922
0.862745 0.015686 0.003922
0.890196 0.015686 0.003922
0.921569 0.015686 0.003922
0.952941 0.011765 0.000000
0.984314 0.011765 0.000000
1.000000 0.011765 0.000000
1.000000 0.011765 0.000000
1.000000 0.011765 0.000000
0.019608 0.035294 0.019608
0.035294 0.027451 0.019608
0.062745 0.027451 0.019608
0.090196 0.027451 0.019608
0.117647 0.027451 0.019608
0.145098 0.031373 0.019608
0.172549 0.031373 0.019608
0.211765 0.031373 0.019608
0.239216 0.031373 0.019608
0.270588 0.031373 0.015686
0.298039 0.035294 0.015686
0.333333 0.027451 0.015686
0.360784 0.027451 0.015686
0.392157 0.031373 0.015686
0.423529 0.031373 0.015686
0.454902 0.031373 0.011765
0.482353 0.027451 0.011765
0.509804 0.027451 0.011765
0.545098 0.023529 0.011765
0.576471 0.027451 0.011765
0.603922 0.031373 0.007843
0.639216 0.031373 0.007843
0.670588 0.027451 0.007843
0.698039 0.027451 0.007843
0.729412 0.027451 0.007843
0.756863 0.027451 0.007843
0.792157 0.039216 0.003922
0.831373 0.031373 0.003922
0.862745 0.035294 0.003922
0.886275 0.035294 0.000000
0.917647 0.035294 0.000000
0.945098 0.031373 0.000000
0.984314 0.027451 0.000000
1.000000 0.031373 0.000000
1.000000 0.031373 0.000000
1.000000 0.031373 0.000000
0.019608 0.058824 0.019608
0.031373 0.058824 0.019608
0.062745 0.062745 0.019608
0.086275 0.054902 0.019608
0.121569 0.054902 0.019608
0.149020 0.054902 0.019608
0.180392 0.058824 0.015686
0.211765 0.062745 0.015686
0.239216 0.062745 0.015686
0.266667 0.062745 0.015686
0.298039 0.066667 0.015686
0.329412 0.062745 0.015686
0.356863 0.054902 0.015686
0.388235 0.054902 0.011765
0.423529 0.054902 0.011765
0.454902 0.054902 0.011765
0.482353 0.054902 0.011765
0.513725 0.058824 0.011765
0.545098 0.054902 0.007843
0.572549 0.058824 0.007843
0.603922 0.054902 0.007843
0.635294 0.054902 0.007843
0.662745 0.058824 0.007843
0.694118 0.058824 0.003922
0.733333 0.062745 0.003922
0.764706 0.062745 0.003922
0.792157 0.066667 0.003922
0.819608 0.062745 0.000000
0.850980 0.058824 0.000000
0.886275 0.058824 0.000000
0.917647 0.058824 0.000000
0.949020 0.058824 0.000000
0.984314 0.058824 0.000000
1.000000 0.058824 0.000000
1.000000 0.058824 0.000000
1.000000 0.058824 0.000000
0.019608 0.090196 0.019608
0.023529 0.086275 0.019608
0.050980 0.086275 0.019608
0.090196 0.086275 0.019608
0.117647 0.086275 0.015686
0.149020 0.090196 0.015686
0.180392 0.090196 0.015686
0.211765 0.090196 0.015686
0.239216 0.086275 0.015686
0.266667 0.086275 0.015686
0.301961 0.086275 0.011765
0.325490 0.090196 0.011765
0.356863 0.090196 0.011765
0.392157 0.082353 0.011765
0.423529 0.086275 0.011765
0.450980 0.086275 0.011765
0.478431 0.082353 0.007843
0.505882 0.082353 0.007843
0.545098 0.082353 0.007843
0.576471 0.082353 0.007843
0.600000 0.086275 0.007843
0.631373 0.086275 0.003922
0.674510 0.090196 0.003922
0.701961 0.090196 0.003922
0.729412 0.086275 0.003922
0.756863 0.086275 0.000000
0.788235 0.094118 0.000000
0.819608 0.094118 0.000000
0.858824 0.090196 0.000000
0.882353 0.090196 0.000000
0.913725 0.090196 0.000000
0.941176 0.090196 0.000000
0.980392 0.086275 0.000000
1.000000 0.082353 0.000000
1.000000 0.086275 0.000000
1.000000 0.086275 0.000000
0.015686 0.117647 0.015686
0.019608 0.113725 0.015686
0.054902 0.121569 0.015686
0.090196 0.117647 0.015686
0.117647 0.121569 0.015686
0.145098 0.121569 0.015686
0.176471 0.117647 0.015686
0.211765 0.117647 0.015686
0.239216 0.117647 0.011765
0.266667 0.113725 0.011765
0.294118 0.113725 0.011765
0.325490 0.117647 0.011765
0.356863 0.113725 0.011765
0.388235 0.113725 0.011765
0.419608 0.113725 0.007843
0.450980 0.113725 0.007843
0.474510 0.109804 0.007843
0.505882 0.113725 0.007843
0.541176 0.109804 0.007843
0.572549 0.109804 0.003922
0.603922 0.117647 0.003922
0.643137 0.113725 0.003922
0.674510 0.117647 0.000000
0.701961 0.121569 0.000000
0.729412 0.117647 0.000000
0.756863 0.113725 0.000000
0.784314 0.121569 0.000000
0.815686 0.121569 0.000000
0.854902 0.121569 0.000000
0.882353 0.121569 0.000000
0.913725 0.117647 0.000000
0.937255 0.113725 0.000000
0.980392 0.113725 0.000000
1.000000 0.113725 0.000000
1.000000 0.109804 0.000000
1.000000 0.113725 0.000000
0.015686 0.145098 0.015686
0.031373 0.145098 0.015686
0.062745 0.149020 0.015686
0.090196 0.149020 0.015686
0.113725 0.149020 0.015686
0.149020 0.145098 0.015686
0.176471 0.145098 0.011765
0.203922 0.141176 0.011765
0.235294 0.145098 0.011765
0.262745 0.145098 0.011765
0.294118 0.145098 0.011765
0.325490 0.145098 0.007843
0.352941 0.141176 0.007843
0.380392 0.141176 0.007843
0.419608 0.141176 0.007843
0.450980 0.137255 0.007843
0.478431 0.137255 0.007843
0.509804 0.141176 0.003922
0.541176 0.145098 0.003922
0.576471 0.145098 0.003922
0.596078 0.149020 0.003922
0.631373 0.141176 0.000000
0.662745 0.141176 0.000000
0.694118 0.149020 0.000000
0.725490 0.149020 0.000000
0.756863 0.145098 0.000000
0.788235 0.149020 0.000000
0.815686 0.145098 0.000000
0.854902 0.152941 0.000000
0.874510 0.149020 0.000000
0.909804 0.145098 0.000000
0.941176 0.141176 0.000000
0.976471 0.145098 0.000000
1.000000 0.145098 0.000000
1.000000 0.145098 0.000000
1.000000 0.141176 0.000000
0.015686 0.176471 0.015686
0.027451 0.172549 0.015686
0.054902 0.176471 0.011765
0.082353 0.176471 0.011765
0.113725 0.172549 0.011765
0.145098 0.176471 0.011765
0.176471 0.176471 0.011765
0.207843 0.172549 0.011765
0.243137 0.172549 0.011765
0.266667 0.168627 0.011765
0.298039 0.168627 0.007843
0.321569 0.168627 0.007843
0.349020 0.172549 0.007843
0.380392 0.172549 0.007843
0.419608 0.172549 0.003922
0.447059 0.172549 0.003922
0.474510 0.164706 0.003922
0.505882 0.172549 0.003922
0.545098 0.168627 0.003922
0.576471 0.168627 0.000000
0.600000 0.176471 0.000000
0.631373 0.176471 0.000000
0.658824 0.172549 0.000000
0.698039 0.176471 0.000000
0.725490 0.172549 0.000000
0.752941 0.172549 0.000000
0.780392 0.180392 0.000000
0.811765 0.176471 0.000000
0.850980 0.176471 0.000000
0.878431 0.176471 0.000000
0.909804 0.176471 0.000000
0.933333 0.172549 0.000000
0.980392 0.172549 0.000000
1.000000 0.168627 0.000000
1.000000 0.172549 0.000000
1.000000 0.176471 0.000000
0.011765 0.207843 0.011765
0.027451 0.207843 0.011765
0.054902 0.207843 0.011765
0.082353 0.207843 0.011765
0.113725 0.203922 0.011765
0.141176 0.207843 0.011765
0.172549 0.207843 0.011765
0.207843 0.203922 0.007843
0.235294 0.207843 0.007843
0.262745 0.203922 0.007843
0.290196 0.200000 0.007843
0.317647 0.203922 0.007843
0.349020 0.203922 0.003922
0.384314 0.200000 0.003922
0.419608 0.207843 0.003922
0.450980 0.207843 0.003922
0.478431 0.207843 0.000000
0.505882 0.203922 0.000000
0.541176 0.200000 0.000000
0.572549 0.200000 0.000000
0.600000 0.207843 0.000000
0.627451 0.207843 0.000000
0.666667 0.207843 0.000000
0.698039 0.207843 0.000000
0.721569 0.203922 0.000000
0.749020 0.203922 0.000000
0.780392 0.211765 0.000000
0.807843 0.211765 0.000000
0.850980 0.203922 0.000000
0.874510 0.207843 0.000000
0.905882 0.207843 0.000000
0.933333 0.203922 0.000000
0.980392 0.211765 0.000000
1.000000 0.203922 0.000000
1.000000 0.203922 0.000000
1.000000 0.207843 0.000000
0.011765 0.235294 0.011765
0.027451 0.235294 0.011765
0.054902 0.235294 0.011765
0.086275 0.235294 0.007843
0.109804 0.235294 0.007843
0.133333 0.231373 0.007843
0.172549 0.231373 0.007843
0.200000 0.231373 0.007843
0.231373 0.231373 0.007843
0.258824 0.235294 0.007843
0.290196 0.235294 0.003922
0.321569 0.231373 0.003922
0.356863 0.235294 0.003922
0.380392 0.231373 0.003922
0.407843 0.235294 0.003922
0.447059 0.231373 0.000000
0.478431 0.231373 0.000000
0.501961 0.235294 0.000000
0.537255 0.235294 0.000000
0.572549 0.231373 0.000000
0.592157 0.231373 0.000000
0.631373 0.235294 0.000000
0.654902 0.231373 0.000000
0.690196 0.239216 0.000000
0.721569 0.235294 0.000000
0.752941 0.231373 0.000000
0.780392 0.239216 0.000000
0.815686 0.239216 0.000000
0.847059 0.239216 0.000000
0.870588 0.235294 0.000000
0.901961 0.239216 0.000000
0.933333 0.239216 0.000000
0.972549 0.239216 0.000000
1.000000 0.239216 0.000000
1.000000 0.239216 0.000000
1.000000 0.235294 0.000000
0.007843 0.266667 0.007843
0.023529 0.266667 0.007843
0.050980 0.262745 0.007843
0.078431 0.266667 0.007843
0.113725 0.258824 0.007843
0.141176 0.258824 0.007843
0.172549 0.262745 0.007843
0.200000 0.262745 0.007843
0.235294 0.262745 0.003922
0.262745 0.258824 0.003922
0.290196 0.258824 0.003922
0.321569 0.266667 0.003922
0.349020 0.266667 0.003922
0.380392 0.262745 0.000000
0.415686 0.262745 0.000000
0.447059 0.262745 0.000000
0.474510 0.262745 0.000000
0.501961 0.258824 0.000000
0.541176 0.258824 0.000000
0.568627 0.254902 0.000000
0.596078 0.258824 0.000000
0.623529 0.262745 0.000000
0.654902 0.262745 0.000000
0.682353 0.270588 0.000000
0.717647 0.262745 0.000000
0.749020 0.262745 0.000000
0.776471 0.262745 0.000000
0.803922 0.266667 0.000000
0.850980 0.266667 0.000000
0.874510 0.270588 0.000000
0.905882 0.270588 0.000000
0.941176 0.266667 0.000000
0.972549 0.266667 0.000000
0.996078 0.266667 0.000000
1.000000 0.262745 0.000000
1.000000 0.262745 0.000000
0.007843 0.290196 0.007843
0.023529 0.290196 0.007843
0.054902 0.290196 0.007843
0.082353 0.294118 0.007843
0.105882 0.294118 0.003922
0.141176 0.290196 0.003922
0.160784 0.286275 0.003922
0.200000 0.286275 0.003922
0.227451 0.286275 0.003922
0.262745 0.294118 0.003922
0.294118 0.294118 0.003922
0.321569 0.294118 0.000000
0.356863 0.294118 0.000000
0.376471 0.290196 0.000000
0.411765 0.286275 0.000000
0.439216 0.290196 0.000000
0.470588 0.290196 0.000000
0.501961 0.286275 0.000000
0.537255 0.290196 0.000000
0.568627 0.290196 0.000000
0.592157 0.294118 0.000000
0.631373 0.290196 0.000000
0.658824 0.286275 0.000000
0.686275 0.290196 0.000000
0.717647 0.294118 0.000000
0.741176 0.294118 0.000000
0.784314 0.298039 0.000000
0.815686 0.298039 0.000000
0.847059 0.298039 0.000000
0.870588 0.294118 0.000000
0.898039 0.298039 0.000000
0.929412 0.298039 0.000000
0.968627 0.294118 0.000000
1.000000 0.294118 0.000000
1.000000 0.294118 0.000000
1.000000 0.294118 0.000000
0.003922 0.317647 0.003922
0.023529 0.317647 0.003922
0.050980 0.317647 0.003922
0.078431 0.321569 0.003922
0.105882 0.321569 0.003922
0.133333 0.321569 0.003922
0.160784 0.321569 0.003922
0.200000 0.317647 0.003922
0.231373 0.321569 0.000000
0.258824 0.321569 0.000000
0.290196 0.321569 0.000000
0.321569 0.321569 0.000000
0.349020 0.321569 0.000000
0.376471 0.317647 0.000000
0.411765 0.321569 0.000000
0.439216 0.313725 0.000000
0.470588 0.313725 0.000000
0.498039 0.317647 0.000000
0.537255 0.317647 0.000000
0.564706 0.317647 0.000000
0.592157 0.321569 0.000000
0.623529 0.321569 0.000000
0.650980 0.313725 0.000000
0.686275 0.317647 0.000000
0.717647 0.325490 0.000000
0.745098 0.325490 0.000000
0.784314 0.329412 0.000000
0.815686 0.329412 0.000000
0.843137 0.329412 0.000000
0.870588 0.329412 0.000000
0.898039 0.325490 0.000000
0.925490 0.325490 0.000000
0.968627 0.325490 0.000000
0.996078 0.321569 0.000000
1.000000 0.321569 0.000000
1.000000 0.321569 0.000000
0.003922 0.349020 0.003922
0.019608 0.349020 0.003922
0.047059 0.345098 0.003922
0.074510 0.345098 0.003922
0.105882 0.345098 0.000000
0.141176 0.352941 0.000000
0.168627 0.352941 0.000000
0.200000 0.352941 0.000000
0.227451 0.349020 0.000000
0.266667 0.349020 0.000000
0.290196 0.345098 0.000000
0.317647 0.345098 0.000000
0.345098 0.349020 0.000000
0.372549 0.349020 0.000000
0.411765 0.345098 0.000000
0.439216 0.349020 0.000000
0.470588 0.345098 0.000000
0.498039 0.341176 0.000000
0.537255 0.345098 0.000000
0.564706 0.341176 0.000000
0.588235 0.341176 0.000000
0.619608 0.349020 0.000000
0.650980 0.352941 0.000000
0.686275 0.352941 0.000000
0.717647 0.356863 0.000000
0.749020 0.352941 0.000000
0.772549 0.349020 0.000000
0.803922 0.356863 0.000000
0.843137 0.352941 0.000000
0.866667 0.352941 0.000000
0.898039 0.352941 0.000000
0.933333 0.352941 0.000000
0.964706 0.356863 0.000000
0.992157 0.352941 0.000000
1.000000 0.349020 0.000000
1.000000 0.345098 0.000000
0.000000 0.376471 0.000000
0.007843 0.380392 0.000000
0.047059 0.372549 0.000000
0.082353 0.376471 0.000000
0.109804 0.380392 0.000000
0.137255 0.380392 0.000000
0.164706 0.380392 0.000000
0.196078 0.376471 0.000000
0.231373 0.376471 0.000000
0.258824 0.380392 0.000000
0.290196 0.376471 0.000000
0.317647 0.372549 0.000000
0.352941 0.376471 0.000000
0.380392 0.376471 0.000000
0.411765 0.376471 0.000000
0.435294 0.376471 0.000000
0.462745 0.376471 0.000000
0.494118 0.376471 0.000000
0.533333 0.372549 0.000000
0.560784 0.372549 0.000000
0.592157 0.380392 0.000000
0.631373 0.380392 0.000000
0.654902 0.376471 0.000000
0.686275 0.380392 0.000000
0.713725 0.380392 0.000000
0.741176 0.380392 0.000000
0.772549 0.380392 0.000000
0.800000 0.384314 0.000000
0.839216 0.384314 0.000000
0.866667 0.388235 0.000000
0.894118 0.380392 0.000000
0.921569 0.380392 0.000000
0.960784 0.376471 0.000000
0.992157 0.380392 0.000000
1.000000 0.380392 0.000000
1.000000 0.376471 0.000000
0.000000 0.411765 0.000000
0.019608 0.411765 0.000000
0.050980 0.411765 0.000000
0.078431 0.411765 0.000000
0.101961 0.411765 0.000000
0.137255 0.411765 0.000000
0.160784 0.407843 0.000000
0.200000 0.411765 0.000000
0.223529 0.407843 0.000000
0.254902 0.407843 0.000000
0.286275 0.411765 0.000000
0.317647 0.407843 0.000000
0.345098 0.407843 0.000000
0.380392 0.407843 0.000000
0.407843 0.407843 0.000000
0.431373 0.407843 0.000000
0.462745 0.407843 0.000000
0.494118 0.407843 0.000000
0.533333 0.411765 0.000000
0.564706 0.407843 0.000000
0.588235 0.407843 0.000000
0.627451 0.411765 0.000000
0.658824 0.411765 0.000000
0.682353 0.411765 0.000000
0.713725 0.411765 0.000000
0.737255 0.415686 0.000000
0.768627 0.411765 0.000000
0.807843 0.415686 0.000000
0.839216 0.415686 0.000000
0.862745 0.415686 0.000000
0.890196 0.415686 0.000000
0.921569 0.411765 0.000000
0.960784 0.407843 0.000000
0.992157 0.411765 0.000000
1.000000 0.411765 0.000000
1.000000 0.415686 0.000000
0.000000 0.443137 0.000000
0.015686 0.443137 0.000000
0.047059 0.443137 0.000000
0.070588 0.439216 0.000000
0.105882 0.439216 0.000000
0.133333 0.435294 0.000000
0.164706 0.435294 0.000000
0.192157 0.439216 0.000000
0.223529 0.439216 0.000000
0.250980 0.439216 0.000000
0.286275 0.435294 0.000000
0.309804 0.435294 0.000000
0.341176 0.439216 0.000000
0.368627 0.435294 0.000000
0.407843 0.431373 0.000000
0.435294 0.435294 0.000000
0.470588 0.439216 0.000000
0.494118 0.439216 0.000000
0.533333 0.443137 0.000000
0.556863 0.439216 0.000000
0.588235 0.431373 0.000000
0.615686 0.435294 0.000000
0.650980 0.439216 0.000000
0.682353 0.443137 0.000000
0.709804 0.447059 0.000000
0.741176 0.443137 0.000000
0.768627 0.439216 0.000000
0.800000 0.443137 0.000000
0.831373 0.443137 0.000000
0.862745 0.439216 0.000000
0.894118 0.443137 0.000000
0.925490 0.443137 0.000000
0.956863 0.439216 0.000000
0.988235 0.439216 0.000000
1.000000 0.439216 0.000000
1.000000 0.443137 0.000000
0.000000 0.466667 0.000000
0.011765 0.470588 0.000000
0.039216 0.470588 0.000000
0.078431 0.470588 0.000000
0.101961 0.470588 0.000000
0.133333 0.470588 0.000000
0.160784 0.470588 0.000000
0.200000 0.466667 0.000000
0.223529 0.462745 0.000000
0.254902 0.462745 0.000000
0.282353 0.466667 0.000000
0.309804 0.466667 0.000000
0.345098 0.466667 0.000000
0.376471 0.466667 0.000000
0.407843 0.466667 0.000000
0.435294 0.462745 0.000000
0.462745 0.466667 0.000000
0.490196 0.466667 0.000000
0.529412 0.466667 0.000000
0.560784 0.466667 0.000000
0.584314 0.466667 0.000000
0.623529 0.470588 0.000000
0.654902 0.466667 0.000000
0.678431 0.462745 0.000000
0.709804 0.470588 0.000000
0.733333 0.470588 0.000000
0.764706 0.470588 0.000000
0.796078 0.474510 0.000000
0.835294 0.470588 0.000000
0.858824 0.470588 0.000000
0.886275 0.466667 0.000000
0.917647 0.470588 0.000000
0.956863 0.466667 0.000000
0.984314 0.474510 0.000000
1.000000 0.470588 0.000000
1.000000 0.470588 0.000000
0.000000 0.494118 0.000000
0.011765 0.494118 0.000000
0.043137 0.494118 0.000000
0.066667 0.494118 0.000000
0.094118 0.494118 0.000000
0.129412 0.494118 0.000000
0.160784 0.494118 0.000000
0.188235 0.494118 0.000000
0.219608 0.490196 0.000000
0.250980 0.490196 0.000000
0.282353 0.490196 0.000000
0.309804 0.490196 0.000000
0.337255 0.490196 0.000000
0.372549 0.494118 0.000000
0.407843 0.490196 0.000000
0.435294 0.490196 0.000000
0.470588 0.490196 0.000000
0.494118 0.490196 0.000000
0.529412 0.490196 0.000000
0.552941 0.490196 0.000000
0.580392 0.490196 0.000000
0.619608 0.490196 0.000000
0.647059 0.494118 0.000000
0.678431 0.490196 0.000000
0.705882 0.498039 0.000000
0.741176 0.494118 0.000000
0.772549 0.494118 0.000000
0.796078 0.494118 0.000000
0.827451 0.498039 0.000000
0.854902 0.494118 0.000000
0.882353 0.494118 0.000000
0.925490 0.498039 0.000000
0.956863 0.498039 0.000000
0.984314 0.498039 0.000000
1.000000 0.498039 0.000000
1.000000 0.490196 0.000000
0.000000 0.529412 0.000000
0.011765 0.533333 0.000000
0.039216 0.533333 0.000000
0.066667 0.525490 0.000000
0.098039 0.525490 0.000000
0.129412 0.525490 0.000000
0.156863 0.525490 0.000000
0.188235 0.529412 0.000000
0.215686 0.529412 0.000000
0.247059 0.529412 0.000000
0.282353 0.533333 0.000000
0.313725 0.529412 0.000000
0.337255 0.525490 0.000000
0.368627 0.529412 0.000000
0.403922 0.525490 0.000000
0.435294 0.525490 0.000000
0.462745 0.529412 0.000000
0.494118 0.525490 0.000000
0.525490 0.529412 0.000000
0.552941 0.525490 0.000000
0.576471 0.525490 0.000000
0.611765 0.529412 0.000000
0.647059 0.529412 0.000000
0.674510 0.529412 0.000000
0.705882 0.533333 0.000000
0.733333 0.529412 0.000000
0.768627 0.529412 0.000000
0.796078 0.529412 0.000000
0.823529 0.533333 0.000000
0.854902 0.537255 0.000000
0.894118 0.529412 0.000000
0.925490 0.533333 0.000000
0.952941 0.533333 0.000000
0.980392 0.537255 0.000000
1.000000 0.533333 0.000000
1.000000 0.533333 0.000000
0.000000 0.560784 0.000000
0.003922 0.556863 0.000000
0.035294 0.560784 0.000000
0.062745 0.560784 0.000000
0.098039 0.552941 0.000000
0.125490 0.556863 0.000000
0.156863 0.556863 0.000000
0.192157 0.556863 0.000000
0.219608 0.552941 0.000000
0.250980 0.556863 0.000000
0.282353 0.560784 0.000000
0.305882 0.560784 0.000000
0.337255 0.556863 0.000000
0.364706 0.560784 0.000000
0.403922 0.556863 0.000000
0.431373 0.556863 0.000000
0.458824 0.552941 0.000000
0.482353 0.556863 0.000000
0.525490 0.556863 0.000000
0.552941 0.552941 0.000000
0.580392 0.552941 0.000000
0.607843 0.556863 0.000000
0.639216 0.560784 0.000000
0.674510 0.552941 0.000000
0.701961 0.556863 0.000000
0.729412 0.560784 0.000000
0.756863 0.556863 0.000000
0.796078 0.564706 0.000000
0.831373 0.564706 0.000000
0.858824 0.564706 0.000000
0.890196 0.564706 0.000000
0.913725 0.564706 0.000000
0.952941 0.556863 0.000000
0.980392 0.560784 0.000000
1.000000 0.560784 0.000000
1.000000 0.560784 0.000000
0.000000 0.580392 0.000000
0.007843 0.580392 0.000000
0.035294 0.584314 0.000000
0.062745 0.580392 0.000000
0.094118 0.584314 0.000000
0.121569 0.580392 0.000000
0.152941 0.576471 0.000000
0.188235 0.584314 0.000000
0.219608 0.584314 0.000000
0.250980 0.584314 0.000000
0.278431 0.588235 0.000000
0.313725 0.584314 0.000000
0.337255 0.580392 0.000000
0.368627 0.576471 0.000000
0.396078 0.580392 0.000000
0.431373 0.576471 0.000000
0.462745 0.580392 0.000000
0.490196 0.580392 0.000000
0.521569 0.580392 0.000000
0.552941 0.584314 0.000000
0.572549 0.576471 0.000000
0.611765 0.576471 0.000000
0.643137 0.580392 0.000000
0.670588 0.580392 0.000000
0.701961 0.584314 0.000000
0.741176 0.588235 0.000000
0.768627 0.588235 0.000000
0.796078 0.584314 0.000000
0.823529 0.584314 0.000000
0.850980 0.588235 0.000000
0.882353 0.588235 0.000000
0.909804 0.592157 0.000000
0.949020 0.588235 0.000000
0.976471 0.584314 0.000000
1.000000 0.588235 0.000000
1.000000 0.584314 0.000000
0.000000 0.615686 0.000000
0.003922 0.619608 0.000000
0.031373 0.619608 0.000000
0.062745 0.619608 0.000000
0.094118 0.627451 0.000000
0.125490 0.619608 0.000000
0.156863 0.619608 0.000000
0.184314 0.623529 0.000000
0.211765 0.619608 0.000000
0.247059 0.619608 0.000000
0.278431 0.619608 0.000000
0.305882 0.619608 0.000000
0.333333 0.615686 0.000000
0.364706 0.615686 0.000000
0.396078 0.619608 0.000000
0.427451 0.611765 0.000000
0.458824 0.615686 0.000000
0.486275 0.615686 0.000000
0.521569 0.615686 0.000000
0.549020 0.619608 0.000000
0.572549 0.615686 0.000000
0.607843 0.611765 0.000000
0.639216 0.607843 0.000000
0.674510 0.615686 0.000000
0.701961 0.619608 0.000000
0.737255 0.619608 0.000000
0.768627 0.619608 0.000000
0.792157 0.619608 0.000000
0.827451 0.627451 0.000000
0.847059 0.619608 0.000000
0.878431 0.619608 0.000000
0.917647 0.619608 0.000000
0.949020 0.619608 0.000000
0.972549 0.619608 0.000000
1.000000 0.623529 0.000000
1.000000 0.615686 0.000000
0.000000 0.650980 0.000000
0.000000 0.647059 0.000000
0.027451 0.650980 0.000000
0.058824 0.650980 0.000000
0.094118 0.650980 0.000000
0.121569 0.650980 0.000000
0.152941 0.650980 0.000000
0.192157 0.650980 0.000000
0.219608 0.650980 0.000000
0.247059 0.643137 0.000000
0.274510 0.643137 0.000000
0.298039 0.647059 0.000000
0.329412 0.647059 0.000000
0.360784 0.647059 0.000000
0.396078 0.647059 0.000000
0.427451 0.647059 0.000000
0.450980 0.639216 0.000000
0.478431 0.643137 0.000000
0.521569 0.639216 0.000000
0.549020 0.643137 0.000000
0.572549 0.643137 0.000000
0.611765 0.647059 0.000000
0.643137 0.650980 0.000000
0.670588 0.647059 0.000000
0.701961 0.643137 0.000000
0.725490 0.647059 0.000000
0.760784 0.647059 0.000000
0.792157 0.650980 0.000000
0.823529 0.650980 0.000000
0.850980 0.650980 0.000000
0.886275 0.647059 0.000000
0.909804 0.647059 0.000000
0.941176 0.647059 0.000000
0.972549 0.643137 0.000000
1.000000 0.647059 0.000000
1.000000 0.647059 0.000000
0.000000 0.674510 0.000000
0.000000 0.682353 0.000000
0.035294 0.682353 0.000000
0.066667 0.682353 0.000000
0.090196 0.690196 0.000000
0.117647 0.678431 0.000000
0.145098 0.678431 0.000000
0.184314 0.674510 0.000000
0.211765 0.678431 0.000000
0.243137 0.678431 0.000000
0.270588 0.678431 0.000000
0.305882 0.674510 0.000000
0.337255 0.674510 0.000000
0.360784 0.674510 0.000000
0.392157 0.674510 0.000000
0.419608 0.674510 0.000000
0.450980 0.674510 0.000000
0.482353 0.674510 0.000000
0.517647 0.670588 0.000000
0.549020 0.678431 0.000000
0.572549 0.674510 0.000000
0.611765 0.670588 0.000000
0.639216 0.670588 0.000000
0.670588 0.674510 0.000000
0.698039 0.678431 0.000000
0.725490 0.678431 0.000000
0.764706 0.674510 0.000000
0.792157 0.678431 0.000000
0.823529 0.682353 0.000000
0.843137 0.678431 0.000000
0.874510 0.678431 0.000000
0.905882 0.678431 0.000000
0.945098 0.674510 0.000000
0.968627 0.674510 0.000000
1.000000 0.674510 0.000000
1.000000 0.674510 0.000000
0.000000 0.713725 0.000000
0.000000 0.717647 0.000000
0.023529 0.713725 0.000000
0.054902 0.713725 0.000000
0.090196 0.709804 0.000000
0.117647 0.713725 0.000000
0.149020 0.709804 0.000000
0.176471 0.709804 0.000000
0.211765 0.713725 0.000000
0.239216 0.705882 0.000000
0.270588 0.705882 0.000000
0.294118 0.705882 0.000000
0.325490 0.709804 0.000000
0.360784 0.705882 0.000000
0.392157 0.705882 0.000000
0.423529 0.705882 0.000000
0.450980 0.705882 0.000000
0.482353 0.709804 0.000000
0.513725 0.709804 0.000000
0.549020 0.701961 0.000000
0.580392 0.705882 0.000000
0.607843 0.705882 0.000000
0.639216 0.705882 0.000000
