luts/subtle/popsicle.cube
TITLE "popsicle (subtle)"
LUT_3D_SIZE 6
0.023529 0.023529 0.023529
0.207843 0.019608 0.019608
0.427451 0.015686 0.015686
0.635294 0.015686 0.011765
0.862745 0.015686 0.003922
1.000000 0.011765 0.000000
0.011765 0.207843 0.011765
0.207843 0.203922 0.007843
0.419608 0.207843 0.003922
0.627451 0.207843 0.000000
0.850980 0.203922 0.000000
1.000000 0.207843 0.000000
0.000000 0.411765 0.000000
0.200000 0.411765 0.000000
0.407843 0.407843 0.000000
0.627451 0.411765 0.000000
0.839216 0.415686 0.000000
1.000000 0.415686 0.000000
0.000000 0.615686 0.000000
0.184314 0.623529 0.000000
0.396078 0.619608 0.000000
0.607843 0.611765 0.000000
0.827451 0.627451 0.000000
1.000000 0.615686 0.000000
0.000000 0.839216 0.000000
0.164706 0.831373 0.000000
0.388235 0.831373 0.000000
0.600000 0.827451 0.000000
0.819608 0.827451 0.000000
1.000000 0.823529 0.000000
0.000000 1.000000 0.000000
0.156863 1.000000 0.000000
0.372549 1.000000 0.000000
0.584314 1.000000 0.000000
0.803922 1.000000 0.000000
1.000000 1.000000 0.000000
0.019608 0.019608 0.207843
0.215686 0.019608 0.215686
0.419608 0.015686 0.207843
0.639216 0.011765 0.211765
0.858824 0.015686 0.207843
1.000000 0.011765 0.207843
0.011765 0.203922 0.211765
0.207843 0.207843 0.207843
0.411765 0.211765 0.203922
0.627451 0.211765 0.203922
0.839216 0.207843 0.192157
1.000000 0.203922 0.196078
0.000000 0.411765 0.200000
0.200000 0.419608 0.200000
0.411765 0.411765 0.200000
0.619608 0.419608 0.196078
0.827451 0.419608 0.184314
1.000000 0.415686 0.184314
0.000000 0.619608 0.188235
0.184314 0.627451 0.184314
0.400000 0.619608 0.188235
0.607843 0.623529 0.184314
0.827451 0.619608 0.184314
1.000000 0.619608 0.168627
0.000000 0.835294 0.172549
0.180392 0.835294 0.180392
0.388235 0.831373 0.172549
0.596078 0.827451 0.164706
0.815686 0.827451 0.168627
1.000000 0.823529 0.152941
0.000000 1.000000 0.156863
0.156863 1.000000 0.160784
0.376471 1.000000 0.156863
0.592157 1.000000 0.156863
0.803922 1.000000 0.156863
1.000000 1.000000 0.149020
0.019608 0.019608 0.427451
0.211765 0.015686 0.423529
0.423529 0.011765 0.423529
0.635294 0.011765 0.419608
0.854902 0.011765 0.427451
1.000000 0.011765 0.419608
0.007843 0.207843 0.419608
0.200000 0.207843 0.411765
0.415686 0.207843 0.415686
0.623529 0.211765 0.411765
0.847059 0.207843 0.415686
1.000000 0.207843 0.407843
0.000000 0.407843 0.407843
0.203922 0.411765 0.411765
0.411765 0.423529 0.411765
0.615686 0.423529 0.403922
0.827451 0.415686 0.403922
1.000000 0.411765 0.396078
0.000000 0.623529 0.400000
0.188235 0.623529 0.400000
0.396078 0.623529 0.396078
0.611765 0.619608 0.400000
0.823529 0.623529 0.400000
1.000000 0.623529 0.392157
0.000000 0.835294 0.384314
0.176471 0.831373 0.392157
0.384314 0.831373 0.384314
0.603922 0.827451 0.396078
0.807843 0.823529 0.388235
1.000000 0.815686 0.384314
0.000000 1.000000 0.376471
0.160784 1.000000 0.380392
0.384314 1.000000 0.388235
0.588235 1.000000 0.380392
0.803922 1.000000 0.376471
1.000000 1.000000 0.376471
0.019608 0.023529 0.639216
0.215686 0.019608 0.643137
0.427451 0.015686 0.635294
0.635294 0.011765 0.631373
0.858824 0.011765 0.639216
1.000000 0.011765 0.631373
0.003922 0.211765 0.631373
0.207843 0.219608 0.631373
0.415686 0.215686 0.623529
0.627451 0.207843 0.627451
0.843137 0.211765 0.627451
1.000000 0.203922 0.631373
0.000000 0.411765 0.627451
0.196078 0.419608 0.619608
0.407843 0.423529 0.619608
0.619608 0.415686 0.619608
0.831373 0.415686 0.619608
1.000000 0.411765 0.619608
0.000000 0.615686 0.619608
0.184314 0.623529 0.607843
0.400000 0.615686 0.607843
0.611765 0.623529 0.611765
0.811765 0.619608 0.603922
1.000000 0.619608 0.611765
0.000000 0.831373 0.603922
0.168627 0.835294 0.603922
0.388235 0.827451 0.603922
0.603922 0.827451 0.603922
0.815686 0.819608 0.603922
1.000000 0.819608 0.596078
0.000000 1.000000 0.596078
0.164706 1.000000 0.592157
0.376471 1.000000 0.596078
0.592157 1.000000 0.592157
0.807843 1.000000 0.596078
1.000000 1.000000 0.588235
0.015686 0.027451 0.870588
0.215686 0.023529 0.862745
0.423529 0.019608 0.850980
0.643137 0.015686 0.862745
0.850980 0.011765 0.850980
1.000000 0.011765 0.862745
0.000000 0.215686 0.854902
0.203922 0.215686 0.850980
0.419608 0.207843 0.850980
0.631373 0.211765 0.847059
0.839216 0.207843 0.839216
1.000000 0.200000 0.843137
0.000000 0.419608 0.843137
0.188235 0.419608 0.827451
0.411765 0.419608 0.835294
0.615686 0.415686 0.827451
0.835294 0.415686 0.835294
1.000000 0.411765 0.827451
0.000000 0.627451 0.835294
0.184314 0.619608 0.831373
0.400000 0.623529 0.823529
0.603922 0.619608 0.815686
0.815686 0.611765 0.815686
1.000000 0.619608 0.819608
0.000000 0.839216 0.823529
0.172549 0.831373 0.823529
0.388235 0.823529 0.811765
0.607843 0.823529 0.815686
0.811765 0.823529 0.811765
1.000000 0.823529 0.807843
0.000000 1.000000 0.807843
0.160784 1.000000 0.811765
0.376471 1.000000 0.803922
0.600000 1.000000 0.811765
0.803922 1.000000 0.803922
1.000000 1.000000 0.803922
0.011765 0.023529 1.000000
0.211765 0.019608 1.000000
0.427451 0.015686 1.000000
0.643137 0.011765 1.000000
0.858824 0.011765 1.000000
1.000000 0.011765 1.000000
0.000000 0.215686 1.000000
0.200000 0.215686 1.000000
0.415686 0.211765 1.000000
0.631373 0.211765 1.000000
0.847059 0.203922 1.000000
1.000000 0.200000 1.000000
0.000000 0.423529 1.000000
0.192157 0.415686 1.000000
0.403922 0.415686 1.000000
0.619608 0.411765 1.000000
0.831373 0.411765 1.000000
1.000000 0.415686 1.000000
0.000000 0.623529 1.000000
0.176471 0.623529 1.000000
0.392157 0.623529 1.000000
0.607843 0.615686 1.000000
0.815686 0.619608 1.000000
1.000000 0.615686 1.000000
0.000000 0.835294 1.000000
0.168627 0.831373 1.000000
0.392157 0.827451 1.000000
0.600000 0.823529 1.000000
0.803922 0.819608 1.000000
1.000000 0.823529 1.000000
0.000000 1.000000 1.000000
0.156863 1.000000 1.000000
0.380392 1.000000 1.000000
0.592157 1.000000 1.000000
0.807843 1.000000 1.000000
1.000000 1.000000 1.000000
