luts/subtle/popsicle.cube
TITLE "popsicle (subtle)"
LUT_3D_SIZE 8
0.023529 0.023529 0.023529
0.145098 0.019608 0.019608
0.305882 0.015686 0.015686
0.454902 0.015686 0.015686
0.607843 0.015686 0.011765
0.760784 0.015686 0.007843
0.921569 0.015686 0.003922
1.000000 0.011765 0.000000
0.015686 0.145098 0.015686
0.149020 0.145098 0.015686
0.294118 0.145098 0.011765
0.450980 0.137255 0.007843
0.596078 0.149020 0.003922
0.756863 0.145098 0.000000
0.909804 0.145098 0.000000
1.000000 0.141176 0.000000
0.007843 0.290196 0.007843
0.141176 0.290196 0.003922
0.294118 0.294118 0.003922
0.439216 0.290196 0.000000
0.592157 0.294118 0.000000
0.741176 0.294118 0.000000
0.898039 0.298039 0.000000
1.000000 0.294118 0.000000
0.000000 0.443137 0.000000
0.133333 0.435294 0.000000
0.286275 0.435294 0.000000
0.435294 0.435294 0.000000
0.588235 0.431373 0.000000
0.741176 0.443137 0.000000
0.894118 0.443137 0.000000
1.000000 0.443137 0.000000
0.000000 0.580392 0.000000
0.121569 0.580392 0.000000
0.278431 0.588235 0.000000
0.431373 0.576471 0.000000
0.572549 0.576471 0.000000
0.741176 0.588235 0.000000
0.882353 0.588235 0.000000
1.000000 0.584314 0.000000
0.000000 0.745098 0.000000
0.113725 0.741176 0.000000
0.266667 0.733333 0.000000
0.423529 0.737255 0.000000
0.572549 0.737255 0.000000
0.721569 0.729412 0.000000
0.878431 0.733333 0.000000
1.000000 0.733333 0.000000
0.000000 0.890196 0.000000
0.105882 0.890196 0.000000
0.254902 0.890196 0.000000
0.415686 0.886275 0.000000
0.556863 0.882353 0.000000
0.721569 0.882353 0.000000
0.870588 0.878431 0.000000
1.000000 0.870588 0.000000
0.000000 1.000000 0.000000
0.090196 1.000000 0.000000
0.243137 1.000000 0.000000
0.407843 1.000000 0.000000
0.556863 1.000000 0.000000
0.705882 1.000000 0.000000
0.858824 1.000000 0.000000
1.000000 1.000000 0.000000
0.019608 0.019608 0.149020
0.145098 0.019608 0.145098
0.298039 0.015686 0.149020
0.454902 0.011765 0.152941
0.603922 0.015686 0.141176
0.756863 0.015686 0.145098
0.917647 0.011765 0.141176
1.000000 0.011765 0.141176
0.015686 0.149020 0.145098
0.149020 0.149020 0.149020
0.294118 0.141176 0.145098
0.447059 0.141176 0.141176
0.600000 0.152941 0.145098
0.749020 0.149020 0.133333
0.905882 0.149020 0.137255
1.000000 0.149020 0.129412
0.007843 0.294118 0.141176
0.141176 0.286275 0.141176
0.294118 0.290196 0.137255
0.443137 0.290196 0.137255
0.592157 0.290196 0.129412
0.752941 0.301961 0.137255
0.901961 0.298039 0.133333
1.000000 0.290196 0.121569
0.000000 0.439216 0.133333
0.137255 0.439216 0.137255
0.286275 0.435294 0.129412
0.435294 0.435294 0.129412
0.584314 0.443137 0.133333
0.733333 0.447059 0.121569
0.886275 0.439216 0.121569
1.000000 0.443137 0.113725
0.000000 0.584314 0.129412
0.129412 0.592157 0.125490
0.278431 0.584314 0.125490
0.431373 0.588235 0.121569
0.576471 0.584314 0.121569
0.733333 0.584314 0.121569
0.886275 0.588235 0.113725
1.000000 0.584314 0.105882
0.000000 0.741176 0.117647
0.117647 0.741176 0.121569
0.270588 0.741176 0.113725
0.419608 0.741176 0.117647
0.572549 0.741176 0.113725
0.717647 0.733333 0.109804
0.866667 0.733333 0.105882
1.000000 0.737255 0.098039
0.000000 0.890196 0.098039
0.109804 0.890196 0.109804
0.258824 0.886275 0.109804
0.407843 0.882353 0.098039
0.564706 0.878431 0.101961
0.717647 0.882353 0.094118
0.866667 0.878431 0.098039
1.000000 0.874510 0.094118
0.000000 1.000000 0.094118
0.086275 1.000000 0.086275
0.247059 1.000000 0.094118
0.400000 1.000000 0.086275
0.549020 1.000000 0.086275
0.709804 1.000000 0.086275
0.858824 1.000000 0.086275
1.000000 1.000000 0.086275
0.019608 0.019608 0.301961
0.149020 0.019608 0.294118
0.305882 0.015686 0.301961
0.454902 0.011765 0.298039
0.603922 0.011765 0.298039
0.764706 0.011765 0.305882
0.917647 0.011765 0.294118
1.000000 0.011765 0.301961
0.011765 0.145098 0.298039
0.137255 0.141176 0.294118
0.290196 0.145098 0.290196
0.450980 0.145098 0.294118
0.592157 0.145098 0.294118
0.752941 0.145098 0.290196
0.898039 0.145098 0.290196
1.000000 0.145098 0.290196
0.003922 0.290196 0.294118
0.145098 0.294118 0.290196
0.294118 0.294118 0.294118
0.435294 0.294118 0.290196
0.588235 0.298039 0.286275
0.741176 0.301961 0.290196
0.890196 0.298039 0.282353
1.000000 0.294118 0.282353
0.000000 0.439216 0.290196
0.133333 0.435294 0.286275
0.278431 0.443137 0.282353
0.439216 0.443137 0.286275
0.580392 0.447059 0.278431
0.741176 0.443137 0.278431
0.890196 0.439216 0.278431
1.000000 0.439216 0.270588
0.000000 0.580392 0.274510
0.125490 0.592157 0.278431
0.282353 0.592157 0.286275
0.427451 0.588235 0.274510
0.572549 0.588235 0.274510
0.725490 0.592157 0.270588
0.874510 0.588235 0.270588
1.000000 0.584314 0.270588
0.000000 0.741176 0.274510
0.117647 0.741176 0.266667
0.270588 0.733333 0.270588
0.427451 0.737255 0.274510
0.576471 0.737255 0.270588
0.725490 0.733333 0.270588
0.878431 0.737255 0.262745
1.000000 0.733333 0.258824
0.000000 0.890196 0.258824
0.101961 0.886275 0.262745
0.258824 0.882353 0.262745
0.419608 0.882353 0.258824
0.560784 0.882353 0.266667
0.721569 0.878431 0.258824
0.862745 0.878431 0.258824
1.000000 0.874510 0.243137
0.000000 1.000000 0.247059
0.090196 1.000000 0.247059
0.258824 1.000000 0.258824
0.411765 1.000000 0.250980
0.556863 1.000000 0.250980
0.705882 1.000000 0.239216
0.862745 1.000000 0.247059
1.000000 1.000000 0.243137
0.019608 0.019608 0.458824
0.152941 0.015686 0.462745
0.301961 0.015686 0.450980
0.454902 0.011765 0.454902
0.603922 0.011765 0.450980
0.760784 0.011765 0.450980
0.917647 0.011765 0.458824
1.000000 0.011765 0.450980
0.011765 0.149020 0.450980
0.145098 0.141176 0.447059
0.294118 0.137255 0.447059
0.447059 0.149020 0.443137
0.596078 0.145098 0.447059
0.752941 0.149020 0.443137
0.909804 0.149020 0.447059
1.000000 0.141176 0.447059
0.003922 0.286275 0.447059
0.141176 0.290196 0.447059
0.286275 0.298039 0.439216
0.439216 0.294118 0.439216
0.584314 0.298039 0.435294
0.749020 0.298039 0.439216
0.890196 0.294118 0.443137
1.000000 0.286275 0.431373
0.000000 0.439216 0.439216
0.133333 0.439216 0.439216
0.286275 0.443137 0.431373
0.439216 0.450980 0.439216
0.580392 0.447059 0.439216
0.729412 0.443137 0.427451
0.890196 0.447059 0.439216
1.000000 0.443137 0.427451
0.000000 0.580392 0.435294
0.129412 0.592157 0.431373
0.278431 0.588235 0.431373
0.435294 0.588235 0.435294
0.584314 0.592157 0.431373
0.733333 0.588235 0.431373
0.882353 0.584314 0.423529
1.000000 0.584314 0.419608
0.000000 0.741176 0.427451
0.113725 0.741176 0.427451
0.274510 0.741176 0.427451
0.423529 0.737255 0.427451
0.572549 0.741176 0.423529
0.717647 0.733333 0.419608
0.870588 0.733333 0.423529
1.000000 0.737255 0.415686
0.000000 0.894118 0.419608
0.105882 0.886275 0.415686
0.262745 0.882353 0.415686
0.419608 0.882353 0.415686
0.568627 0.878431 0.423529
0.717647 0.878431 0.411765
0.866667 0.878431 0.411765
1.000000 0.878431 0.415686
0.000000 1.000000 0.403922
0.086275 1.000000 0.400000
0.250980 1.000000 0.411765
0.403922 1.000000 0.411765
0.552941 1.000000 0.400000
0.709804 1.000000 0.411765
0.858824 1.000000 0.400000
1.000000 1.000000 0.407843
0.019608 0.023529 0.607843
0.152941 0.019608 0.603922
0.298039 0.015686 0.607843
0.454902 0.015686 0.603922
0.596078 0.011765 0.600000
0.764706 0.011765 0.607843
0.909804 0.011765 0.603922
1.000000 0.011765 0.607843
0.007843 0.149020 0.600000
0.145098 0.152941 0.600000
0.294118 0.149020 0.600000
0.447059 0.152941 0.596078
0.596078 0.149020 0.600000
0.745098 0.149020 0.592157
0.901961 0.149020 0.600000
1.000000 0.149020 0.592157
0.000000 0.294118 0.600000
0.141176 0.301961 0.592157
0.290196 0.301961 0.592157
0.435294 0.298039 0.588235
0.588235 0.301961 0.588235
0.737255 0.298039 0.588235
0.886275 0.290196 0.580392
1.000000 0.290196 0.584314
0.000000 0.439216 0.592157
0.125490 0.443137 0.588235
0.286275 0.454902 0.588235
0.431373 0.447059 0.584314
0.576471 0.447059 0.572549
0.737255 0.443137 0.580392
0.878431 0.443137 0.584314
1.000000 0.439216 0.580392
0.000000 0.584314 0.588235
0.125490 0.592157 0.580392
0.278431 0.592157 0.580392
0.427451 0.588235 0.572549
0.584314 0.596078 0.584314
0.725490 0.588235 0.580392
0.874510 0.584314 0.568627
1.000000 0.592157 0.580392
0.000000 0.741176 0.576471
0.113725 0.737255 0.568627
0.266667 0.741176 0.572549
0.427451 0.737255 0.576471
0.568627 0.733333 0.568627
0.729412 0.737255 0.576471
0.870588 0.737255 0.564706
1.000000 0.725490 0.564706
0.000000 0.890196 0.564706
0.101961 0.886275 0.568627
0.262745 0.882353 0.568627
0.419608 0.882353 0.568627
0.568627 0.878431 0.568627
0.717647 0.878431 0.564706
0.862745 0.874510 0.560784
1.000000 0.878431 0.560784
0.000000 1.000000 0.560784
0.098039 1.000000 0.560784
0.247059 1.000000 0.556863
0.411765 1.000000 0.556863
0.560784 1.000000 0.556863
0.713725 1.000000 0.564706
0.862745 1.000000 0.556863
1.000000 1.000000 0.556863
0.015686 0.027451 0.772549
0.152941 0.027451 0.768627
0.305882 0.019608 0.760784
0.458824 0.015686 0.764706
0.607843 0.011765 0.760784
0.760784 0.007843 0.760784
0.913725 0.011765 0.768627
1.000000 0.011765 0.756863
0.007843 0.152941 0.756863
0.145098 0.152941 0.752941
0.294118 0.152941 0.756863
0.450980 0.152941 0.749020
0.592157 0.149020 0.752941
0.752941 0.149020 0.745098
0.909804 0.149020 0.752941
1.000000 0.137255 0.752941
0.000000 0.298039 0.756863
0.133333 0.298039 0.752941
0.290196 0.301961 0.745098
0.435294 0.298039 0.741176
0.588235 0.301961 0.733333
0.737255 0.298039 0.741176
0.886275 0.294118 0.741176
1.000000 0.294118 0.745098
0.000000 0.447059 0.745098
0.129412 0.443137 0.741176
0.286275 0.447059 0.741176
0.435294 0.447059 0.737255
0.580392 0.443137 0.733333
0.737255 0.450980 0.733333
0.886275 0.443137 0.733333
1.000000 0.439216 0.729412
0.000000 0.592157 0.741176
0.117647 0.592157 0.733333
0.270588 0.592157 0.729412
0.435294 0.592157 0.737255
0.572549 0.588235 0.725490
0.729412 0.588235 0.729412
0.866667 0.588235 0.721569
1.000000 0.580392 0.725490
0.000000 0.737255 0.729412
0.117647 0.741176 0.733333
0.270588 0.737255 0.721569
0.427451 0.737255 0.729412
0.576471 0.733333 0.717647
0.725490 0.737255 0.725490
0.870588 0.733333 0.725490
1.000000 0.729412 0.717647
0.000000 0.890196 0.729412
0.109804 0.886275 0.721569
0.254902 0.882353 0.717647
0.423529 0.882353 0.721569
0.568627 0.878431 0.717647
0.717647 0.870588 0.721569
0.866667 0.874510 0.713725
1.000000 0.874510 0.721569
0.000000 1.000000 0.713725
0.098039 1.000000 0.713725
0.254902 1.000000 0.713725
0.407843 1.000000 0.713725
0.560784 1.000000 0.709804
0.713725 1.000000 0.717647
0.858824 1.000000 0.705882
1.000000 1.000000 0.713725
0.015686 0.027451 0.929412
0.152941 0.023529 0.921569
0.305882 0.019608 0.921569
0.454902 0.015686 0.917647
0.611765 0.015686 0.921569
0.760784 0.011765 0.917647
0.909804 0.011765 0.905882
1.000000 0.011765 0.921569
0.003922 0.152941 0.909804
0.141176 0.152941 0.909804
0.298039 0.149020 0.913725
0.447059 0.149020 0.905882
0.600000 0.149020 0.905882
0.752941 0.149020 0.901961
0.898039 0.141176 0.898039
1.000000 0.141176 0.901961
0.000000 0.305882 0.913725
0.137255 0.301961 0.901961
0.290196 0.298039 0.894118
0.447059 0.301961 0.901961
0.596078 0.298039 0.890196
0.741176 0.290196 0.894118
0.894118 0.294118 0.886275
1.000000 0.294118 0.894118
0.000000 0.450980 0.898039
0.129412 0.450980 0.901961
0.282353 0.450980 0.886275
0.431373 0.447059 0.886275
0.580392 0.443137 0.886275
0.737255 0.447059 0.886275
0.882353 0.443137 0.882353
1.000000 0.443137 0.882353
0.000000 0.592157 0.894118
0.117647 0.592157 0.890196
0.274510 0.588235 0.882353
0.431373 0.592157 0.878431
0.580392 0.588235 0.878431
0.725490 0.588235 0.878431
0.870588 0.580392 0.866667
1.000000 0.584314 0.878431
0.000000 0.737255 0.882353
0.109804 0.741176 0.878431
0.266667 0.741176 0.878431
0.415686 0.737255 0.878431
0.564706 0.733333 0.866667
0.721569 0.737255 0.874510
0.866667 0.733333 0.862745
1.000000 0.729412 0.870588
0.000000 0.886275 0.870588
0.098039 0.878431 0.866667
0.262745 0.878431 0.870588
0.415686 0.878431 0.866667
0.564706 0.874510 0.866667
0.717647 0.874510 0.862745
0.866667 0.878431 0.866667
1.000000 0.878431 0.870588
0.000000 1.000000 0.870588
0.086275 1.000000 0.866667
0.243137 1.000000 0.862745
0.407843 1.000000 0.858824
0.560784 1.000000 0.862745
0.717647 1.000000 0.866667
0.858824 1.000000 0.858824
1.000000 1.000000 0.854902
0.011765 0.023529 1.000000
0.149020 0.023529 1.000000
0.298039 0.019608 1.000000
0.462745 0.015686 1.000000
0.611765 0.011765 1.000000
0.768627 0.011765 1.000000
0.917647 0.011765 1.000000
1.000000 0.011765 1.000000
0.003922 0.149020 1.000000
0.141176 0.156863 1.000000
0.298039 0.152941 1.000000
0.447059 0.149020 1.000000
0.596078 0.141176 1.000000
0.760784 0.141176 1.000000
0.901961 0.145098 1.000000
1.000000 0.141176 1.000000
0.000000 0.305882 1.000000
0.133333 0.301961 1.000000
0.286275 0.298039 1.000000
0.439216 0.298039 1.000000
0.592157 0.298039 1.000000
0.741176 0.294118 1.000000
0.890196 0.286275 1.000000
1.000000 0.294118 1.000000
0.000000 0.450980 1.000000
0.125490 0.447059 1.000000
0.278431 0.443137 1.000000
0.439216 0.447059 1.000000
0.576471 0.443137 1.000000
0.741176 0.443137 1.000000
0.878431 0.439216 1.000000
1.000000 0.435294 1.000000
0.000000 0.596078 1.000000
0.109804 0.592157 1.000000
0.270588 0.588235 1.000000
0.423529 0.588235 1.000000
0.572549 0.588235 1.000000
0.725490 0.584314 1.000000
0.878431 0.588235 1.000000
1.000000 0.588235 1.000000
0.000000 0.741176 1.000000
0.113725 0.741176 1.000000
0.258824 0.737255 1.000000
0.423529 0.733333 1.000000
0.576471 0.737255 1.000000
0.721569 0.729412 1.000000
0.870588 0.733333 1.000000
1.000000 0.729412 1.000000
0.000000 0.890196 1.000000
0.094118 0.882353 1.000000
0.254902 0.882353 1.000000
0.411765 0.882353 1.000000
0.564706 0.878431 1.000000
0.717647 0.874510 1.000000
0.862745 0.878431 1.000000
1.000000 0.874510 1.000000
0.000000 1.000000 1.000000
0.094118 1.000000 1.000000
0.250980 1.000000 1.000000
0.407843 1.000000 1.000000
0.564706 1.000000 1.000000
0.709804 1.000000 1.000000
0.858824 1.000000 1.000000
1.000000 1.000000 1.000000
