luts/subtle/super-8.cube
TITLE "super-8 (subtle)"
LUT_3D_SIZE 6
0.019608 0.003922 0.015686
0.231373 0.003922 0.011765
0.435294 0.000000 0.007843
0.631373 0.000000 0.003922
0.800000 0.000000 0.000000
0.960784 0.000000 0.000000
0.011765 0.203922 0.003922
0.223529 0.203922 0.003922
0.427451 0.200000 0.000000
0.619608 0.200000 0.000000
0.788235 0.200000 0.000000
0.949020 0.196078 0.000000
0.000000 0.392157 0.000000
0.215686 0.392157 0.000000
0.415686 0.388235 0.000000
0.607843 0.388235 0.000000
0.776471 0.388235 0.000000
0.937255 0.388235 0.000000
0.000000 0.576471 0.000000
0.203922 0.572549 0.000000
0.407843 0.568627 0.000000
0.600000 0.564706 0.000000
0.768627 0.568627 0.000000
0.925490 0.564706 0.000000
0.000000 0.737255 0.000000
0.192157 0.733333 0.000000
0.396078 0.729412 0.000000
0.588235 0.725490 0.000000
0.756863 0.721569 0.000000
0.913725 0.721569 0.000000
0.000000 0.878431 0.000000
0.180392 0.874510 0.000000
0.388235 0.870588 0.000000
0.580392 0.866667 0.000000
0.749020 0.862745 0.000000
0.905882 0.862745 0.000000
0.015686 0.003922 0.211765
0.231373 0.003922 0.211765
0.435294 0.000000 0.207843
0.631373 0.000000 0.207843
0.800000 0.000000 0.203922
0.960784 0.000000 0.200000
0.007843 0.203922 0.203922
0.223529 0.200000 0.200000
0.423529 0.203922 0.200000
0.615686 0.203922 0.196078
0.784314 0.200000 0.192157
0.941176 0.196078 0.188235
0.000000 0.392157 0.196078
0.215686 0.392157 0.192157
0.415686 0.392157 0.192157
0.607843 0.392157 0.188235
0.772549 0.388235 0.180392
0.929412 0.384314 0.176471
0.000000 0.572549 0.184314
0.203922 0.572549 0.184314
0.407843 0.572549 0.180392
0.596078 0.568627 0.176471
0.764706 0.564706 0.172549
0.921569 0.564706 0.168627
0.000000 0.737255 0.172549
0.196078 0.729412 0.172549
0.400000 0.725490 0.168627
0.588235 0.725490 0.168627
0.756863 0.721569 0.164706
0.909804 0.717647 0.156863
0.000000 0.878431 0.160784
0.184314 0.870588 0.164706
0.388235 0.866667 0.160784
0.580392 0.866667 0.156863
0.749020 0.862745 0.152941
0.901961 0.858824 0.149020
0.015686 0.003922 0.403922
0.231373 0.000000 0.400000
0.435294 0.000000 0.396078
0.627451 0.000000 0.396078
0.800000 0.000000 0.396078
0.960784 0.000000 0.392157
0.007843 0.203922 0.392157
0.219608 0.203922 0.388235
0.423529 0.203922 0.384314
0.615686 0.203922 0.384314
0.784314 0.200000 0.380392
0.941176 0.196078 0.380392
0.000000 0.392157 0.384314
0.215686 0.392157 0.380392
0.415686 0.392157 0.376471
0.603922 0.392157 0.376471
0.768627 0.388235 0.372549
0.925490 0.384314 0.368627
0.000000 0.572549 0.372549
0.203922 0.572549 0.372549
0.407843 0.568627 0.368627
0.596078 0.568627 0.368627
0.760784 0.564706 0.364706
0.917647 0.560784 0.360784
0.000000 0.733333 0.364706
0.192157 0.729412 0.360784
0.400000 0.725490 0.360784
0.588235 0.721569 0.360784
0.752941 0.721569 0.356863
0.909804 0.717647 0.352941
0.000000 0.874510 0.352941
0.184314 0.870588 0.352941
0.392157 0.866667 0.352941
0.580392 0.862745 0.349020
0.749020 0.862745 0.349020
0.901961 0.858824 0.345098
0.015686 0.003922 0.580392
0.231373 0.000000 0.576471
0.435294 0.000000 0.576471
0.627451 0.000000 0.572549
0.800000 0.000000 0.572549
0.956863 0.000000 0.572549
0.003922 0.203922 0.568627
0.219608 0.207843 0.564706
0.423529 0.203922 0.560784
0.611765 0.203922 0.560784
0.780392 0.200000 0.556863
0.941176 0.196078 0.556863
0.000000 0.392157 0.560784
0.211765 0.396078 0.552941
0.415686 0.392157 0.549020
0.603922 0.392157 0.549020
0.768627 0.388235 0.549020
0.925490 0.384314 0.545098
0.000000 0.572549 0.549020
0.203922 0.572549 0.545098
0.407843 0.568627 0.545098
0.596078 0.564706 0.541176
0.760784 0.564706 0.541176
0.913725 0.560784 0.537255
0.000000 0.733333 0.541176
0.192157 0.729412 0.537255
0.400000 0.725490 0.537255
0.588235 0.721569 0.533333
0.752941 0.721569 0.533333
0.905882 0.717647 0.529412
0.000000 0.874510 0.533333
0.184314 0.870588 0.529412
0.388235 0.866667 0.529412
0.580392 0.862745 0.529412
0.745098 0.858824 0.525490
0.898039 0.858824 0.521569
0.015686 0.003922 0.741176
0.231373 0.000000 0.737255
0.435294 0.000000 0.733333
0.627451 0.000000 0.729412
0.796078 0.000000 0.729412
0.956863 0.000000 0.729412
0.003922 0.207843 0.729412
0.219608 0.207843 0.721569
0.423529 0.203922 0.717647
0.615686 0.200000 0.713725
0.780392 0.200000 0.713725
0.937255 0.196078 0.713725
0.000000 0.396078 0.717647
0.211765 0.396078 0.709804
0.411765 0.392157 0.705882
0.603922 0.388235 0.701961
0.768627 0.388235 0.701961
0.925490 0.384314 0.701961
0.000000 0.572549 0.705882
0.200000 0.572549 0.701961
0.403922 0.568627 0.698039
0.596078 0.564706 0.694118
0.760784 0.564706 0.694118
0.913725 0.560784 0.690196
0.000000 0.733333 0.698039
0.192157 0.729412 0.694118
0.400000 0.725490 0.690196
0.588235 0.721569 0.686275
0.752941 0.717647 0.686275
0.905882 0.717647 0.682353
0.000000 0.874510 0.690196
0.180392 0.870588 0.686275
0.388235 0.862745 0.682353
0.580392 0.862745 0.682353
0.745098 0.858824 0.682353
0.898039 0.858824 0.678431
0.011765 0.007843 0.890196
0.231373 0.003922 0.886275
0.435294 0.000000 0.882353
0.631373 0.000000 0.878431
0.800000 0.000000 0.874510
0.956863 0.000000 0.874510
0.000000 0.207843 0.874510
0.219608 0.207843 0.866667
0.423529 0.203922 0.862745
0.615686 0.200000 0.858824
0.780392 0.196078 0.858824
0.937255 0.192157 0.858824
0.000000 0.400000 0.862745
0.207843 0.396078 0.854902
0.411765 0.392157 0.850980
0.603922 0.388235 0.847059
0.768627 0.388235 0.843137
0.921569 0.384314 0.843137
0.000000 0.576471 0.854902
0.200000 0.572549 0.847059
0.403922 0.568627 0.839216
0.596078 0.564706 0.835294
0.760784 0.564706 0.835294
0.913725 0.560784 0.831373
0.000000 0.733333 0.843137
0.188235 0.729412 0.839216
0.396078 0.725490 0.831373
0.588235 0.721569 0.827451
0.752941 0.717647 0.827451
0.901961 0.717647 0.823529
0.000000 0.874510 0.835294
0.180392 0.866667 0.831373
0.388235 0.862745 0.827451
0.580392 0.858824 0.823529
0.745098 0.858824 0.819608
0.898039 0.854902 0.819608
