luts/subtle/super-8.cube
TITLE "super-8 (subtle)"
LUT_3D_SIZE 36
0.019608 0.003922 0.015686
0.047059 0.003922 0.011765
0.074510 0.003922 0.011765
0.105882 0.003922 0.011765
0.137255 0.003922 0.011765
0.168627 0.003922 0.011765
0.200000 0.003922 0.011765
0.231373 0.003922 0.011765
0.262745 0.003922 0.011765
0.290196 0.003922 0.011765
0.317647 0.000000 0.011765
0.349020 0.000000 0.007843
0.376471 0.000000 0.007843
0.407843 0.000000 0.007843
0.435294 0.000000 0.007843
0.466667 0.000000 0.007843
0.490196 0.000000 0.007843
0.521569 0.000000 0.007843
0.549020 0.000000 0.007843
0.576471 0.000000 0.003922
0.600000 0.000000 0.003922
0.631373 0.000000 0.003922
0.650980 0.000000 0.003922
0.678431 0.000000 0.003922
0.701961 0.000000 0.003922
0.729412 0.000000 0.003922
0.749020 0.000000 0.000000
0.776471 0.000000 0.000000
0.800000 0.000000 0.000000
0.823529 0.000000 0.000000
0.843137 0.000000 0.000000
0.866667 0.000000 0.000000
0.890196 0.000000 0.000000
0.913725 0.000000 0.000000
0.941176 0.000000 0.000000
0.960784 0.000000 0.000000
0.015686 0.035294 0.011765
0.047059 0.031373 0.011765
0.074510 0.031373 0.011765
0.101961 0.031373 0.011765
0.137255 0.031373 0.011765
0.168627 0.031373 0.011765
0.196078 0.031373 0.011765
0.231373 0.031373 0.011765
0.258824 0.031373 0.007843
0.290196 0.031373 0.007843
0.317647 0.031373 0.007843
0.345098 0.027451 0.007843
0.376471 0.027451 0.007843
0.403922 0.027451 0.007843
0.435294 0.027451 0.007843
0.462745 0.027451 0.007843
0.490196 0.027451 0.003922
0.517647 0.027451 0.003922
0.549020 0.027451 0.003922
0.572549 0.023529 0.003922
0.600000 0.027451 0.003922
0.627451 0.027451 0.003922
0.650980 0.027451 0.003922
0.674510 0.027451 0.000000
0.701961 0.027451 0.000000
0.725490 0.027451 0.000000
0.749020 0.023529 0.000000
0.772549 0.027451 0.000000
0.800000 0.027451 0.000000
0.819608 0.027451 0.000000
0.843137 0.027451 0.000000
0.862745 0.027451 0.000000
0.890196 0.027451 0.000000
0.913725 0.023529 0.000000
0.937255 0.023529 0.000000
0.960784 0.023529 0.000000
0.015686 0.062745 0.011765
0.043137 0.062745 0.011765
0.074510 0.062745 0.011765
0.101961 0.058824 0.011765
0.133333 0.058824 0.011765
0.168627 0.058824 0.011765
0.196078 0.058824 0.007843
0.231373 0.058824 0.007843
0.258824 0.058824 0.007843
0.286275 0.058824 0.007843
0.317647 0.058824 0.007843
0.345098 0.058824 0.007843
0.376471 0.054902 0.007843
0.403922 0.054902 0.007843
0.435294 0.054902 0.003922
0.462745 0.054902 0.003922
0.486275 0.054902 0.003922
0.517647 0.054902 0.003922
0.549020 0.054902 0.003922
0.572549 0.054902 0.003922
0.596078 0.054902 0.000000
0.627451 0.054902 0.000000
0.647059 0.054902 0.000000
0.674510 0.054902 0.000000
0.698039 0.054902 0.000000
0.725490 0.054902 0.000000
0.745098 0.054902 0.000000
0.772549 0.058824 0.000000
0.796078 0.054902 0.000000
0.819608 0.054902 0.000000
0.839216 0.054902 0.000000
0.862745 0.054902 0.000000
0.890196 0.054902 0.000000
0.909804 0.054902 0.000000
0.937255 0.054902 0.000000
0.956863 0.050980 0.000000
0.015686 0.086275 0.011765
0.043137 0.086275 0.011765
0.070588 0.086275 0.011765
0.101961 0.086275 0.011765
0.133333 0.082353 0.007843
0.164706 0.082353 0.007843
0.196078 0.082353 0.007843
0.227451 0.082353 0.007843
0.258824 0.082353 0.007843
0.286275 0.082353 0.007843
0.313725 0.082353 0.007843
0.345098 0.082353 0.007843
0.372549 0.082353 0.003922
0.403922 0.078431 0.003922
0.431373 0.078431 0.003922
0.462745 0.078431 0.003922
0.486275 0.078431 0.003922
0.517647 0.078431 0.003922
0.545098 0.078431 0.000000
0.572549 0.078431 0.000000
0.596078 0.082353 0.000000
0.627451 0.078431 0.000000
0.647059 0.078431 0.000000
0.674510 0.078431 0.000000
0.698039 0.078431 0.000000
0.725490 0.078431 0.000000
0.745098 0.078431 0.000000
0.772549 0.082353 0.000000
0.796078 0.082353 0.000000
0.819608 0.078431 0.000000
0.839216 0.078431 0.000000
0.862745 0.078431 0.000000
0.886275 0.078431 0.000000
0.909804 0.078431 0.000000
0.933333 0.078431 0.000000
0.956863 0.078431 0.000000
0.015686 0.117647 0.007843
0.043137 0.117647 0.007843
0.070588 0.117647 0.007843
0.098039 0.117647 0.007843
0.133333 0.117647 0.007843
0.164706 0.113725 0.007843
0.192157 0.113725 0.007843
0.227451 0.113725 0.007843
0.254902 0.113725 0.007843
0.286275 0.113725 0.003922
0.313725 0.113725 0.003922
0.341176 0.113725 0.003922
0.372549 0.113725 0.003922
0.400000 0.113725 0.003922
0.431373 0.113725 0.003922
0.458824 0.109804 0.003922
0.486275 0.109804 0.000000
0.513725 0.109804 0.000000
0.545098 0.109804 0.000000
0.568627 0.109804 0.000000
0.596078 0.113725 0.000000
0.623529 0.113725 0.000000
0.647059 0.113725 0.000000
0.670588 0.109804 0.000000
0.698039 0.109804 0.000000
0.721569 0.109804 0.000000
0.745098 0.109804 0.000000
0.768627 0.113725 0.000000
0.796078 0.113725 0.000000
0.815686 0.113725 0.000000
0.839216 0.109804 0.000000
0.858824 0.109804 0.000000
0.886275 0.109804 0.000000
0.905882 0.109804 0.000000
0.933333 0.109804 0.000000
0.952941 0.109804 0.000000
0.011765 0.149020 0.007843
0.039216 0.149020 0.007843
0.070588 0.149020 0.007843
0.098039 0.149020 0.007843
0.129412 0.149020 0.007843
0.164706 0.149020 0.007843
0.192157 0.149020 0.007843
0.227451 0.145098 0.003922
0.254902 0.145098 0.003922
0.282353 0.145098 0.003922
0.313725 0.145098 0.003922
0.341176 0.145098 0.003922
0.372549 0.145098 0.003922
0.400000 0.145098 0.000000
0.427451 0.145098 0.000000
0.458824 0.145098 0.000000
0.482353 0.141176 0.000000
0.513725 0.141176 0.000000
0.541176 0.141176 0.000000
0.568627 0.141176 0.000000
0.592157 0.145098 0.000000
0.623529 0.145098 0.000000
0.643137 0.145098 0.000000
0.670588 0.145098 0.000000
0.694118 0.141176 0.000000
0.721569 0.141176 0.000000
0.741176 0.141176 0.000000
0.768627 0.145098 0.000000
0.792157 0.145098 0.000000
0.815686 0.145098 0.000000
0.835294 0.145098 0.000000
0.858824 0.145098 0.000000
0.882353 0.141176 0.000000
0.905882 0.141176 0.000000
0.929412 0.141176 0.000000
0.952941 0.141176 0.000000
0.011765 0.172549 0.007843
0.039216 0.172549 0.007843
0.070588 0.172549 0.007843
0.098039 0.172549 0.007843
0.129412 0.172549 0.003922
0.164706 0.172549 0.003922
0.192157 0.172549 0.003922
0.223529 0.172549 0.003922
0.254902 0.168627 0.003922
0.282353 0.168627 0.003922
0.309804 0.168627 0.003922
0.341176 0.168627 0.000000
0.368627 0.168627 0.000000
0.400000 0.168627 0.000000
0.427451 0.168627 0.000000
0.458824 0.168627 0.000000
0.482353 0.168627 0.000000
0.509804 0.164706 0.000000
0.541176 0.164706 0.000000
0.564706 0.164706 0.000000
0.592157 0.168627 0.000000
0.619608 0.168627 0.000000
0.643137 0.168627 0.000000
0.666667 0.168627 0.000000
0.694118 0.168627 0.000000
0.717647 0.164706 0.000000
0.741176 0.164706 0.000000
0.764706 0.168627 0.000000
0.792157 0.168627 0.000000
0.811765 0.168627 0.000000
0.835294 0.168627 0.000000
0.854902 0.168627 0.000000
0.882353 0.168627 0.000000
0.901961 0.164706 0.000000
0.929412 0.164706 0.000000
0.949020 0.164706 0.000000
0.011765 0.203922 0.003922
0.039216 0.203922 0.003922
0.066667 0.203922 0.003922
0.094118 0.203922 0.003922
0.129412 0.203922 0.003922
0.160784 0.203922 0.003922
0.192157 0.203922 0.003922
0.223529 0.203922 0.003922
0.250980 0.203922 0.003922
0.282353 0.200000 0.000000
0.309804 0.200000 0.000000
0.337255 0.200000 0.000000
0.368627 0.200000 0.000000
0.396078 0.200000 0.000000
0.427451 0.200000 0.000000
0.454902 0.200000 0.000000
0.482353 0.200000 0.000000
0.509804 0.200000 0.000000
0.541176 0.196078 0.000000
0.564706 0.196078 0.000000
0.588235 0.200000 0.000000
0.619608 0.200000 0.000000
0.639216 0.200000 0.000000
0.666667 0.200000 0.000000
0.690196 0.200000 0.000000
0.717647 0.200000 0.000000
0.737255 0.200000 0.000000
0.764706 0.200000 0.000000
0.788235 0.200000 0.000000
0.811765 0.200000 0.000000
0.831373 0.200000 0.000000
0.854902 0.200000 0.000000
0.878431 0.200000 0.000000
0.901961 0.200000 0.000000
0.925490 0.196078 0.000000
0.949020 0.196078 0.000000
0.007843 0.231373 0.003922
0.035294 0.231373 0.003922
0.066667 0.231373 0.003922
0.094118 0.231373 0.003922
0.129412 0.231373 0.003922
0.160784 0.231373 0.003922
0.188235 0.231373 0.003922
0.223529 0.231373 0.000000
0.250980 0.231373 0.000000
0.278431 0.231373 0.000000
0.309804 0.227451 0.000000
0.337255 0.227451 0.000000
0.368627 0.227451 0.000000
0.396078 0.227451 0.000000
0.423529 0.227451 0.000000
0.454902 0.227451 0.000000
0.478431 0.227451 0.000000
0.509804 0.227451 0.000000
0.537255 0.227451 0.000000
0.564706 0.227451 0.000000
0.588235 0.227451 0.000000
0.619608 0.227451 0.000000
0.639216 0.227451 0.000000
0.662745 0.227451 0.000000
0.690196 0.227451 0.000000
0.713725 0.227451 0.000000
0.737255 0.227451 0.000000
0.760784 0.231373 0.000000
0.788235 0.227451 0.000000
0.807843 0.227451 0.000000
0.831373 0.227451 0.000000
0.850980 0.227451 0.000000
0.878431 0.227451 0.000000
0.898039 0.227451 0.000000
0.925490 0.227451 0.000000
0.945098 0.227451 0.000000
0.007843 0.262745 0.003922
0.035294 0.258824 0.003922
0.062745 0.258824 0.003922
0.094118 0.258824 0.000000
0.125490 0.258824 0.000000
0.160784 0.258824 0.000000
0.188235 0.258824 0.000000
0.219608 0.258824 0.000000
0.250980 0.258824 0.000000
0.278431 0.258824 0.000000
0.305882 0.258824 0.000000
0.337255 0.258824 0.000000
0.364706 0.254902 0.000000
0.396078 0.254902 0.000000
0.423529 0.254902 0.000000
0.450980 0.254902 0.000000
0.478431 0.254902 0.000000
0.505882 0.254902 0.000000
0.537255 0.254902 0.000000
0.560784 0.254902 0.000000
0.588235 0.258824 0.000000
0.615686 0.254902 0.000000
0.639216 0.254902 0.000000
0.662745 0.254902 0.000000
0.686275 0.254902 0.000000
0.713725 0.254902 0.000000
0.733333 0.254902 0.000000
0.760784 0.258824 0.000000
0.784314 0.258824 0.000000
0.807843 0.254902 0.000000
0.827451 0.254902 0.000000
0.850980 0.254902 0.000000
0.874510 0.254902 0.000000
0.898039 0.254902 0.000000
0.921569 0.254902 0.000000
0.945098 0.254902 0.000000
0.003922 0.286275 0.000000
0.035294 0.286275 0.000000
0.062745 0.286275 0.000000
0.094118 0.282353 0.000000
0.125490 0.282353 0.000000
0.156863 0.282353 0.000000
0.188235 0.282353 0.000000
0.219608 0.282353 0.000000
0.247059 0.282353 0.000000
0.278431 0.282353 0.000000
0.305882 0.282353 0.000000
0.333333 0.282353 0.000000
0.364706 0.282353 0.000000
0.392157 0.278431 0.000000
0.423529 0.278431 0.000000
0.450980 0.278431 0.000000
0.478431 0.278431 0.000000
0.505882 0.278431 0.000000
0.533333 0.278431 0.000000
0.560784 0.278431 0.000000
0.584314 0.282353 0.000000
0.615686 0.282353 0.000000
0.635294 0.278431 0.000000
0.662745 0.278431 0.000000
0.686275 0.278431 0.000000
0.713725 0.278431 0.000000
0.733333 0.278431 0.000000
0.756863 0.282353 0.000000
0.784314 0.282353 0.000000
0.803922 0.282353 0.000000
0.827451 0.282353 0.000000
0.847059 0.278431 0.000000
0.874510 0.278431 0.000000
0.894118 0.278431 0.000000
0.921569 0.278431 0.000000
0.941176 0.278431 0.000000
0.003922 0.313725 0.000000
0.031373 0.313725 0.000000
0.062745 0.313725 0.000000
0.090196 0.313725 0.000000
0.125490 0.309804 0.000000
0.156863 0.309804 0.000000
0.184314 0.309804 0.000000
0.219608 0.309804 0.000000
0.247059 0.309804 0.000000
0.274510 0.309804 0.000000
0.305882 0.309804 0.000000
0.333333 0.309804 0.000000
0.364706 0.309804 0.000000
0.392157 0.309804 0.000000
0.419608 0.305882 0.000000
0.450980 0.305882 0.000000
0.474510 0.305882 0.000000
0.505882 0.305882 0.000000
0.533333 0.305882 0.000000
0.560784 0.305882 0.000000
0.584314 0.309804 0.000000
0.611765 0.309804 0.000000
0.635294 0.309804 0.000000
0.658824 0.309804 0.000000
0.686275 0.305882 0.000000
0.709804 0.305882 0.000000
0.733333 0.305882 0.000000
0.756863 0.309804 0.000000
0.784314 0.309804 0.000000
0.803922 0.309804 0.000000
0.823529 0.309804 0.000000
0.847059 0.309804 0.000000
0.870588 0.305882 0.000000
0.894118 0.305882 0.000000
0.921569 0.305882 0.000000
0.941176 0.305882 0.000000
0.003922 0.341176 0.000000
0.031373 0.341176 0.000000
0.058824 0.341176 0.000000
0.090196 0.341176 0.000000
0.121569 0.341176 0.000000
0.156863 0.341176 0.000000
0.184314 0.337255 0.000000
0.215686 0.337255 0.000000
0.247059 0.337255 0.000000
0.274510 0.337255 0.000000
0.301961 0.337255 0.000000
0.333333 0.337255 0.000000
0.360784 0.337255 0.000000
0.392157 0.337255 0.000000
0.419608 0.337255 0.000000
0.447059 0.337255 0.000000
0.474510 0.333333 0.000000
0.501961 0.333333 0.000000
0.533333 0.333333 0.000000
0.556863 0.333333 0.000000
0.584314 0.337255 0.000000
0.611765 0.337255 0.000000
0.631373 0.337255 0.000000
0.658824 0.337255 0.000000
0.682353 0.337255 0.000000
0.709804 0.333333 0.000000
0.729412 0.333333 0.000000
0.756863 0.337255 0.000000
0.780392 0.337255 0.000000
0.803922 0.337255 0.000000
0.823529 0.337255 0.000000
0.843137 0.337255 0.000000
0.870588 0.337255 0.000000
0.890196 0.337255 0.000000
0.917647 0.333333 0.000000
0.941176 0.333333 0.000000
0.000000 0.364706 0.000000
0.031373 0.364706 0.000000
0.058824 0.364706 0.000000
0.086275 0.364706 0.000000
0.121569 0.364706 0.000000
0.152941 0.364706 0.000000
0.184314 0.364706 0.000000
0.215686 0.360784 0.000000
0.243137 0.360784 0.000000
0.274510 0.360784 0.000000
0.301961 0.360784 0.000000
0.333333 0.360784 0.000000
0.360784 0.360784 0.000000
0.388235 0.360784 0.000000
0.419608 0.360784 0.000000
0.447059 0.360784 0.000000
0.474510 0.360784 0.000000
0.501961 0.356863 0.000000
0.529412 0.356863 0.000000
0.556863 0.356863 0.000000
0.580392 0.360784 0.000000
0.611765 0.360784 0.000000
0.631373 0.360784 0.000000
0.654902 0.360784 0.000000
0.682353 0.360784 0.000000
0.705882 0.360784 0.000000
0.729412 0.356863 0.000000
0.752941 0.360784 0.000000
0.780392 0.360784 0.000000
0.800000 0.360784 0.000000
0.823529 0.360784 0.000000
0.843137 0.360784 0.000000
0.870588 0.360784 0.000000
0.890196 0.360784 0.000000
0.917647 0.360784 0.000000
0.937255 0.356863 0.000000
0.000000 0.392157 0.000000
0.027451 0.392157 0.000000
0.058824 0.392157 0.000000
0.086275 0.392157 0.000000
0.117647 0.392157 0.000000
0.152941 0.392157 0.000000
0.180392 0.392157 0.000000
0.215686 0.392157 0.000000
0.243137 0.388235 0.000000
0.270588 0.388235 0.000000
0.301961 0.388235 0.000000
0.329412 0.388235 0.000000
0.360784 0.388235 0.000000
0.388235 0.388235 0.000000
0.415686 0.388235 0.000000
0.447059 0.388235 0.000000
0.470588 0.388235 0.000000
0.501961 0.388235 0.000000
0.529412 0.384314 0.000000
0.552941 0.384314 0.000000
0.580392 0.388235 0.000000
0.607843 0.388235 0.000000
0.631373 0.388235 0.000000
0.654902 0.388235 0.000000
0.682353 0.388235 0.000000
0.705882 0.388235 0.000000
0.725490 0.388235 0.000000
0.752941 0.392157 0.000000
0.776471 0.388235 0.000000
0.800000 0.388235 0.000000
0.819608 0.388235 0.000000
0.843137 0.388235 0.000000
0.866667 0.388235 0.000000
0.890196 0.388235 0.000000
0.913725 0.388235 0.000000
0.937255 0.388235 0.000000
0.000000 0.423529 0.000000
0.027451 0.419608 0.000000
0.054902 0.419608 0.000000
0.086275 0.419608 0.000000
0.117647 0.419608 0.000000
0.149020 0.419608 0.000000
0.180392 0.419608 0.000000
0.211765 0.419608 0.000000
0.243137 0.419608 0.000000
0.270588 0.419608 0.000000
0.298039 0.415686 0.000000
0.329412 0.415686 0.000000
0.356863 0.415686 0.000000
0.388235 0.415686 0.000000
0.415686 0.415686 0.000000
0.443137 0.415686 0.000000
0.470588 0.415686 0.000000
0.498039 0.415686 0.000000
0.529412 0.415686 0.000000
0.552941 0.415686 0.000000
0.576471 0.415686 0.000000
0.607843 0.415686 0.000000
0.627451 0.415686 0.000000
0.654902 0.415686 0.000000
0.678431 0.415686 0.000000
0.705882 0.415686 0.000000
0.725490 0.415686 0.000000
0.749020 0.419608 0.000000
0.776471 0.419608 0.000000
0.796078 0.415686 0.000000
0.819608 0.415686 0.000000
0.839216 0.415686 0.000000
0.866667 0.415686 0.000000
0.886275 0.415686 0.000000
0.913725 0.415686 0.000000
0.933333 0.415686 0.000000
0.000000 0.447059 0.000000
0.023529 0.447059 0.000000
0.054902 0.443137 0.000000
0.082353 0.443137 0.000000
0.117647 0.443137 0.000000
0.149020 0.443137 0.000000
0.180392 0.443137 0.000000
0.211765 0.443137 0.000000
0.239216 0.443137 0.000000
0.270588 0.443137 0.000000
0.298039 0.443137 0.000000
0.329412 0.439216 0.000000
0.356863 0.439216 0.000000
0.384314 0.439216 0.000000
0.415686 0.439216 0.000000
0.443137 0.439216 0.000000
0.466667 0.439216 0.000000
0.498039 0.439216 0.000000
0.525490 0.439216 0.000000
0.552941 0.439216 0.000000
0.576471 0.443137 0.000000
0.607843 0.439216 0.000000
0.627451 0.439216 0.000000
0.650980 0.439216 0.000000
0.678431 0.439216 0.000000
0.701961 0.439216 0.000000
0.725490 0.439216 0.000000
0.749020 0.443137 0.000000
0.776471 0.443137 0.000000
0.796078 0.443137 0.000000
0.815686 0.443137 0.000000
0.839216 0.439216 0.000000
0.862745 0.439216 0.000000
0.886275 0.439216 0.000000
0.909804 0.439216 0.000000
0.933333 0.439216 0.000000
0.000000 0.470588 0.000000
0.023529 0.470588 0.000000
0.050980 0.470588 0.000000
0.082353 0.470588 0.000000
0.113725 0.466667 0.000000
0.149020 0.466667 0.000000
0.176471 0.466667 0.000000
0.211765 0.466667 0.000000
0.239216 0.466667 0.000000
0.266667 0.466667 0.000000
0.298039 0.466667 0.000000
0.325490 0.466667 0.000000
0.356863 0.462745 0.000000
0.384314 0.462745 0.000000
0.411765 0.462745 0.000000
0.443137 0.462745 0.000000
0.466667 0.462745 0.000000
0.498039 0.462745 0.000000
0.525490 0.462745 0.000000
0.549020 0.462745 0.000000
0.576471 0.466667 0.000000
0.603922 0.466667 0.000000
0.627451 0.466667 0.000000
0.650980 0.462745 0.000000
0.674510 0.462745 0.000000
0.701961 0.462745 0.000000
0.721569 0.462745 0.000000
0.749020 0.466667 0.000000
0.772549 0.466667 0.000000
0.796078 0.466667 0.000000
0.815686 0.466667 0.000000
0.835294 0.466667 0.000000
0.862745 0.462745 0.000000
0.882353 0.462745 0.000000
0.909804 0.462745 0.000000
0.929412 0.462745 0.000000
0.000000 0.498039 0.000000
0.023529 0.498039 0.000000
0.050980 0.498039 0.000000
0.078431 0.498039 0.000000
0.113725 0.498039 0.000000
0.145098 0.494118 0.000000
0.176471 0.494118 0.000000
0.207843 0.494118 0.000000
0.239216 0.494118 0.000000
0.266667 0.494118 0.000000
0.294118 0.494118 0.000000
0.325490 0.494118 0.000000
0.352941 0.494118 0.000000
0.384314 0.494118 0.000000
0.411765 0.490196 0.000000
0.439216 0.490196 0.000000
0.466667 0.490196 0.000000
0.494118 0.490196 0.000000
0.525490 0.490196 0.000000
0.549020 0.490196 0.000000
0.572549 0.494118 0.000000
0.603922 0.494118 0.000000
0.623529 0.494118 0.000000
0.650980 0.494118 0.000000
0.674510 0.490196 0.000000
0.698039 0.490196 0.000000
0.721569 0.490196 0.000000
0.745098 0.494118 0.000000
0.772549 0.494118 0.000000
0.792157 0.494118 0.000000
0.815686 0.494118 0.000000
0.835294 0.494118 0.000000
0.858824 0.494118 0.000000
0.882353 0.494118 0.000000
0.905882 0.490196 0.000000
0.929412 0.490196 0.000000
0.000000 0.521569 0.000000
0.019608 0.521569 0.000000
0.050980 0.521569 0.000000
0.078431 0.521569 0.000000
0.109804 0.521569 0.000000
0.145098 0.521569 0.000000
0.172549 0.517647 0.000000
0.207843 0.517647 0.000000
0.235294 0.517647 0.000000
0.266667 0.517647 0.000000
0.294118 0.517647 0.000000
0.321569 0.517647 0.000000
0.352941 0.517647 0.000000
0.380392 0.517647 0.000000
0.411765 0.517647 0.000000
0.439216 0.513725 0.000000
0.462745 0.513725 0.000000
0.494118 0.513725 0.000000
0.521569 0.513725 0.000000
0.549020 0.513725 0.000000
0.572549 0.517647 0.000000
0.600000 0.517647 0.000000
0.623529 0.517647 0.000000
0.647059 0.517647 0.000000
0.674510 0.517647 0.000000
0.698039 0.517647 0.000000
0.717647 0.513725 0.000000
0.745098 0.517647 0.000000
0.768627 0.517647 0.000000
0.792157 0.517647 0.000000
0.811765 0.517647 0.000000
0.835294 0.517647 0.000000
0.858824 0.517647 0.000000
0.882353 0.517647 0.000000
0.905882 0.517647 0.000000
0.925490 0.513725 0.000000
0.000000 0.545098 0.000000
0.019608 0.545098 0.000000
0.047059 0.545098 0.000000
0.078431 0.545098 0.000000
0.109804 0.545098 0.000000
0.145098 0.545098 0.000000
0.172549 0.545098 0.000000
0.203922 0.545098 0.000000
0.235294 0.541176 0.000000
0.262745 0.541176 0.000000
0.294118 0.541176 0.000000
0.321569 0.541176 0.000000
0.352941 0.541176 0.000000
0.380392 0.541176 0.000000
0.407843 0.541176 0.000000
0.439216 0.541176 0.000000
0.462745 0.541176 0.000000
0.494118 0.537255 0.000000
0.521569 0.537255 0.000000
0.545098 0.537255 0.000000
0.572549 0.541176 0.000000
0.600000 0.541176 0.000000
0.619608 0.541176 0.000000
0.647059 0.541176 0.000000
0.670588 0.541176 0.000000
0.698039 0.541176 0.000000
0.717647 0.541176 0.000000
0.745098 0.541176 0.000000
0.768627 0.541176 0.000000
0.788235 0.541176 0.000000
0.811765 0.541176 0.000000
0.831373 0.541176 0.000000
0.858824 0.541176 0.000000
0.878431 0.541176 0.000000
0.905882 0.541176 0.000000
0.925490 0.541176 0.000000
0.000000 0.576471 0.000000
0.015686 0.572549 0.000000
0.047059 0.572549 0.000000
0.074510 0.572549 0.000000
0.109804 0.572549 0.000000
0.141176 0.572549 0.000000
0.168627 0.572549 0.000000
0.203922 0.572549 0.000000
0.231373 0.572549 0.000000
0.262745 0.568627 0.000000
0.290196 0.568627 0.000000
0.321569 0.568627 0.000000
0.349020 0.568627 0.000000
0.380392 0.568627 0.000000
0.407843 0.568627 0.000000
0.435294 0.568627 0.000000
0.462745 0.568627 0.000000
0.490196 0.568627 0.000000
0.521569 0.564706 0.000000
0.545098 0.564706 0.000000
0.568627 0.564706 0.000000
0.600000 0.564706 0.000000
0.619608 0.564706 0.000000
0.647059 0.564706 0.000000
0.670588 0.564706 0.000000
0.694118 0.564706 0.000000
0.717647 0.564706 0.000000
0.741176 0.568627 0.000000
0.768627 0.568627 0.000000
0.788235 0.564706 0.000000
0.807843 0.564706 0.000000
0.831373 0.564706 0.000000
0.854902 0.564706 0.000000
0.878431 0.564706 0.000000
0.901961 0.564706 0.000000
0.925490 0.564706 0.000000
0.000000 0.596078 0.000000
0.015686 0.596078 0.000000
0.043137 0.592157 0.000000
0.074510 0.592157 0.000000
0.105882 0.592157 0.000000
0.141176 0.592157 0.000000
0.168627 0.592157 0.000000
0.203922 0.592157 0.000000
0.231373 0.592157 0.000000
0.262745 0.592157 0.000000
0.290196 0.592157 0.000000
0.317647 0.588235 0.000000
0.349020 0.588235 0.000000
0.376471 0.588235 0.000000
0.407843 0.588235 0.000000
0.435294 0.588235 0.000000
0.458824 0.588235 0.000000
0.490196 0.588235 0.000000
0.517647 0.588235 0.000000
0.545098 0.584314 0.000000
0.568627 0.584314 0.000000
0.600000 0.584314 0.000000
0.619608 0.584314 0.000000
0.643137 0.584314 0.000000
0.670588 0.584314 0.000000
0.694118 0.584314 0.000000
0.713725 0.584314 0.000000
0.741176 0.588235 0.000000
0.764706 0.588235 0.000000
0.788235 0.588235 0.000000
0.807843 0.584314 0.000000
0.827451 0.584314 0.000000
0.854902 0.584314 0.000000
0.874510 0.584314 0.000000
0.901961 0.584314 0.000000
0.921569 0.584314 0.000000
0.000000 0.619608 0.000000
0.011765 0.619608 0.000000
0.043137 0.619608 0.000000
0.070588 0.619608 0.000000
0.105882 0.615686 0.000000
0.137255 0.615686 0.000000
0.168627 0.615686 0.000000
0.200000 0.615686 0.000000
0.231373 0.615686 0.000000
0.258824 0.615686 0.000000
0.290196 0.615686 0.000000
0.317647 0.615686 0.000000
0.345098 0.611765 0.000000
0.376471 0.611765 0.000000
0.403922 0.611765 0.000000
0.435294 0.611765 0.000000
0.458824 0.611765 0.000000
0.490196 0.611765 0.000000
0.517647 0.611765 0.000000
0.541176 0.611765 0.000000
0.568627 0.611765 0.000000
0.596078 0.607843 0.000000
0.615686 0.607843 0.000000
0.643137 0.607843 0.000000
0.666667 0.607843 0.000000
0.694118 0.607843 0.000000
0.713725 0.607843 0.000000
0.737255 0.611765 0.000000
0.764706 0.611765 0.000000
0.784314 0.611765 0.000000
0.807843 0.611765 0.000000
0.827451 0.611765 0.000000
0.854902 0.607843 0.000000
0.874510 0.607843 0.000000
0.901961 0.607843 0.000000
0.921569 0.607843 0.000000
0.000000 0.643137 0.000000
0.011765 0.643137 0.000000
0.039216 0.643137 0.000000
0.070588 0.643137 0.000000
0.101961 0.643137 0.000000
0.137255 0.639216 0.000000
0.164706 0.639216 0.000000
0.200000 0.639216 0.000000
0.227451 0.639216 0.000000
0.258824 0.639216 0.000000
0.286275 0.639216 0.000000
0.317647 0.639216 0.000000
0.345098 0.639216 0.000000
0.372549 0.635294 0.000000
0.403922 0.635294 0.000000
0.431373 0.635294 0.000000
0.458824 0.635294 0.000000
0.486275 0.635294 0.000000
0.517647 0.635294 0.000000
0.541176 0.635294 0.000000
0.564706 0.635294 0.000000
0.596078 0.635294 0.000000
0.615686 0.631373 0.000000
