luts/subtle/super-8.cube
TITLE "super-8 (subtle)"
LUT_3D_SIZE 8
0.019608 0.003922 0.015686
0.168627 0.003922 0.011765
0.317647 0.000000 0.011765
0.466667 0.000000 0.007843
0.600000 0.000000 0.003922
0.729412 0.000000 0.003922
0.843137 0.000000 0.000000
0.960784 0.000000 0.000000
0.011765 0.149020 0.007843
0.164706 0.149020 0.007843
0.313725 0.145098 0.003922
0.458824 0.145098 0.000000
0.592157 0.145098 0.000000
0.721569 0.141176 0.000000
0.835294 0.145098 0.000000
0.952941 0.141176 0.000000
0.003922 0.286275 0.000000
0.156863 0.282353 0.000000
0.305882 0.282353 0.000000
0.450980 0.278431 0.000000
0.584314 0.282353 0.000000
0.713725 0.278431 0.000000
0.827451 0.282353 0.000000
0.941176 0.278431 0.000000
0.000000 0.423529 0.000000
0.149020 0.419608 0.000000
0.298039 0.415686 0.000000
0.443137 0.415686 0.000000
0.576471 0.415686 0.000000
0.705882 0.415686 0.000000
0.819608 0.415686 0.000000
0.933333 0.415686 0.000000
0.000000 0.545098 0.000000
0.145098 0.545098 0.000000
0.294118 0.541176 0.000000
0.439216 0.541176 0.000000
0.572549 0.541176 0.000000
0.698039 0.541176 0.000000
0.811765 0.541176 0.000000
0.925490 0.541176 0.000000
0.000000 0.662745 0.000000
0.133333 0.662745 0.000000
0.286275 0.658824 0.000000
0.431373 0.654902 0.000000
0.564706 0.654902 0.000000
0.690196 0.650980 0.000000
0.803922 0.654902 0.000000
0.917647 0.650980 0.000000
0.000000 0.772549 0.000000
0.125490 0.768627 0.000000
0.278431 0.768627 0.000000
0.423529 0.764706 0.000000
0.556863 0.764706 0.000000
0.682353 0.760784 0.000000
0.796078 0.760784 0.000000
0.909804 0.756863 0.000000
0.000000 0.878431 0.000000
0.117647 0.874510 0.000000
0.270588 0.874510 0.000000
0.415686 0.870588 0.000000
0.552941 0.866667 0.000000
0.678431 0.866667 0.000000
0.792157 0.862745 0.000000
0.905882 0.862745 0.000000
0.015686 0.003922 0.152941
0.168627 0.003922 0.152941
0.317647 0.000000 0.152941
0.466667 0.000000 0.149020
0.600000 0.000000 0.149020
0.729412 0.000000 0.145098
0.843137 0.000000 0.145098
0.960784 0.000000 0.141176
0.011765 0.149020 0.149020
0.164706 0.145098 0.145098
0.309804 0.145098 0.145098
0.454902 0.145098 0.141176
0.588235 0.145098 0.141176
0.717647 0.145098 0.137255
0.831373 0.145098 0.137255
0.949020 0.141176 0.133333
0.003922 0.286275 0.141176
0.156863 0.282353 0.141176
0.305882 0.282353 0.141176
0.450980 0.282353 0.137255
0.584314 0.282353 0.133333
0.709804 0.282353 0.129412
0.823529 0.278431 0.129412
0.937255 0.278431 0.125490
0.000000 0.419608 0.137255
0.152941 0.419608 0.133333
0.298039 0.415686 0.133333
0.443137 0.419608 0.129412
0.576471 0.415686 0.125490
0.701961 0.419608 0.121569
0.815686 0.415686 0.121569
0.929412 0.415686 0.117647
0.000000 0.545098 0.129412
0.145098 0.545098 0.125490
0.294118 0.545098 0.125490
0.439216 0.541176 0.121569
0.568627 0.541176 0.121569
0.694118 0.541176 0.117647
0.807843 0.541176 0.113725
0.921569 0.537255 0.109804
0.000000 0.662745 0.121569
0.137255 0.662745 0.117647
0.286275 0.662745 0.117647
0.431373 0.658824 0.113725
0.564706 0.658824 0.113725
0.690196 0.654902 0.109804
0.803922 0.654902 0.105882
0.917647 0.650980 0.101961
0.000000 0.772549 0.109804
0.129412 0.768627 0.113725
0.278431 0.764706 0.109804
0.423529 0.764706 0.105882
0.556863 0.760784 0.105882
0.682353 0.760784 0.101961
0.796078 0.756863 0.101961
0.909804 0.756863 0.094118
0.000000 0.878431 0.101961
0.121569 0.874510 0.101961
0.270588 0.870588 0.101961
0.415686 0.870588 0.098039
0.552941 0.866667 0.094118
0.678431 0.862745 0.094118
0.788235 0.862745 0.090196
0.901961 0.858824 0.090196
0.015686 0.003922 0.294118
0.168627 0.003922 0.290196
0.317647 0.000000 0.290196
0.462745 0.000000 0.286275
0.600000 0.000000 0.286275
0.725490 0.000000 0.286275
0.843137 0.000000 0.282353
0.960784 0.000000 0.282353
0.011765 0.149020 0.286275
0.164706 0.145098 0.282353
0.309804 0.145098 0.282353
0.454902 0.145098 0.278431
0.588235 0.149020 0.278431
0.713725 0.145098 0.278431
0.831373 0.145098 0.274510
0.945098 0.141176 0.274510
0.003922 0.282353 0.278431
0.156863 0.282353 0.278431
0.305882 0.282353 0.274510
0.447059 0.282353 0.274510
0.580392 0.286275 0.270588
0.705882 0.282353 0.270588
0.819608 0.278431 0.266667
0.933333 0.278431 0.266667
0.000000 0.419608 0.274510
0.149020 0.423529 0.270588
0.298039 0.419608 0.270588
0.443137 0.419608 0.266667
0.576471 0.419608 0.266667
0.698039 0.419608 0.262745
0.811765 0.415686 0.258824
0.925490 0.415686 0.258824
0.000000 0.545098 0.266667
0.145098 0.545098 0.266667
0.294118 0.549020 0.262745
0.439216 0.545098 0.262745
0.568627 0.545098 0.258824
0.694118 0.541176 0.258824
0.807843 0.541176 0.254902
0.921569 0.537255 0.250980
0.000000 0.662745 0.258824
0.137255 0.662745 0.258824
0.286275 0.658824 0.258824
0.431373 0.658824 0.254902
0.564706 0.654902 0.254902
0.686275 0.654902 0.250980
0.800000 0.650980 0.247059
0.913725 0.650980 0.243137
0.000000 0.772549 0.250980
0.129412 0.768627 0.250980
0.278431 0.764706 0.250980
0.423529 0.760784 0.247059
0.556863 0.760784 0.247059
0.682353 0.756863 0.243137
0.796078 0.756863 0.243137
0.909804 0.756863 0.239216
0.000000 0.878431 0.243137
0.121569 0.874510 0.243137
0.274510 0.870588 0.243137
0.419608 0.866667 0.239216
0.552941 0.866667 0.239216
0.678431 0.862745 0.235294
0.788235 0.862745 0.235294
0.901961 0.858824 0.231373
0.015686 0.003922 0.427451
0.168627 0.000000 0.423529
0.317647 0.000000 0.423529
0.462745 0.000000 0.423529
0.600000 0.000000 0.419608
0.725490 0.000000 0.419608
0.843137 0.000000 0.419608
0.960784 0.000000 0.419608
0.007843 0.149020 0.419608
0.160784 0.145098 0.415686
0.309804 0.145098 0.415686
0.454902 0.145098 0.411765
0.588235 0.149020 0.411765
0.713725 0.145098 0.411765
0.831373 0.141176 0.407843
0.945098 0.141176 0.407843
0.003922 0.282353 0.411765
0.156863 0.282353 0.411765
0.305882 0.282353 0.407843
0.447059 0.286275 0.407843
0.580392 0.282353 0.403922
0.705882 0.282353 0.403922
0.819608 0.278431 0.400000
0.933333 0.278431 0.400000
0.000000 0.419608 0.407843
0.149020 0.419608 0.403922
0.298039 0.423529 0.403922
0.443137 0.419608 0.400000
0.572549 0.419608 0.400000
0.698039 0.419608 0.396078
0.811765 0.415686 0.396078
0.925490 0.415686 0.392157
0.000000 0.545098 0.400000
0.141176 0.545098 0.400000
0.294118 0.545098 0.396078
0.435294 0.545098 0.396078
0.568627 0.545098 0.392157
0.690196 0.541176 0.392157
0.803922 0.541176 0.388235
0.917647 0.537255 0.388235
0.000000 0.662745 0.396078
0.137255 0.662745 0.392157
0.286275 0.658824 0.392157
0.431373 0.658824 0.392157
0.564706 0.654902 0.388235
0.686275 0.654902 0.388235
0.800000 0.650980 0.384314
0.909804 0.650980 0.380392
0.000000 0.772549 0.388235
0.129412 0.768627 0.384314
0.278431 0.764706 0.384314
0.427451 0.760784 0.384314
0.556863 0.760784 0.384314
0.682353 0.756863 0.380392
0.792157 0.756863 0.380392
0.905882 0.752941 0.376471
0.000000 0.874510 0.380392
0.117647 0.870588 0.380392
0.274510 0.866667 0.376471
0.419608 0.866667 0.376471
0.552941 0.862745 0.376471
0.678431 0.862745 0.372549
0.788235 0.858824 0.372549
0.901961 0.858824 0.368627
0.015686 0.003922 0.556863
0.168627 0.000000 0.552941
0.317647 0.000000 0.549020
0.462745 0.000000 0.549020
0.596078 0.000000 0.549020
0.725490 0.000000 0.549020
0.843137 0.000000 0.545098
0.956863 0.000000 0.545098
0.007843 0.149020 0.549020
0.160784 0.149020 0.541176
0.309804 0.145098 0.541176
0.454902 0.145098 0.537255
0.588235 0.145098 0.537255
0.713725 0.145098 0.537255
0.827451 0.141176 0.537255
0.945098 0.137255 0.537255
0.000000 0.282353 0.541176
0.156863 0.286275 0.537255
0.301961 0.286275 0.533333
0.447059 0.286275 0.529412
0.580392 0.282353 0.529412
0.705882 0.282353 0.529412
0.819608 0.278431 0.529412
0.933333 0.278431 0.525490
0.000000 0.419608 0.533333
0.149020 0.419608 0.529412
0.298039 0.423529 0.525490
0.443137 0.419608 0.525490
0.572549 0.419608 0.521569
0.698039 0.415686 0.521569
0.807843 0.415686 0.521569
0.921569 0.411765 0.517647
0.000000 0.545098 0.525490
0.141176 0.545098 0.525490
0.294118 0.545098 0.521569
0.435294 0.545098 0.517647
0.568627 0.541176 0.517647
0.690196 0.541176 0.517647
0.803922 0.541176 0.513725
0.913725 0.537255 0.513725
0.000000 0.658824 0.521569
0.133333 0.662745 0.517647
0.286275 0.658824 0.517647
0.431373 0.654902 0.513725
0.564706 0.654902 0.513725
0.686275 0.654902 0.513725
0.796078 0.650980 0.509804
0.909804 0.650980 0.505882
0.000000 0.768627 0.513725
0.125490 0.764706 0.513725
0.278431 0.764706 0.509804
0.427451 0.760784 0.509804
0.556863 0.756863 0.509804
0.682353 0.756863 0.505882
0.792157 0.756863 0.505882
0.905882 0.752941 0.501961
0.000000 0.874510 0.505882
0.117647 0.870588 0.505882
0.270588 0.866667 0.505882
0.419608 0.866667 0.501961
0.552941 0.862745 0.501961
0.678431 0.862745 0.501961
0.788235 0.858824 0.498039
0.898039 0.858824 0.498039
0.015686 0.007843 0.670588
0.168627 0.003922 0.670588
0.317647 0.000000 0.666667
0.466667 0.000000 0.662745
0.600000 0.000000 0.662745
0.725490 0.000000 0.662745
0.839216 0.000000 0.662745
0.956863 0.000000 0.662745
0.007843 0.149020 0.662745
0.160784 0.152941 0.658824
0.309804 0.149020 0.654902
0.454902 0.149020 0.654902
0.588235 0.145098 0.650980
0.713725 0.145098 0.650980
0.827451 0.141176 0.650980
0.945098 0.137255 0.650980
0.000000 0.286275 0.654902
0.152941 0.290196 0.650980
0.301961 0.286275 0.647059
0.447059 0.286275 0.643137
0.580392 0.282353 0.643137
0.705882 0.282353 0.643137
0.819608 0.278431 0.639216
0.933333 0.274510 0.639216
0.000000 0.423529 0.647059
0.145098 0.423529 0.643137
0.298039 0.423529 0.639216
0.443137 0.419608 0.635294
0.572549 0.419608 0.635294
0.698039 0.415686 0.635294
0.807843 0.415686 0.631373
0.921569 0.411765 0.631373
0.000000 0.549020 0.639216
0.141176 0.549020 0.635294
0.290196 0.545098 0.635294
0.435294 0.545098 0.631373
0.568627 0.541176 0.627451
0.690196 0.541176 0.627451
0.800000 0.541176 0.627451
0.913725 0.537255 0.627451
0.000000 0.658824 0.635294
0.133333 0.662745 0.631373
0.286275 0.658824 0.627451
0.431373 0.654902 0.627451
0.564706 0.654902 0.623529
0.686275 0.650980 0.623529
0.796078 0.650980 0.623529
0.909804 0.650980 0.619608
0.000000 0.768627 0.627451
0.125490 0.764706 0.627451
0.278431 0.760784 0.623529
0.427451 0.760784 0.623529
0.556863 0.756863 0.619608
0.682353 0.756863 0.619608
0.792157 0.756863 0.619608
0.901961 0.752941 0.615686
0.000000 0.874510 0.623529
0.117647 0.870588 0.619608
0.270588 0.866667 0.619608
0.419608 0.862745 0.615686
0.552941 0.862745 0.615686
0.678431 0.858824 0.615686
0.788235 0.858824 0.611765
0.898039 0.858824 0.611765
0.011765 0.007843 0.780392
0.168627 0.007843 0.776471
0.317647 0.003922 0.776471
0.466667 0.000000 0.772549
0.600000 0.000000 0.768627
0.725490 0.000000 0.768627
0.839216 0.000000 0.768627
0.956863 0.000000 0.768627
0.003922 0.152941 0.772549
0.160784 0.152941 0.764706
0.309804 0.149020 0.760784
0.454902 0.145098 0.760784
0.588235 0.145098 0.756863
0.713725 0.141176 0.756863
0.827451 0.141176 0.756863
0.945098 0.137255 0.756863
0.000000 0.290196 0.764706
0.152941 0.286275 0.756863
0.301961 0.286275 0.752941
0.447059 0.282353 0.749020
0.580392 0.282353 0.749020
0.705882 0.278431 0.745098
0.815686 0.278431 0.745098
0.933333 0.274510 0.745098
0.000000 0.427451 0.752941
0.145098 0.423529 0.749020
0.294118 0.423529 0.745098
0.439216 0.419608 0.741176
0.572549 0.419608 0.741176
0.698039 0.415686 0.737255
0.807843 0.415686 0.737255
0.921569 0.411765 0.737255
0.000000 0.552941 0.749020
0.137255 0.549020 0.741176
0.290196 0.545098 0.737255
0.435294 0.545098 0.737255
0.568627 0.541176 0.733333
0.690196 0.541176 0.733333
0.800000 0.537255 0.729412
0.913725 0.537255 0.729412
0.000000 0.662745 0.741176
0.133333 0.658824 0.737255
0.282353 0.658824 0.733333
0.431373 0.654902 0.729412
0.560784 0.654902 0.729412
0.686275 0.650980 0.725490
0.796078 0.650980 0.725490
0.905882 0.650980 0.725490
0.000000 0.768627 0.733333
0.125490 0.764706 0.729412
0.278431 0.760784 0.729412
0.423529 0.760784 0.725490
0.556863 0.756863 0.725490
0.682353 0.756863 0.721569
0.792157 0.752941 0.721569
0.901961 0.752941 0.721569
0.000000 0.874510 0.729412
0.117647 0.870588 0.725490
0.270588 0.866667 0.721569
0.419608 0.862745 0.721569
0.552941 0.862745 0.717647
0.678431 0.858824 0.717647
0.788235 0.858824 0.717647
0.898039 0.858824 0.717647
0.011765 0.007843 0.890196
0.168627 0.003922 0.886275
0.317647 0.003922 0.882353
0.466667 0.000000 0.882353
0.600000 0.000000 0.878431
0.725490 0.000000 0.874510
0.839216 0.000000 0.874510
0.956863 0.000000 0.874510
0.003922 0.152941 0.878431
0.160784 0.149020 0.874510
0.309804 0.149020 0.870588
0.454902 0.145098 0.866667
0.588235 0.145098 0.866667
0.713725 0.141176 0.862745
0.827451 0.141176 0.862745
0.941176 0.137255 0.862745
0.000000 0.290196 0.870588
0.152941 0.286275 0.866667
0.301961 0.286275 0.858824
0.447059 0.282353 0.858824
0.580392 0.282353 0.854902
0.705882 0.278431 0.854902
0.815686 0.278431 0.850980
0.933333 0.274510 0.850980
0.000000 0.427451 0.862745
0.145098 0.423529 0.858824
0.294118 0.419608 0.850980
0.439216 0.419608 0.847059
0.572549 0.415686 0.847059
0.698039 0.415686 0.843137
0.807843 0.415686 0.843137
0.921569 0.411765 0.843137
0.000000 0.552941 0.854902
0.137255 0.549020 0.850980
0.286275 0.545098 0.843137
0.435294 0.545098 0.839216
0.564706 0.541176 0.839216
0.690196 0.541176 0.835294
0.800000 0.537255 0.835294
0.913725 0.537255 0.835294
0.000000 0.662745 0.847059
0.129412 0.658824 0.843137
0.282353 0.658824 0.839216
0.427451 0.654902 0.835294
0.560784 0.654902 0.831373
0.686275 0.650980 0.831373
0.796078 0.650980 0.827451
0.905882 0.647059 0.827451
0.000000 0.768627 0.843137
0.125490 0.764706 0.835294
0.278431 0.760784 0.835294
0.423529 0.760784 0.831373
0.556863 0.756863 0.827451
0.682353 0.756863 0.827451
0.792157 0.752941 0.823529
0.901961 0.752941 0.823529
0.000000 0.874510 0.835294
0.117647 0.870588 0.831373
0.270588 0.866667 0.827451
0.419608 0.862745 0.827451
0.552941 0.862745 0.823529
0.678431 0.858824 0.823529
0.788235 0.858824 0.819608
0.898039 0.854902 0.819608
