luts/subtle/terracotta.cube
TITLE "terracotta (subtle)"
LUT_3D_SIZE 8
0.007843 0.007843 0.007843
0.121569 0.007843 0.007843
0.266667 0.007843 0.007843
0.411765 0.007843 0.007843
0.552941 0.007843 0.007843
0.698039 0.007843 0.007843
0.835294 0.007843 0.007843
0.976471 0.007843 0.007843
0.007843 0.105882 0.007843
0.129412 0.105882 0.007843
0.266667 0.113725 0.007843
0.415686 0.113725 0.007843
0.549020 0.113725 0.007843
0.698039 0.117647 0.007843
0.839216 0.125490 0.007843
0.980392 0.129412 0.007843
0.007843 0.243137 0.007843
0.133333 0.247059 0.007843
0.274510 0.247059 0.007843
0.411765 0.247059 0.007843
0.560784 0.254902 0.007843
0.698039 0.258824 0.007843
0.835294 0.258824 0.007843
0.988235 0.266667 0.007843
0.007843 0.388235 0.007843
0.133333 0.384314 0.007843
0.278431 0.388235 0.007843
0.419608 0.392157 0.007843
0.560784 0.388235 0.007843
0.705882 0.400000 0.007843
0.843137 0.403922 0.007843
0.980392 0.400000 0.007843
0.007843 0.521569 0.007843
0.133333 0.521569 0.007843
0.278431 0.525490 0.007843
0.423529 0.525490 0.007843
0.560784 0.529412 0.007843
0.709804 0.533333 0.007843
0.843137 0.541176 0.007843
0.988235 0.541176 0.007843
0.007843 0.662745 0.007843
0.141176 0.666667 0.007843
0.282353 0.662745 0.007843
0.423529 0.666667 0.007843
0.568627 0.670588 0.007843
0.705882 0.666667 0.007843
0.850980 0.674510 0.007843
0.988235 0.678431 0.007843
0.007843 0.803922 0.007843
0.141176 0.800000 0.007843
0.282353 0.807843 0.007843
0.431373 0.807843 0.007843
0.564706 0.807843 0.007843
0.717647 0.811765 0.011765
0.854902 0.811765 0.007843
0.988235 0.807843 0.007843
0.007843 0.945098 0.007843
0.145098 0.945098 0.007843
0.286275 0.945098 0.007843
0.435294 0.945098 0.011765
0.576471 0.945098 0.007843
0.713725 0.945098 0.007843
0.858824 0.945098 0.011765
0.988235 0.945098 0.011765
0.007843 0.007843 0.113725
0.125490 0.007843 0.113725
0.266667 0.007843 0.113725
0.407843 0.007843 0.121569
0.549020 0.007843 0.113725
0.694118 0.007843 0.121569
0.835294 0.007843 0.117647
0.976471 0.007843 0.117647
0.007843 0.109804 0.113725
0.125490 0.109804 0.113725
0.266667 0.113725 0.117647
0.415686 0.117647 0.121569
0.556863 0.117647 0.121569
0.694118 0.121569 0.113725
0.839216 0.129412 0.125490
0.980392 0.129412 0.117647
0.007843 0.243137 0.117647
0.133333 0.247059 0.121569
0.274510 0.247059 0.117647
0.415686 0.247059 0.121569
0.560784 0.254902 0.121569
0.701961 0.262745 0.125490
0.839216 0.258824 0.125490
0.984314 0.262745 0.125490
0.007843 0.384314 0.117647
0.133333 0.388235 0.121569
0.278431 0.392157 0.121569
0.415686 0.388235 0.121569
0.560784 0.396078 0.125490
0.701961 0.403922 0.125490
0.839216 0.400000 0.125490
0.980392 0.403922 0.125490
0.007843 0.525490 0.125490
0.137255 0.529412 0.121569
0.278431 0.525490 0.125490
0.423529 0.533333 0.125490
0.564706 0.533333 0.125490
0.701961 0.533333 0.125490
0.850980 0.541176 0.129412
0.988235 0.541176 0.129412
0.007843 0.662745 0.125490
0.141176 0.670588 0.129412
0.282353 0.670588 0.125490
0.419608 0.670588 0.125490
0.568627 0.678431 0.129412
0.705882 0.674510 0.129412
0.843137 0.674510 0.133333
0.988235 0.682353 0.133333
0.007843 0.803922 0.125490
0.141176 0.803922 0.125490
0.286275 0.807843 0.133333
0.423529 0.807843 0.125490
0.572549 0.807843 0.133333
0.713725 0.811765 0.129412
0.850980 0.811765 0.133333
0.988235 0.811765 0.137255
0.007843 0.941176 0.133333
0.141176 0.945098 0.125490
0.286275 0.945098 0.133333
0.427451 0.945098 0.129412
0.568627 0.945098 0.133333
0.717647 0.945098 0.137255
0.854902 0.945098 0.137255
0.988235 0.945098 0.141176
0.007843 0.007843 0.243137
0.129412 0.007843 0.239216
0.274510 0.007843 0.247059
0.411765 0.007843 0.239216
0.556863 0.007843 0.247059
0.698039 0.007843 0.247059
0.835294 0.007843 0.247059
0.980392 0.007843 0.254902
0.007843 0.109804 0.243137
0.121569 0.109804 0.243137
0.270588 0.117647 0.247059
0.415686 0.113725 0.247059
0.552941 0.117647 0.247059
0.701961 0.125490 0.247059
0.835294 0.129412 0.250980
0.984314 0.129412 0.247059
0.007843 0.243137 0.247059
0.133333 0.250980 0.247059
0.274510 0.250980 0.247059
0.415686 0.254902 0.250980
0.560784 0.262745 0.250980
0.698039 0.262745 0.250980
0.839216 0.266667 0.250980
0.980392 0.266667 0.254902
0.007843 0.384314 0.247059
0.137255 0.388235 0.250980
0.270588 0.396078 0.247059
0.419608 0.392157 0.250980
0.560784 0.403922 0.250980
0.709804 0.403922 0.254902
0.847059 0.400000 0.258824
0.984314 0.400000 0.250980
0.007843 0.521569 0.247059
0.133333 0.529412 0.247059
0.282353 0.537255 0.258824
0.419608 0.537255 0.250980
0.560784 0.537255 0.254902
0.701961 0.541176 0.250980
0.843137 0.541176 0.258824
0.988235 0.541176 0.262745
0.007843 0.666667 0.258824
0.141176 0.670588 0.250980
0.282353 0.666667 0.254902
0.423529 0.670588 0.258824
0.572549 0.674510 0.258824
0.713725 0.674510 0.262745
0.850980 0.674510 0.258824
0.988235 0.678431 0.262745
0.007843 0.803922 0.254902
0.137255 0.803922 0.254902
0.282353 0.807843 0.258824
0.431373 0.807843 0.258824
0.564706 0.807843 0.258824
0.717647 0.811765 0.262745
0.850980 0.815686 0.266667
0.988235 0.811765 0.258824
0.007843 0.945098 0.258824
0.145098 0.945098 0.258824
0.286275 0.945098 0.258824
0.435294 0.945098 0.262745
0.576471 0.945098 0.266667
0.713725 0.945098 0.258824
0.858824 0.945098 0.270588
0.988235 0.945098 0.270588
0.007843 0.007843 0.368627
0.125490 0.007843 0.372549
0.266667 0.007843 0.368627
0.411765 0.007843 0.372549
0.556863 0.007843 0.372549
0.694118 0.007843 0.372549
0.835294 0.007843 0.380392
0.980392 0.007843 0.376471
0.007843 0.113725 0.368627
0.129412 0.113725 0.368627
0.274510 0.113725 0.376471
0.415686 0.117647 0.372549
0.556863 0.117647 0.376471
0.701961 0.129412 0.376471
0.839216 0.129412 0.380392
0.980392 0.125490 0.380392
0.007843 0.247059 0.376471
0.133333 0.247059 0.376471
0.266667 0.250980 0.368627
0.419608 0.254902 0.380392
0.556863 0.262745 0.376471
0.705882 0.262745 0.380392
0.839216 0.266667 0.388235
0.984314 0.262745 0.380392
0.007843 0.388235 0.376471
0.137255 0.392157 0.380392
0.278431 0.396078 0.376471
0.419608 0.400000 0.380392
0.564706 0.403922 0.388235
0.701961 0.403922 0.380392
0.847059 0.403922 0.388235
0.988235 0.407843 0.384314
0.007843 0.525490 0.384314
0.137255 0.529412 0.376471
0.282353 0.533333 0.384314
0.427451 0.537255 0.388235
0.568627 0.537255 0.380392
0.713725 0.541176 0.392157
0.850980 0.541176 0.388235
0.988235 0.541176 0.388235
0.007843 0.666667 0.384314
0.141176 0.670588 0.388235
0.282353 0.670588 0.380392
0.423529 0.674510 0.388235
0.568627 0.678431 0.388235
0.705882 0.674510 0.388235
0.850980 0.678431 0.396078
0.988235 0.682353 0.392157
0.007843 0.807843 0.380392
0.145098 0.807843 0.388235
0.286275 0.807843 0.388235
0.431373 0.811765 0.388235
0.576471 0.811765 0.396078
0.713725 0.811765 0.388235
0.854902 0.815686 0.392157
0.988235 0.815686 0.400000
0.007843 0.945098 0.388235
0.141176 0.945098 0.384314
0.290196 0.945098 0.396078
0.427451 0.945098 0.396078
0.568627 0.945098 0.388235
0.717647 0.945098 0.400000
0.854902 0.945098 0.392157
0.988235 0.945098 0.400000
0.007843 0.007843 0.501961
0.129412 0.007843 0.494118
0.266667 0.007843 0.501961
0.415686 0.007843 0.505882
0.549020 0.007843 0.501961
0.698039 0.007843 0.505882
0.835294 0.007843 0.505882
0.984314 0.007843 0.509804
0.007843 0.113725 0.498039
0.133333 0.121569 0.505882
0.274510 0.121569 0.509804
0.411765 0.117647 0.501961
0.560784 0.125490 0.513725
0.698039 0.129412 0.505882
0.835294 0.125490 0.509804
0.980392 0.129412 0.505882
0.007843 0.250980 0.509804
0.133333 0.254902 0.501961
0.274510 0.254902 0.501961
0.415686 0.258824 0.509804
0.560784 0.262745 0.509804
0.698039 0.258824 0.509804
0.839216 0.262745 0.505882
0.984314 0.266667 0.513725
0.007843 0.384314 0.501961
0.133333 0.392157 0.509804
0.278431 0.400000 0.509804
0.415686 0.400000 0.509804
0.560784 0.403922 0.505882
0.709804 0.403922 0.513725
0.839216 0.403922 0.513725
0.988235 0.407843 0.517647
0.007843 0.521569 0.509804
0.137255 0.529412 0.509804
0.282353 0.537255 0.513725
0.419608 0.537255 0.509804
0.564706 0.537255 0.513725
0.709804 0.541176 0.521569
0.847059 0.541176 0.513725
0.988235 0.541176 0.521569
0.007843 0.666667 0.513725
0.141176 0.666667 0.509804
0.278431 0.670588 0.509804
0.431373 0.674510 0.521569
0.564706 0.674510 0.513725
0.713725 0.674510 0.521569
0.850980 0.682353 0.517647
0.988235 0.674510 0.521569
0.007843 0.803922 0.509804
0.141176 0.807843 0.517647
0.286275 0.807843 0.521569
0.423529 0.807843 0.517647
0.572549 0.811765 0.521569
0.713725 0.815686 0.521569
0.850980 0.811765 0.521569
0.988235 0.819608 0.525490
0.011765 0.945098 0.521569
0.149020 0.945098 0.517647
0.286275 0.945098 0.521569
0.435294 0.945098 0.521569
0.576471 0.945098 0.521569
0.717647 0.945098 0.529412
0.858824 0.945098 0.525490
0.988235 0.945098 0.529412
0.007843 0.007843 0.631373
0.129412 0.007843 0.631373
0.270588 0.007843 0.623529
0.415686 0.007843 0.635294
0.556863 0.007843 0.631373
0.698039 0.007843 0.635294
0.839216 0.007843 0.643137
0.980392 0.007843 0.635294
0.007843 0.113725 0.623529
0.133333 0.121569 0.631373
0.266667 0.121569 0.631373
0.415686 0.121569 0.631373
0.556863 0.129412 0.639216
0.705882 0.129412 0.635294
0.843137 0.125490 0.635294
0.984314 0.129412 0.643137
0.007843 0.250980 0.631373
0.129412 0.254902 0.635294
0.278431 0.262745 0.639216
0.415686 0.262745 0.639216
0.556863 0.262745 0.631373
0.701961 0.266667 0.643137
0.839216 0.266667 0.643137
0.988235 0.266667 0.643137
0.007843 0.396078 0.639216
0.137255 0.396078 0.639216
0.278431 0.396078 0.639216
0.423529 0.403922 0.643137
0.564706 0.400000 0.643137
0.709804 0.403922 0.643137
0.850980 0.407843 0.647059
0.988235 0.407843 0.643137
0.007843 0.525490 0.639216
0.137255 0.537255 0.639216
0.278431 0.537255 0.639216
0.427451 0.533333 0.647059
0.564706 0.541176 0.643137
0.713725 0.541176 0.647059
0.843137 0.545098 0.643137
0.988235 0.541176 0.647059
0.007843 0.666667 0.643137
0.141176 0.670588 0.647059
0.286275 0.674510 0.643137
0.431373 0.674510 0.647059
0.572549 0.674510 0.643137
0.713725 0.678431 0.647059
0.854902 0.678431 0.650980
0.988235 0.678431 0.647059
0.011765 0.807843 0.647059
0.149020 0.807843 0.647059
0.282353 0.807843 0.647059
0.435294 0.811765 0.647059
0.576471 0.811765 0.647059
0.713725 0.807843 0.650980
0.854902 0.811765 0.647059
0.988235 0.815686 0.654902
0.007843 0.945098 0.647059
0.152941 0.945098 0.647059
0.294118 0.945098 0.647059
0.431373 0.945098 0.650980
0.576471 0.945098 0.647059
0.717647 0.945098 0.654902
0.854902 0.945098 0.647059
0.988235 0.945098 0.654902
0.007843 0.007843 0.756863
0.125490 0.007843 0.756863
0.266667 0.007843 0.756863
0.411765 0.007843 0.764706
0.556863 0.007843 0.760784
0.694118 0.007843 0.764706
0.835294 0.007843 0.760784
0.980392 0.007843 0.768627
0.007843 0.117647 0.752941
0.133333 0.125490 0.764706
0.274510 0.121569 0.764706
0.411765 0.121569 0.760784
0.560784 0.129412 0.768627
0.698039 0.129412 0.764706
0.835294 0.125490 0.764706
0.984314 0.133333 0.768627
0.007843 0.258824 0.764706
0.133333 0.258824 0.760784
0.278431 0.258824 0.764706
0.419608 0.262745 0.768627
0.560784 0.262745 0.764706
0.705882 0.262745 0.768627
0.847059 0.266667 0.768627
0.984314 0.266667 0.768627
0.007843 0.400000 0.764706
0.137255 0.400000 0.768627
0.278431 0.400000 0.764706
0.419608 0.403922 0.768627
0.564706 0.403922 0.772549
0.701961 0.403922 0.768627
0.847059 0.407843 0.772549
0.988235 0.411765 0.772549
0.007843 0.529412 0.768627
0.141176 0.537255 0.768627
0.282353 0.537255 0.768627
0.419608 0.533333 0.768627
0.572549 0.541176 0.772549
0.709804 0.541176 0.776471
0.847059 0.537255 0.768627
0.988235 0.545098 0.780392
0.007843 0.666667 0.768627
0.137255 0.670588 0.768627
0.286275 0.678431 0.772549
0.423529 0.674510 0.776471
0.564706 0.674510 0.768627
0.713725 0.682353 0.780392
0.850980 0.678431 0.772549
0.988235 0.678431 0.780392
0.007843 0.807843 0.768627
0.141176 0.803922 0.768627
0.290196 0.807843 0.776471
0.431373 0.811765 0.776471
0.572549 0.807843 0.776471
0.713725 0.811765 0.776471
0.854902 0.815686 0.780392
0.988235 0.819608 0.788235
0.011765 0.945098 0.776471
0.145098 0.945098 0.776471
0.286275 0.945098 0.776471
0.435294 0.945098 0.776471
0.576471 0.945098 0.780392
0.721569 0.945098 0.788235
0.854902 0.945098 0.780392
0.988235 0.945098 0.788235
0.007843 0.007843 0.886275
0.129412 0.007843 0.886275
0.266667 0.007843 0.886275
0.415686 0.007843 0.890196
0.556863 0.007843 0.886275
0.701961 0.007843 0.894118
0.839216 0.007843 0.894118
0.980392 0.007843 0.890196
0.007843 0.121569 0.890196
0.129412 0.121569 0.886275
0.274510 0.125490 0.890196
0.415686 0.129412 0.890196
0.556863 0.125490 0.890196
0.705882 0.125490 0.898039
0.839216 0.133333 0.894118
0.988235 0.133333 0.901961
0.007843 0.254902 0.886275
0.137255 0.262745 0.898039
0.278431 0.262745 0.890196
0.415686 0.258824 0.894118
0.564706 0.266667 0.901961
0.701961 0.266667 0.898039
0.839216 0.262745 0.898039
0.984314 0.266667 0.898039
0.007843 0.400000 0.890196
0.137255 0.396078 0.894118
0.274510 0.396078 0.894118
0.427451 0.403922 0.898039
0.560784 0.403922 0.898039
0.709804 0.403922 0.898039
0.843137 0.407843 0.901961
0.988235 0.403922 0.898039
0.007843 0.533333 0.894118
0.137255 0.537255 0.894118
0.282353 0.537255 0.898039
0.419608 0.537255 0.898039
0.564706 0.541176 0.898039
0.709804 0.541176 0.901961
0.847059 0.541176 0.898039
0.988235 0.549020 0.901961
0.007843 0.670588 0.898039
0.141176 0.666667 0.898039
0.282353 0.674510 0.898039
0.431373 0.674510 0.901961
0.572549 0.674510 0.901961
0.713725 0.674510 0.901961
0.854902 0.678431 0.901961
0.988235 0.678431 0.901961
0.011765 0.807843 0.901961
0.141176 0.807843 0.898039
0.282353 0.807843 0.901961
0.431373 0.815686 0.901961
0.572549 0.811765 0.901961
0.717647 0.811765 0.901961
0.854902 0.819608 0.901961
0.988235 0.815686 0.901961
0.011765 0.945098 0.901961
0.152941 0.945098 0.901961
0.294118 0.945098 0.901961
0.435294 0.945098 0.901961
0.580392 0.945098 0.901961
0.717647 0.945098 0.901961
0.854902 0.945098 0.901961
0.988235 0.945098 0.901961
