luts/subtle/terracotta.cube
TITLE "terracotta (subtle)"
LUT_3D_SIZE 6
0.007843 0.007843 0.007843
0.184314 0.007843 0.007843
0.380392 0.007843 0.007843
0.580392 0.007843 0.007843
0.784314 0.007843 0.007843
0.976471 0.007843 0.007843
0.007843 0.160784 0.007843
0.188235 0.156863 0.007843
0.388235 0.172549 0.007843
0.584314 0.176471 0.007843
0.788235 0.180392 0.007843
0.980392 0.184314 0.007843
0.007843 0.360784 0.007843
0.192157 0.360784 0.007843
0.392157 0.364706 0.007843
0.596078 0.368627 0.007843
0.788235 0.376471 0.007843
0.980392 0.380392 0.007843
0.007843 0.552941 0.007843
0.192157 0.552941 0.007843
0.392157 0.560784 0.007843
0.592157 0.560784 0.007843
0.792157 0.576471 0.007843
0.988235 0.572549 0.007843
0.007843 0.752941 0.007843
0.196078 0.752941 0.007843
0.400000 0.756863 0.007843
0.596078 0.756863 0.007843
0.792157 0.756863 0.007843
0.988235 0.760784 0.007843
0.007843 0.945098 0.007843
0.207843 0.945098 0.007843
0.400000 0.945098 0.007843
0.600000 0.945098 0.007843
0.800000 0.945098 0.011765
0.988235 0.945098 0.011765
0.007843 0.007843 0.160784
0.188235 0.007843 0.168627
0.380392 0.007843 0.164706
0.588235 0.007843 0.172549
0.780392 0.007843 0.168627
0.980392 0.007843 0.176471
0.007843 0.156863 0.172549
0.192157 0.168627 0.172549
0.384314 0.172549 0.168627
0.592157 0.180392 0.176471
0.784314 0.184314 0.172549
0.980392 0.180392 0.176471
0.007843 0.356863 0.172549
0.196078 0.368627 0.176471
0.396078 0.364706 0.180392
0.592157 0.372549 0.176471
0.788235 0.380392 0.176471
0.984314 0.376471 0.180392
0.007843 0.556863 0.176471
0.192157 0.564706 0.172549
0.396078 0.564706 0.180392
0.592157 0.568627 0.176471
0.796078 0.572549 0.188235
0.988235 0.576471 0.184314
0.007843 0.752941 0.180392
0.200000 0.749020 0.184314
0.400000 0.756863 0.184314
0.596078 0.756863 0.180392
0.796078 0.760784 0.188235
0.988235 0.760784 0.184314
0.011765 0.945098 0.184314
0.203922 0.945098 0.188235
0.403922 0.945098 0.188235
0.603922 0.945098 0.192157
0.800000 0.945098 0.196078
0.988235 0.945098 0.192157
0.007843 0.007843 0.345098
0.184314 0.007843 0.345098
0.384314 0.007843 0.349020
0.584314 0.007843 0.349020
0.780392 0.007843 0.352941
0.980392 0.007843 0.352941
0.007843 0.164706 0.349020
0.188235 0.172549 0.349020
0.388235 0.168627 0.352941
0.588235 0.184314 0.352941
0.788235 0.180392 0.356863
0.984314 0.188235 0.356863
0.007843 0.356863 0.349020
0.200000 0.364706 0.360784
0.392157 0.372549 0.356863
0.596078 0.380392 0.356863
0.788235 0.376471 0.360784
0.984314 0.376471 0.356863
0.007843 0.556863 0.352941
0.200000 0.564706 0.360784
0.392157 0.568627 0.356863
0.596078 0.564706 0.360784
0.796078 0.576471 0.364706
0.988235 0.576471 0.364706
0.007843 0.752941 0.356863
0.200000 0.752941 0.360784
0.396078 0.760784 0.360784
0.596078 0.756863 0.364706
0.792157 0.760784 0.364706
0.988235 0.756863 0.368627
0.011765 0.945098 0.364706
0.203922 0.945098 0.364706
0.407843 0.945098 0.372549
0.600000 0.945098 0.368627
0.800000 0.945098 0.368627
0.988235 0.945098 0.372549
0.007843 0.007843 0.529412
0.188235 0.007843 0.529412
0.380392 0.007843 0.529412
0.584314 0.007843 0.529412
0.784314 0.007843 0.529412
0.980392 0.007843 0.529412
0.007843 0.168627 0.529412
0.192157 0.172549 0.533333
0.384314 0.176471 0.529412
0.592157 0.180392 0.537255
0.788235 0.184314 0.533333
0.980392 0.188235 0.545098
0.007843 0.352941 0.533333
0.196078 0.372549 0.537255
0.392157 0.376471 0.533333
0.596078 0.376471 0.545098
0.788235 0.376471 0.541176
0.988235 0.380392 0.549020
0.007843 0.552941 0.537255
0.196078 0.568627 0.537255
0.396078 0.564706 0.541176
0.596078 0.572549 0.545098
0.788235 0.572549 0.541176
0.988235 0.576471 0.552941
0.007843 0.752941 0.541176
0.200000 0.760784 0.545098
0.400000 0.756863 0.549020
0.600000 0.760784 0.549020
0.800000 0.756863 0.552941
0.988235 0.760784 0.549020
0.007843 0.945098 0.549020
0.211765 0.945098 0.549020
0.403922 0.945098 0.552941
0.600000 0.945098 0.549020
0.803922 0.945098 0.556863
0.988235 0.945098 0.552941
0.007843 0.007843 0.709804
0.188235 0.007843 0.705882
0.384314 0.007843 0.705882
0.588235 0.007843 0.709804
0.784314 0.007843 0.713725
0.976471 0.007843 0.717647
0.007843 0.176471 0.713725
0.192157 0.180392 0.709804
0.396078 0.180392 0.721569
0.592157 0.184314 0.717647
0.784314 0.184314 0.713725
0.984314 0.184314 0.721569
0.007843 0.364706 0.713725
0.192157 0.372549 0.709804
0.396078 0.372549 0.721569
0.596078 0.376471 0.721569
0.792157 0.376471 0.725490
0.988235 0.380392 0.725490
0.007843 0.560784 0.713725
0.200000 0.564706 0.725490
0.396078 0.564706 0.721569
0.596078 0.572549 0.721569
0.792157 0.568627 0.725490
0.988235 0.580392 0.729412
0.007843 0.752941 0.721569
0.203922 0.756863 0.729412
0.400000 0.756863 0.725490
0.603922 0.760784 0.729412
0.796078 0.760784 0.729412
0.988235 0.764706 0.729412
0.011765 0.945098 0.725490
0.211765 0.945098 0.729412
0.403922 0.945098 0.729412
0.607843 0.945098 0.733333
0.800000 0.945098 0.729412
0.988235 0.945098 0.737255
0.007843 0.007843 0.886275
0.184314 0.007843 0.882353
0.388235 0.007843 0.890196
0.584314 0.007843 0.886275
0.784314 0.007843 0.894118
0.980392 0.007843 0.890196
0.007843 0.180392 0.890196
0.188235 0.180392 0.894118
0.392157 0.184314 0.894118
0.588235 0.184314 0.890196
0.788235 0.184314 0.898039
0.984314 0.188235 0.894118
0.007843 0.372549 0.890196
0.196078 0.368627 0.894118
0.396078 0.376471 0.898039
0.596078 0.376471 0.901961
0.792157 0.380392 0.901961
0.988235 0.384314 0.898039
0.007843 0.564706 0.901961
0.200000 0.568627 0.898039
0.396078 0.572549 0.898039
0.596078 0.568627 0.901961
0.788235 0.572549 0.898039
0.988235 0.576471 0.901961
0.011765 0.756863 0.901961
0.203922 0.756863 0.901961
0.403922 0.752941 0.901961
0.600000 0.760784 0.901961
0.792157 0.760784 0.901961
0.988235 0.764706 0.901961
0.011765 0.945098 0.901961
0.207843 0.945098 0.901961
0.407843 0.945098 0.901961
0.603922 0.945098 0.901961
0.803922 0.945098 0.901961
0.988235 0.945098 0.901961
