luts/subtle/terracotta.cube
TITLE "terracotta (subtle)"
LUT_3D_SIZE 36
0.007843 0.007843 0.007843
0.011765 0.007843 0.007843
0.039216 0.007843 0.007843
0.062745 0.007843 0.007843
0.098039 0.007843 0.007843
0.121569 0.007843 0.007843
0.149020 0.007843 0.007843
0.184314 0.007843 0.007843
0.211765 0.007843 0.007843
0.243137 0.007843 0.007843
0.266667 0.007843 0.007843
0.301961 0.007843 0.007843
0.321569 0.007843 0.007843
0.349020 0.007843 0.007843
0.380392 0.007843 0.007843
0.411765 0.007843 0.007843
0.439216 0.007843 0.007843
0.466667 0.007843 0.007843
0.501961 0.007843 0.007843
0.521569 0.007843 0.007843
0.552941 0.007843 0.007843
0.580392 0.007843 0.007843
0.603922 0.007843 0.007843
0.635294 0.007843 0.007843
0.662745 0.007843 0.007843
0.698039 0.007843 0.007843
0.725490 0.007843 0.007843
0.749020 0.007843 0.007843
0.784314 0.007843 0.007843
0.807843 0.007843 0.007843
0.835294 0.007843 0.007843
0.862745 0.007843 0.007843
0.890196 0.007843 0.007843
0.917647 0.007843 0.007843
0.941176 0.007843 0.007843
0.976471 0.007843 0.007843
0.007843 0.007843 0.007843
0.015686 0.007843 0.007843
0.043137 0.007843 0.007843
0.070588 0.007843 0.007843
0.098039 0.007843 0.007843
0.125490 0.007843 0.007843
0.152941 0.007843 0.007843
0.188235 0.007843 0.007843
0.211765 0.007843 0.007843
0.239216 0.007843 0.007843
0.266667 0.007843 0.007843
0.301961 0.007843 0.007843
0.325490 0.007843 0.007843
0.352941 0.007843 0.007843
0.380392 0.007843 0.007843
0.407843 0.007843 0.007843
0.431373 0.007843 0.007843
0.458824 0.007843 0.007843
0.494118 0.007843 0.007843
0.521569 0.007843 0.007843
0.549020 0.007843 0.007843
0.588235 0.015686 0.007843
0.611765 0.015686 0.007843
0.635294 0.011765 0.007843
0.666667 0.011765 0.007843
0.694118 0.011765 0.007843
0.721569 0.019608 0.007843
0.752941 0.015686 0.007843
0.784314 0.019608 0.007843
0.807843 0.019608 0.007843
0.835294 0.019608 0.007843
0.858824 0.015686 0.007843
0.890196 0.015686 0.007843
0.921569 0.015686 0.007843
0.949020 0.019608 0.007843
0.976471 0.019608 0.007843
0.007843 0.019608 0.007843
0.011765 0.019608 0.007843
0.043137 0.023529 0.007843
0.066667 0.019608 0.007843
0.109804 0.023529 0.007843
0.129412 0.023529 0.007843
0.156863 0.023529 0.007843
0.184314 0.027451 0.007843
0.211765 0.027451 0.007843
0.239216 0.031373 0.007843
0.266667 0.031373 0.007843
0.301961 0.031373 0.007843
0.321569 0.027451 0.007843
0.349020 0.027451 0.007843
0.384314 0.031373 0.007843
0.411765 0.031373 0.007843
0.439216 0.031373 0.007843
0.466667 0.035294 0.007843
0.494118 0.035294 0.007843
0.525490 0.043137 0.007843
0.556863 0.035294 0.007843
0.584314 0.039216 0.007843
0.607843 0.043137 0.007843
0.635294 0.043137 0.007843
0.662745 0.043137 0.007843
0.698039 0.043137 0.007843
0.725490 0.047059 0.007843
0.749020 0.043137 0.007843
0.776471 0.043137 0.007843
0.807843 0.043137 0.007843
0.835294 0.043137 0.007843
0.862745 0.043137 0.007843
0.890196 0.047059 0.007843
0.917647 0.047059 0.007843
0.949020 0.050980 0.007843
0.980392 0.050980 0.007843
0.007843 0.050980 0.007843
0.007843 0.047059 0.007843
0.039216 0.050980 0.007843
0.074510 0.050980 0.007843
0.101961 0.050980 0.007843
0.125490 0.050980 0.007843
0.156863 0.054902 0.007843
0.188235 0.054902 0.007843
0.211765 0.050980 0.007843
0.239216 0.054902 0.007843
0.266667 0.054902 0.007843
0.298039 0.058824 0.007843
0.321569 0.058824 0.007843
0.352941 0.054902 0.007843
0.380392 0.062745 0.007843
0.411765 0.062745 0.007843
0.435294 0.058824 0.007843
0.466667 0.062745 0.007843
0.501961 0.062745 0.007843
0.529412 0.066667 0.007843
0.556863 0.066667 0.007843
0.584314 0.070588 0.007843
0.615686 0.070588 0.007843
0.639216 0.066667 0.007843
0.666667 0.066667 0.007843
0.694118 0.066667 0.007843
0.721569 0.074510 0.007843
0.749020 0.074510 0.007843
0.784314 0.070588 0.007843
0.807843 0.074510 0.007843
0.835294 0.074510 0.007843
0.858824 0.070588 0.007843
0.898039 0.074510 0.007843
0.925490 0.074510 0.007843
0.952941 0.078431 0.007843
0.980392 0.078431 0.007843
0.007843 0.082353 0.007843
0.011765 0.078431 0.007843
0.039216 0.082353 0.007843
0.074510 0.078431 0.007843
0.101961 0.078431 0.007843
0.125490 0.082353 0.007843
0.152941 0.082353 0.007843
0.188235 0.078431 0.007843
0.215686 0.082353 0.007843
0.239216 0.082353 0.007843
0.266667 0.082353 0.007843
0.294118 0.082353 0.007843
0.325490 0.082353 0.007843
0.352941 0.082353 0.007843
0.380392 0.090196 0.007843
0.415686 0.094118 0.007843
0.439216 0.090196 0.007843
0.466667 0.094118 0.007843
0.498039 0.090196 0.007843
0.529412 0.090196 0.007843
0.556863 0.094118 0.007843
0.588235 0.094118 0.007843
0.611765 0.094118 0.007843
0.643137 0.098039 0.007843
0.666667 0.094118 0.007843
0.694118 0.094118 0.007843
0.721569 0.098039 0.007843
0.749020 0.101961 0.007843
0.784314 0.101961 0.007843
0.807843 0.101961 0.007843
0.839216 0.105882 0.007843
0.862745 0.101961 0.007843
0.898039 0.101961 0.007843
0.925490 0.101961 0.007843
0.952941 0.101961 0.007843
0.980392 0.105882 0.007843
0.007843 0.105882 0.007843
0.019608 0.105882 0.007843
0.047059 0.109804 0.007843
0.074510 0.109804 0.007843
0.101961 0.109804 0.007843
0.129412 0.105882 0.007843
0.156863 0.105882 0.007843
0.184314 0.105882 0.007843
0.211765 0.105882 0.007843
0.239216 0.113725 0.007843
0.266667 0.113725 0.007843
0.301961 0.109804 0.007843
0.321569 0.109804 0.007843
0.352941 0.113725 0.007843
0.388235 0.113725 0.007843
0.415686 0.113725 0.007843
0.443137 0.113725 0.007843
0.470588 0.117647 0.007843
0.498039 0.117647 0.007843
0.525490 0.117647 0.007843
0.549020 0.113725 0.007843
0.584314 0.117647 0.007843
0.607843 0.117647 0.007843
0.635294 0.117647 0.007843
0.662745 0.121569 0.007843
0.698039 0.117647 0.007843
0.725490 0.125490 0.007843
0.749020 0.121569 0.007843
0.788235 0.133333 0.007843
0.807843 0.129412 0.007843
0.839216 0.125490 0.007843
0.866667 0.125490 0.007843
0.898039 0.129412 0.007843
0.925490 0.129412 0.007843
0.952941 0.129412 0.007843
0.980392 0.129412 0.007843
0.007843 0.133333 0.007843
0.011765 0.129412 0.007843
0.039216 0.129412 0.007843
0.070588 0.133333 0.007843
0.101961 0.129412 0.007843
0.125490 0.129412 0.007843
0.156863 0.133333 0.007843
0.188235 0.129412 0.007843
0.215686 0.133333 0.007843
0.239216 0.133333 0.007843
0.266667 0.133333 0.007843
0.301961 0.137255 0.007843
0.325490 0.141176 0.007843
0.352941 0.141176 0.007843
0.388235 0.145098 0.007843
0.415686 0.145098 0.007843
0.439216 0.141176 0.007843
0.466667 0.141176 0.007843
0.501961 0.141176 0.007843
0.529412 0.141176 0.007843
0.556863 0.145098 0.007843
0.584314 0.149020 0.007843
0.607843 0.149020 0.007843
0.643137 0.149020 0.007843
0.666667 0.145098 0.007843
0.694118 0.145098 0.007843
0.725490 0.156863 0.007843
0.752941 0.156863 0.007843
0.788235 0.156863 0.007843
0.811765 0.156863 0.007843
0.839216 0.156863 0.007843
0.862745 0.152941 0.007843
0.901961 0.156863 0.007843
0.925490 0.152941 0.007843
0.952941 0.152941 0.007843
0.980392 0.156863 0.007843
0.007843 0.160784 0.007843
0.015686 0.160784 0.007843
0.039216 0.156863 0.007843
0.066667 0.160784 0.007843
0.101961 0.156863 0.007843
0.125490 0.156863 0.007843
0.152941 0.160784 0.007843
0.188235 0.156863 0.007843
0.215686 0.156863 0.007843
0.243137 0.164706 0.007843
0.270588 0.164706 0.007843
0.301961 0.168627 0.007843
0.325490 0.168627 0.007843
0.356863 0.164706 0.007843
0.388235 0.172549 0.007843
0.415686 0.172549 0.007843
0.443137 0.172549 0.007843
0.466667 0.168627 0.007843
0.498039 0.168627 0.007843
0.529412 0.168627 0.007843
0.556863 0.168627 0.007843
0.584314 0.176471 0.007843
0.615686 0.176471 0.007843
0.643137 0.176471 0.007843
0.670588 0.176471 0.007843
0.698039 0.176471 0.007843
0.725490 0.184314 0.007843
0.752941 0.184314 0.007843
0.788235 0.180392 0.007843
0.811765 0.184314 0.007843
0.839216 0.184314 0.007843
0.862745 0.180392 0.007843
0.901961 0.184314 0.007843
0.925490 0.180392 0.007843
0.952941 0.180392 0.007843
0.980392 0.184314 0.007843
0.007843 0.184314 0.007843
0.019608 0.184314 0.007843
0.047059 0.184314 0.007843
0.074510 0.188235 0.007843
0.101961 0.188235 0.007843
0.121569 0.184314 0.007843
0.156863 0.184314 0.007843
0.188235 0.188235 0.007843
0.215686 0.188235 0.007843
0.243137 0.196078 0.007843
0.270588 0.196078 0.007843
0.305882 0.196078 0.007843
0.329412 0.196078 0.007843
0.352941 0.192157 0.007843
0.380392 0.196078 0.007843
0.415686 0.196078 0.007843
0.443137 0.196078 0.007843
0.470588 0.196078 0.007843
0.498039 0.200000 0.007843
0.525490 0.200000 0.007843
0.549020 0.196078 0.007843
0.588235 0.203922 0.007843
0.611765 0.203922 0.007843
0.643137 0.207843 0.007843
0.670588 0.207843 0.007843
0.701961 0.203922 0.007843
0.729412 0.211765 0.007843
0.760784 0.211765 0.007843
0.788235 0.211765 0.007843
0.807843 0.207843 0.007843
0.835294 0.211765 0.007843
0.862745 0.211765 0.007843
0.898039 0.207843 0.007843
0.925490 0.211765 0.007843
0.952941 0.211765 0.007843
0.984314 0.211765 0.007843
0.007843 0.219608 0.007843
0.019608 0.219608 0.007843
0.043137 0.215686 0.007843
0.070588 0.215686 0.007843
0.101961 0.215686 0.007843
0.133333 0.219608 0.007843
0.160784 0.223529 0.007843
0.188235 0.223529 0.007843
0.223529 0.223529 0.007843
0.247059 0.219608 0.007843
0.274510 0.219608 0.007843
0.301961 0.219608 0.007843
0.325490 0.223529 0.007843
0.352941 0.223529 0.007843
0.388235 0.223529 0.007843
0.415686 0.227451 0.007843
0.443137 0.227451 0.007843
0.466667 0.223529 0.007843
0.501961 0.223529 0.007843
0.529412 0.223529 0.007843
0.560784 0.227451 0.007843
0.588235 0.235294 0.007843
0.611765 0.235294 0.007843
0.639216 0.239216 0.007843
0.670588 0.231373 0.007843
0.701961 0.235294 0.007843
0.725490 0.235294 0.007843
0.752941 0.239216 0.007843
0.788235 0.235294 0.007843
0.811765 0.235294 0.007843
0.839216 0.239216 0.007843
0.866667 0.239216 0.007843
0.894118 0.239216 0.007843
0.917647 0.239216 0.007843
0.952941 0.235294 0.007843
0.980392 0.239216 0.007843
0.007843 0.243137 0.007843
0.019608 0.243137 0.007843
0.047059 0.243137 0.007843
0.078431 0.247059 0.007843
0.105882 0.247059 0.007843
0.133333 0.247059 0.007843
0.152941 0.243137 0.007843
0.188235 0.243137 0.007843
0.215686 0.243137 0.007843
0.243137 0.247059 0.007843
0.274510 0.247059 0.007843
0.305882 0.243137 0.007843
0.329412 0.247059 0.007843
0.352941 0.243137 0.007843
0.380392 0.247059 0.007843
0.411765 0.247059 0.007843
0.439216 0.250980 0.007843
0.470588 0.247059 0.007843
0.505882 0.254902 0.007843
0.533333 0.254902 0.007843
0.560784 0.254902 0.007843
0.596078 0.258824 0.007843
0.615686 0.254902 0.007843
0.643137 0.254902 0.007843
0.670588 0.258824 0.007843
0.698039 0.258824 0.007843
0.733333 0.262745 0.007843
0.760784 0.262745 0.007843
0.788235 0.262745 0.007843
0.807843 0.258824 0.007843
0.835294 0.258824 0.007843
0.862745 0.262745 0.007843
0.898039 0.262745 0.007843
0.925490 0.262745 0.007843
0.956863 0.266667 0.007843
0.988235 0.266667 0.007843
0.007843 0.270588 0.007843
0.023529 0.274510 0.007843
0.050980 0.274510 0.007843
0.078431 0.278431 0.007843
0.105882 0.278431 0.007843
0.129412 0.278431 0.007843
0.152941 0.278431 0.007843
0.188235 0.274510 0.007843
0.215686 0.274510 0.007843
0.243137 0.278431 0.007843
0.270588 0.278431 0.007843
0.305882 0.274510 0.007843
0.329412 0.278431 0.007843
0.352941 0.274510 0.007843
0.384314 0.282353 0.007843
0.407843 0.278431 0.007843
0.447059 0.282353 0.007843
0.474510 0.286275 0.007843
0.505882 0.286275 0.007843
0.533333 0.286275 0.007843
0.560784 0.286275 0.007843
0.592157 0.290196 0.007843
0.611765 0.286275 0.007843
0.643137 0.286275 0.007843
0.670588 0.290196 0.007843
0.698039 0.290196 0.007843
0.729412 0.290196 0.007843
0.760784 0.294118 0.007843
0.788235 0.294118 0.007843
0.811765 0.298039 0.007843
0.835294 0.294118 0.007843
0.862745 0.294118 0.007843
0.901961 0.298039 0.007843
0.929412 0.298039 0.007843
0.956863 0.298039 0.007843
0.988235 0.298039 0.007843
0.007843 0.305882 0.007843
0.023529 0.305882 0.007843
0.047059 0.301961 0.007843
0.074510 0.301961 0.007843
0.109804 0.301961 0.007843
0.133333 0.301961 0.007843
0.160784 0.305882 0.007843
0.188235 0.305882 0.007843
0.215686 0.305882 0.007843
0.250980 0.305882 0.007843
0.274510 0.301961 0.007843
0.301961 0.301961 0.007843
0.325490 0.301961 0.007843
0.352941 0.305882 0.007843
0.392157 0.305882 0.007843
0.419608 0.309804 0.007843
0.447059 0.309804 0.007843
0.470588 0.305882 0.007843
0.509804 0.309804 0.007843
0.533333 0.305882 0.007843
0.560784 0.305882 0.007843
0.588235 0.313725 0.007843
0.611765 0.313725 0.007843
0.639216 0.313725 0.007843
0.670588 0.317647 0.007843
0.701961 0.313725 0.007843
0.725490 0.313725 0.007843
0.752941 0.313725 0.007843
0.788235 0.313725 0.007843
0.811765 0.317647 0.007843
0.843137 0.321569 0.007843
0.874510 0.321569 0.007843
0.901961 0.325490 0.007843
0.925490 0.321569 0.007843
0.952941 0.321569 0.007843
0.980392 0.317647 0.007843
0.007843 0.321569 0.007843
0.015686 0.325490 0.007843
0.050980 0.321569 0.007843
0.078431 0.321569 0.007843
0.105882 0.325490 0.007843
0.133333 0.325490 0.007843
0.156863 0.321569 0.007843
0.188235 0.321569 0.007843
0.215686 0.321569 0.007843
0.243137 0.321569 0.007843
0.274510 0.325490 0.007843
0.305882 0.321569 0.007843
0.337255 0.329412 0.007843
0.364706 0.333333 0.007843
0.392157 0.333333 0.007843
0.415686 0.333333 0.007843
0.443137 0.333333 0.007843
0.470588 0.333333 0.007843
0.505882 0.333333 0.007843
0.533333 0.333333 0.007843
0.560784 0.333333 0.007843
0.596078 0.337255 0.007843
0.615686 0.333333 0.007843
0.643137 0.333333 0.007843
0.670588 0.333333 0.007843
0.698039 0.337255 0.007843
0.725490 0.341176 0.007843
0.752941 0.341176 0.007843
0.788235 0.345098 0.007843
0.815686 0.349020 0.007843
0.839216 0.345098 0.007843
0.866667 0.345098 0.007843
0.901961 0.341176 0.007843
0.929412 0.345098 0.007843
0.956863 0.345098 0.007843
0.980392 0.345098 0.007843
0.007843 0.360784 0.007843
0.023529 0.356863 0.007843
0.050980 0.356863 0.007843
0.078431 0.360784 0.007843
0.105882 0.360784 0.007843
0.129412 0.360784 0.007843
0.152941 0.356863 0.007843
0.192157 0.360784 0.007843
0.215686 0.356863 0.007843
0.243137 0.356863 0.007843
0.278431 0.364706 0.007843
0.305882 0.364706 0.007843
0.333333 0.364706 0.007843
0.364706 0.364706 0.007843
0.392157 0.364706 0.007843
0.415686 0.364706 0.007843
0.443137 0.364706 0.007843
0.470588 0.364706 0.007843
0.505882 0.364706 0.007843
0.533333 0.364706 0.007843
0.560784 0.364706 0.007843
0.596078 0.368627 0.007843
0.619608 0.368627 0.007843
0.643137 0.364706 0.007843
0.670588 0.364706 0.007843
0.698039 0.368627 0.007843
0.729412 0.376471 0.007843
0.764706 0.376471 0.007843
0.788235 0.376471 0.007843
0.815686 0.376471 0.007843
0.839216 0.376471 0.007843
0.866667 0.376471 0.007843
0.901961 0.372549 0.007843
0.929412 0.376471 0.007843
0.956863 0.376471 0.007843
0.980392 0.380392 0.007843
0.007843 0.388235 0.007843
0.023529 0.388235 0.007843
0.050980 0.388235 0.007843
0.074510 0.384314 0.007843
0.109804 0.384314 0.007843
0.133333 0.384314 0.007843
0.160784 0.384314 0.007843
0.188235 0.388235 0.007843
0.219608 0.392157 0.007843
0.247059 0.392157 0.007843
0.278431 0.388235 0.007843
0.305882 0.388235 0.007843
0.329412 0.392157 0.007843
0.356863 0.392157 0.007843
0.392157 0.388235 0.007843
0.419608 0.392157 0.007843
0.447059 0.392157 0.007843
0.474510 0.392157 0.007843
0.501961 0.392157 0.007843
0.525490 0.392157 0.007843
0.560784 0.388235 0.007843
0.588235 0.392157 0.007843
0.611765 0.396078 0.007843
0.639216 0.396078 0.007843
0.674510 0.403922 0.007843
0.705882 0.400000 0.007843
0.729412 0.400000 0.007843
0.760784 0.403922 0.007843
0.788235 0.403922 0.007843
0.815686 0.400000 0.007843
0.843137 0.403922 0.007843
0.874510 0.403922 0.007843
0.901961 0.403922 0.007843
0.929412 0.403922 0.007843
0.952941 0.403922 0.007843
0.980392 0.400000 0.007843
0.007843 0.411765 0.007843
0.019608 0.411765 0.007843
0.047059 0.411765 0.007843
0.078431 0.411765 0.007843
0.105882 0.411765 0.007843
0.133333 0.411765 0.007843
0.164706 0.415686 0.007843
0.200000 0.415686 0.007843
0.223529 0.411765 0.007843
0.250980 0.411765 0.007843
0.278431 0.415686 0.007843
0.305882 0.415686 0.007843
0.337255 0.415686 0.007843
0.364706 0.415686 0.007843
0.392157 0.415686 0.007843
0.415686 0.411765 0.007843
0.443137 0.415686 0.007843
0.470588 0.415686 0.007843
0.505882 0.411765 0.007843
0.533333 0.415686 0.007843
0.560784 0.415686 0.007843
0.596078 0.415686 0.007843
0.623529 0.423529 0.007843
0.647059 0.419608 0.007843
0.674510 0.423529 0.007843
0.701961 0.423529 0.007843
0.729412 0.427451 0.007843
0.756863 0.427451 0.007843
0.788235 0.427451 0.007843
0.815686 0.427451 0.007843
0.839216 0.423529 0.007843
0.866667 0.427451 0.007843
0.901961 0.423529 0.007843
0.929412 0.423529 0.007843
0.956863 0.427451 0.007843
0.980392 0.427451 0.007843
0.007843 0.435294 0.007843
0.023529 0.439216 0.007843
0.050980 0.439216 0.007843
0.074510 0.435294 0.007843
0.101961 0.435294 0.007843
0.137255 0.439216 0.007843
0.164706 0.439216 0.007843
0.192157 0.443137 0.007843
0.219608 0.443137 0.007843
0.250980 0.443137 0.007843
0.278431 0.443137 0.007843
0.305882 0.443137 0.007843
0.329412 0.439216 0.007843
0.356863 0.443137 0.007843
0.392157 0.439216 0.007843
0.419608 0.439216 0.007843
0.447059 0.443137 0.007843
0.474510 0.443137 0.007843
0.505882 0.443137 0.007843
0.529412 0.439216 0.007843
0.560784 0.447059 0.007843
0.596078 0.447059 0.007843
0.619608 0.450980 0.007843
0.647059 0.450980 0.007843
0.674510 0.454902 0.007843
0.709804 0.450980 0.007843
0.737255 0.454902 0.007843
0.760784 0.450980 0.007843
0.788235 0.454902 0.007843
0.811765 0.454902 0.007843
0.839216 0.454902 0.007843
0.874510 0.454902 0.007843
0.901961 0.454902 0.007843
0.929412 0.454902 0.007843
0.952941 0.450980 0.007843
0.984314 0.450980 0.007843
0.007843 0.466667 0.007843
0.023529 0.470588 0.007843
0.054902 0.474510 0.007843
0.078431 0.470588 0.007843
0.113725 0.470588 0.007843
0.137255 0.470588 0.007843
0.164706 0.470588 0.007843
0.192157 0.474510 0.007843
0.219608 0.474510 0.007843
0.247059 0.474510 0.007843
0.278431 0.478431 0.007843
0.305882 0.474510 0.007843
0.329412 0.470588 0.007843
0.356863 0.474510 0.007843
0.392157 0.470588 0.007843
0.419608 0.470588 0.007843
0.447059 0.474510 0.007843
0.474510 0.474510 0.007843
0.509804 0.482353 0.007843
0.533333 0.478431 0.007843
0.560784 0.478431 0.007843
0.592157 0.482353 0.007843
0.619608 0.482353 0.007843
0.647059 0.482353 0.007843
0.674510 0.482353 0.007843
0.705882 0.482353 0.007843
0.737255 0.486275 0.007843
0.760784 0.482353 0.007843
0.788235 0.486275 0.007843
0.811765 0.486275 0.007843
0.847059 0.482353 0.007843
0.874510 0.486275 0.007843
0.901961 0.486275 0.007843
0.933333 0.494118 0.007843
0.956863 0.490196 0.007843
0.988235 0.490196 0.007843
0.007843 0.498039 0.007843
0.023529 0.494118 0.007843
0.050980 0.498039 0.007843
0.078431 0.498039 0.007843
0.113725 0.494118 0.007843
0.137255 0.498039 0.007843
0.164706 0.498039 0.007843
0.200000 0.498039 0.007843
0.223529 0.494118 0.007843
0.250980 0.494118 0.007843
0.278431 0.498039 0.007843
0.305882 0.498039 0.007843
0.329412 0.498039 0.007843
0.356863 0.498039 0.007843
0.392157 0.498039 0.007843
0.419608 0.498039 0.007843
0.447059 0.498039 0.007843
0.474510 0.501961 0.007843
0.509804 0.501961 0.007843
0.537255 0.501961 0.007843
0.564706 0.501961 0.007843
0.592157 0.505882 0.007843
0.615686 0.509804 0.007843
0.647059 0.501961 0.007843
0.674510 0.501961 0.007843
0.701961 0.505882 0.007843
0.729412 0.509804 0.007843
0.756863 0.509804 0.007843
0.788235 0.509804 0.007843
0.815686 0.509804 0.007843
0.843137 0.509804 0.007843
0.866667 0.509804 0.007843
0.905882 0.509804 0.007843
0.933333 0.513725 0.007843
0.960784 0.513725 0.007843
0.988235 0.513725 0.007843
0.007843 0.521569 0.007843
0.027451 0.521569 0.007843
0.054902 0.525490 0.007843
0.078431 0.521569 0.007843
0.113725 0.525490 0.007843
0.133333 0.521569 0.007843
0.164706 0.521569 0.007843
0.192157 0.525490 0.007843
0.219608 0.525490 0.007843
0.250980 0.525490 0.007843
0.278431 0.525490 0.007843
0.305882 0.525490 0.007843
0.329412 0.521569 0.007843
0.356863 0.521569 0.007843
0.392157 0.529412 0.007843
0.423529 0.525490 0.007843
0.454902 0.529412 0.007843
0.482353 0.529412 0.007843
0.509804 0.529412 0.007843
0.537255 0.533333 0.007843
0.560784 0.529412 0.007843
0.596078 0.529412 0.007843
0.619608 0.533333 0.007843
0.647059 0.533333 0.007843
0.674510 0.533333 0.007843
0.709804 0.533333 0.007843
0.737255 0.537255 0.007843
0.760784 0.533333 0.007843
0.788235 0.533333 0.007843
0.811765 0.537255 0.007843
0.843137 0.541176 0.007843
0.870588 0.545098 0.007843
0.905882 0.541176 0.007843
0.933333 0.541176 0.007843
0.960784 0.545098 0.007843
0.988235 0.541176 0.007843
0.007843 0.552941 0.007843
0.027451 0.556863 0.007843
0.054902 0.556863 0.007843
0.082353 0.556863 0.007843
0.109804 0.560784 0.007843
0.137255 0.552941 0.007843
0.164706 0.552941 0.007843
0.192157 0.552941 0.007843
0.219608 0.556863 0.007843
0.247059 0.556863 0.007843
0.278431 0.556863 0.007843
0.305882 0.556863 0.007843
0.333333 0.556863 0.007843
0.364706 0.556863 0.007843
0.392157 0.560784 0.007843
0.423529 0.556863 0.007843
0.450980 0.560784 0.007843
0.482353 0.560784 0.007843
0.509804 0.560784 0.007843
0.537255 0.564706 0.007843
0.560784 0.560784 0.007843
0.592157 0.560784 0.007843
0.619608 0.560784 0.007843
0.647059 0.564706 0.007843
0.674510 0.564706 0.007843
0.709804 0.564706 0.007843
0.737255 0.568627 0.007843
0.760784 0.564706 0.007843
0.792157 0.576471 0.007843
0.815686 0.572549 0.007843
0.843137 0.572549 0.007843
0.878431 0.572549 0.007843
0.905882 0.572549 0.007843
0.933333 0.572549 0.007843
0.960784 0.576471 0.007843
0.988235 0.572549 0.007843
0.007843 0.584314 0.007843
0.023529 0.580392 0.007843
0.050980 0.584314 0.007843
0.078431 0.584314 0.007843
0.113725 0.584314 0.007843
0.137255 0.584314 0.007843
0.164706 0.584314 0.007843
0.200000 0.584314 0.007843
0.227451 0.584314 0.007843
0.250980 0.580392 0.007843
0.282353 0.584314 0.007843
0.305882 0.588235 0.007843
0.333333 0.588235 0.007843
0.360784 0.588235 0.007843
0.396078 0.588235 0.007843
0.423529 0.588235 0.007843
0.447059 0.584314 0.007843
0.474510 0.588235 0.007843
0.509804 0.584314 0.007843
0.537255 0.588235 0.007843
0.564706 0.588235 0.007843
0.592157 0.588235 0.007843
0.615686 0.588235 0.007843
0.647059 0.592157 0.007843
0.674510 0.584314 0.007843
0.701961 0.588235 0.007843
0.737255 0.596078 0.007843
0.764706 0.596078 0.007843
0.792157 0.596078 0.007843
0.819608 0.596078 0.007843
0.850980 0.596078 0.007843
0.874510 0.596078 0.007843
0.901961 0.596078 0.007843
0.933333 0.592157 0.007843
0.960784 0.596078 0.007843
0.988235 0.596078 0.007843
0.007843 0.603922 0.007843
0.027451 0.607843 0.007843
0.054902 0.607843 0.007843
0.082353 0.607843 0.007843
0.113725 0.607843 0.007843
0.133333 0.607843 0.007843
0.160784 0.607843 0.007843
0.192157 0.603922 0.007843
0.227451 0.611765 0.007843
0.254902 0.611765 0.007843
0.282353 0.611765 0.007843
0.313725 0.611765 0.007843
0.341176 0.611765 0.007843
0.364706 0.611765 0.007843
0.392157 0.611765 0.007843
0.419608 0.611765 0.007843
0.447059 0.611765 0.007843
0.482353 0.611765 0.007843
0.509804 0.611765 0.007843
0.537255 0.611765 0.007843
0.560784 0.611765 0.007843
0.596078 0.607843 0.007843
0.619608 0.607843 0.007843
0.647059 0.611765 0.007843
0.678431 0.615686 0.007843
0.705882 0.619608 0.007843
0.741176 0.619608 0.007843
0.768627 0.619608 0.007843
0.792157 0.623529 0.007843
0.815686 0.619608 0.007843
0.843137 0.619608 0.007843
0.870588 0.619608 0.007843
0.905882 0.619608 0.007843
0.933333 0.619608 0.007843
0.960784 0.619608 0.007843
0.988235 0.619608 0.007843
0.007843 0.635294 0.007843
0.027451 0.635294 0.007843
0.050980 0.635294 0.007843
0.078431 0.635294 0.007843
0.113725 0.631373 0.007843
0.137255 0.635294 0.007843
0.168627 0.639216 0.007843
0.196078 0.639216 0.007843
0.227451 0.643137 0.007843
0.254902 0.635294 0.007843
0.282353 0.635294 0.007843
0.305882 0.635294 0.007843
0.333333 0.639216 0.007843
0.364706 0.639216 0.007843
0.396078 0.639216 0.007843
0.423529 0.639216 0.007843
0.450980 0.639216 0.007843
0.474510 0.639216 0.007843
0.505882 0.639216 0.007843
0.537255 0.635294 0.007843
0.564706 0.639216 0.007843
0.596078 0.639216 0.007843
0.623529 0.643137 0.007843
