luts/subtle/velvet.cube
TITLE "velvet (subtle)"
LUT_3D_SIZE 6
0.031373 0.015686 0.027451
0.223529 0.015686 0.023529
0.423529 0.019608 0.019608
0.611765 0.023529 0.019608
0.803922 0.027451 0.015686
0.984314 0.023529 0.011765
0.023529 0.203922 0.019608
0.219608 0.203922 0.015686
0.415686 0.207843 0.015686
0.603922 0.207843 0.007843
0.792157 0.215686 0.003922
0.976471 0.211765 0.000000
0.015686 0.396078 0.011765
0.211765 0.392157 0.007843
0.407843 0.392157 0.007843
0.596078 0.392157 0.000000
0.784314 0.400000 0.000000
0.964706 0.396078 0.000000
0.003922 0.576471 0.000000
0.203922 0.572549 0.000000
0.400000 0.572549 0.000000
0.588235 0.568627 0.000000
0.776471 0.572549 0.000000
0.956863 0.572549 0.000000
0.000000 0.756863 0.000000
0.192157 0.752941 0.000000
0.392157 0.752941 0.000000
0.580392 0.749020 0.000000
0.768627 0.749020 0.000000
0.945098 0.749020 0.000000
0.000000 0.925490 0.000000
0.180392 0.925490 0.000000
0.380392 0.921569 0.000000
0.572549 0.917647 0.000000
0.760784 0.913725 0.000000
0.937255 0.913725 0.000000
0.027451 0.015686 0.211765
0.223529 0.015686 0.207843
0.423529 0.019608 0.207843
0.611765 0.019608 0.203922
0.800000 0.027451 0.200000
0.984314 0.023529 0.200000
0.023529 0.203922 0.203922
0.219608 0.207843 0.200000
0.411765 0.211765 0.200000
0.603922 0.215686 0.196078
0.788235 0.215686 0.192157
0.968627 0.211765 0.192157
0.015686 0.396078 0.196078
0.211765 0.396078 0.196078
0.407843 0.396078 0.192157
0.596078 0.400000 0.188235
0.780392 0.400000 0.184314
0.960784 0.396078 0.180392
0.003922 0.576471 0.188235
0.203922 0.576471 0.188235
0.400000 0.572549 0.184314
0.588235 0.576471 0.184314
0.772549 0.572549 0.176471
0.952941 0.572549 0.172549
0.000000 0.756863 0.176471
0.196078 0.756863 0.176471
0.392157 0.752941 0.176471
0.580392 0.752941 0.172549
0.764706 0.749020 0.168627
0.945098 0.749020 0.164706
0.000000 0.925490 0.168627
0.184314 0.921569 0.168627
0.384314 0.917647 0.164706
0.572549 0.917647 0.160784
0.756863 0.913725 0.160784
0.937255 0.909804 0.156863
0.027451 0.023529 0.392157
0.223529 0.023529 0.388235
0.419608 0.019608 0.388235
0.611765 0.019608 0.388235
0.800000 0.023529 0.384314
0.984314 0.019608 0.384314
0.019608 0.211765 0.384314
0.215686 0.207843 0.380392
0.411765 0.211765 0.380392
0.600000 0.215686 0.376471
0.788235 0.215686 0.376471
0.968627 0.211765 0.372549
0.015686 0.396078 0.376471
0.211765 0.396078 0.376471
0.407843 0.403922 0.372549
0.592157 0.400000 0.372549
0.780392 0.396078 0.368627
0.956863 0.396078 0.364706
0.003922 0.576471 0.368627
0.203922 0.580392 0.368627
0.400000 0.576471 0.368627
0.588235 0.576471 0.364706
0.772549 0.572549 0.360784
0.949020 0.572549 0.356863
0.000000 0.756863 0.360784
0.192157 0.756863 0.360784
0.392157 0.752941 0.360784
0.580392 0.749020 0.356863
0.764706 0.749020 0.356863
0.941176 0.745098 0.349020
0.000000 0.925490 0.352941
0.184314 0.921569 0.349020
0.384314 0.917647 0.349020
0.572549 0.913725 0.349020
0.756863 0.913725 0.345098
0.933333 0.909804 0.345098
0.027451 0.023529 0.572549
0.223529 0.019608 0.568627
0.423529 0.019608 0.568627
0.611765 0.019608 0.564706
0.800000 0.023529 0.564706
0.980392 0.019608 0.564706
0.019608 0.211765 0.564706
0.215686 0.215686 0.560784
0.411765 0.215686 0.556863
0.600000 0.215686 0.556863
0.788235 0.211765 0.552941
0.968627 0.207843 0.552941
0.011765 0.396078 0.556863
0.207843 0.400000 0.552941
0.403922 0.400000 0.549020
0.592157 0.400000 0.549020
0.776471 0.396078 0.545098
0.956863 0.396078 0.545098
0.003922 0.572549 0.549020
0.203922 0.580392 0.545098
0.400000 0.576471 0.545098
0.588235 0.572549 0.541176
0.768627 0.572549 0.541176
0.949020 0.568627 0.537255
0.000000 0.752941 0.541176
0.192157 0.752941 0.537255
0.392157 0.752941 0.537255
0.580392 0.749020 0.537255
0.764706 0.749020 0.533333
0.941176 0.745098 0.529412
0.000000 0.925490 0.533333
0.184314 0.917647 0.529412
0.384314 0.917647 0.529412
0.572549 0.913725 0.529412
0.756863 0.909804 0.525490
0.933333 0.909804 0.525490
0.027451 0.031373 0.749020
0.223529 0.027451 0.749020
0.423529 0.023529 0.745098
0.611765 0.023529 0.741176
0.800000 0.023529 0.741176
0.980392 0.019608 0.741176
0.015686 0.219608 0.741176
0.215686 0.219608 0.733333
0.411765 0.215686 0.733333
0.600000 0.215686 0.729412
0.788235 0.211765 0.729412
0.968627 0.207843 0.729412
0.007843 0.400000 0.733333
0.207843 0.403922 0.725490
0.403922 0.400000 0.721569
0.592157 0.400000 0.721569
0.776471 0.396078 0.717647
0.956863 0.392157 0.717647
0.000000 0.576471 0.725490
0.200000 0.580392 0.721569
0.400000 0.576471 0.717647
0.584314 0.572549 0.713725
0.768627 0.572549 0.713725
0.945098 0.568627 0.709804
0.000000 0.752941 0.717647
0.192157 0.752941 0.713725
0.392157 0.752941 0.709804
0.580392 0.749020 0.705882
0.764706 0.745098 0.705882
0.937255 0.745098 0.705882
0.000000 0.921569 0.709804
0.180392 0.917647 0.705882
0.384314 0.913725 0.701961
0.572549 0.913725 0.701961
0.756863 0.909804 0.701961
0.933333 0.909804 0.698039
0.023529 0.031373 0.921569
0.223529 0.031373 0.917647
0.423529 0.027451 0.913725
0.611765 0.023529 0.913725
0.800000 0.023529 0.909804
0.980392 0.019608 0.909804
0.015686 0.219608 0.909804
0.215686 0.219608 0.905882
0.411765 0.215686 0.901961
0.603922 0.211765 0.898039
0.788235 0.211765 0.898039
0.964706 0.207843 0.894118
0.003922 0.403922 0.901961
0.207843 0.403922 0.894118
0.403922 0.400000 0.890196
0.592157 0.396078 0.886275
0.776471 0.396078 0.886275
0.952941 0.392157 0.882353
0.000000 0.580392 0.894118
0.196078 0.576471 0.886275
0.396078 0.576471 0.882353
0.584314 0.572549 0.878431
0.768627 0.572549 0.878431
0.945098 0.568627 0.874510
0.000000 0.756863 0.882353
0.188235 0.752941 0.878431
0.388235 0.749020 0.874510
0.580392 0.749020 0.870588
0.764706 0.745098 0.870588
0.937255 0.745098 0.866667
0.000000 0.921569 0.874510
0.180392 0.917647 0.870588
0.380392 0.913725 0.870588
0.572549 0.909804 0.866667
0.756863 0.909804 0.862745
0.933333 0.905882 0.862745
