luts/subtle/velvet.cube
TITLE "velvet (subtle)"
LUT_3D_SIZE 36
0.031373 0.015686 0.027451
0.058824 0.015686 0.023529
0.086275 0.015686 0.023529
0.109804 0.015686 0.023529
0.145098 0.015686 0.023529
0.168627 0.015686 0.023529
0.196078 0.015686 0.023529
0.223529 0.015686 0.023529
0.254902 0.019608 0.023529
0.282353 0.019608 0.023529
0.305882 0.019608 0.023529
0.341176 0.019608 0.023529
0.364706 0.019608 0.023529
0.388235 0.019608 0.019608
0.423529 0.019608 0.019608
0.447059 0.019608 0.019608
0.474510 0.019608 0.019608
0.501961 0.019608 0.019608
0.533333 0.019608 0.019608
0.560784 0.019608 0.019608
0.584314 0.019608 0.019608
0.611765 0.023529 0.019608
0.639216 0.023529 0.015686
0.662745 0.019608 0.015686
0.694118 0.023529 0.015686
0.721569 0.023529 0.015686
0.749020 0.023529 0.015686
0.772549 0.023529 0.015686
0.803922 0.027451 0.015686
0.827451 0.027451 0.011765
0.854902 0.027451 0.011765
0.878431 0.023529 0.011765
0.909804 0.023529 0.011765
0.933333 0.023529 0.011765
0.960784 0.023529 0.011765
0.984314 0.023529 0.011765
0.027451 0.047059 0.023529
0.058824 0.043137 0.023529
0.086275 0.043137 0.023529
0.109804 0.043137 0.023529
0.141176 0.043137 0.023529
0.168627 0.043137 0.023529
0.196078 0.043137 0.023529
0.223529 0.043137 0.023529
0.250980 0.047059 0.023529
0.282353 0.047059 0.023529
0.305882 0.047059 0.023529
0.337255 0.047059 0.019608
0.364706 0.047059 0.019608
0.388235 0.050980 0.019608
0.419608 0.047059 0.019608
0.447059 0.047059 0.019608
0.474510 0.047059 0.019608
0.501961 0.047059 0.019608
0.533333 0.047059 0.019608
0.556863 0.047059 0.019608
0.584314 0.047059 0.015686
0.611765 0.050980 0.015686
0.639216 0.050980 0.015686
0.662745 0.050980 0.015686
0.690196 0.050980 0.015686
0.721569 0.050980 0.015686
0.745098 0.050980 0.015686
0.772549 0.050980 0.011765
0.800000 0.054902 0.011765
0.827451 0.054902 0.011765
0.850980 0.054902 0.011765
0.878431 0.054902 0.011765
0.905882 0.050980 0.011765
0.933333 0.050980 0.011765
0.956863 0.050980 0.007843
0.984314 0.050980 0.007843
0.027451 0.074510 0.023529
0.054902 0.074510 0.023529
0.086275 0.074510 0.023529
0.109804 0.070588 0.023529
0.141176 0.070588 0.023529
0.164706 0.070588 0.023529
0.196078 0.070588 0.023529
0.223529 0.070588 0.023529
0.250980 0.074510 0.019608
0.282353 0.074510 0.019608
0.305882 0.074510 0.019608
0.337255 0.074510 0.019608
0.360784 0.074510 0.019608
0.388235 0.078431 0.019608
0.419608 0.078431 0.019608
0.443137 0.074510 0.019608
0.474510 0.074510 0.019608
0.498039 0.074510 0.015686
0.533333 0.074510 0.015686
0.556863 0.074510 0.015686
0.580392 0.074510 0.015686
0.611765 0.078431 0.015686
0.635294 0.078431 0.015686
0.662745 0.078431 0.015686
0.690196 0.082353 0.011765
0.721569 0.078431 0.011765
0.745098 0.078431 0.011765
0.768627 0.078431 0.011765
0.800000 0.082353 0.011765
0.823529 0.082353 0.011765
0.850980 0.082353 0.011765
0.874510 0.082353 0.007843
0.905882 0.082353 0.007843
0.929412 0.078431 0.007843
0.956863 0.078431 0.007843
0.980392 0.078431 0.007843
0.027451 0.098039 0.023529
0.054902 0.098039 0.023529
0.082353 0.098039 0.023529
0.109804 0.098039 0.023529
0.141176 0.094118 0.023529
0.164706 0.094118 0.023529
0.192157 0.094118 0.019608
0.223529 0.094118 0.019608
0.250980 0.098039 0.019608
0.278431 0.098039 0.019608
0.305882 0.098039 0.019608
0.337255 0.098039 0.019608
0.360784 0.098039 0.019608
0.388235 0.101961 0.019608
0.419608 0.101961 0.019608
0.443137 0.101961 0.015686
0.474510 0.098039 0.015686
0.498039 0.098039 0.015686
0.529412 0.098039 0.015686
0.556863 0.098039 0.015686
0.580392 0.098039 0.015686
0.611765 0.101961 0.015686
0.635294 0.101961 0.015686
0.658824 0.101961 0.011765
0.690196 0.105882 0.011765
0.717647 0.105882 0.011765
0.745098 0.101961 0.011765
0.768627 0.101961 0.011765
0.800000 0.105882 0.011765
0.823529 0.105882 0.007843
0.850980 0.105882 0.007843
0.874510 0.105882 0.007843
0.905882 0.105882 0.007843
0.929412 0.105882 0.007843
0.956863 0.101961 0.007843
0.980392 0.101961 0.007843
0.027451 0.125490 0.023529
0.054902 0.125490 0.023529
0.082353 0.125490 0.023529
0.105882 0.125490 0.023529
0.141176 0.125490 0.019608
0.164706 0.121569 0.019608
0.192157 0.121569 0.019608
0.219608 0.121569 0.019608
0.250980 0.125490 0.019608
0.278431 0.125490 0.019608
0.301961 0.125490 0.019608
0.337255 0.125490 0.019608
0.360784 0.125490 0.019608
0.384314 0.129412 0.015686
0.419608 0.129412 0.015686
0.443137 0.129412 0.015686
0.470588 0.129412 0.015686
0.498039 0.129412 0.015686
0.529412 0.125490 0.015686
0.556863 0.125490 0.015686
0.580392 0.125490 0.015686
0.607843 0.129412 0.011765
0.635294 0.129412 0.011765
0.658824 0.129412 0.011765
0.686275 0.133333 0.011765
0.717647 0.133333 0.011765
0.741176 0.133333 0.011765
0.768627 0.129412 0.007843
0.796078 0.133333 0.007843
0.823529 0.133333 0.007843
0.847059 0.133333 0.007843
0.874510 0.133333 0.007843
0.901961 0.133333 0.007843
0.929412 0.133333 0.003922
0.952941 0.133333 0.003922
0.980392 0.129412 0.003922
0.027451 0.149020 0.019608
0.054902 0.149020 0.019608
0.082353 0.149020 0.019608
0.105882 0.149020 0.019608
0.141176 0.149020 0.019608
0.164706 0.149020 0.019608
0.192157 0.145098 0.019608
0.219608 0.145098 0.019608
0.250980 0.149020 0.019608
0.278431 0.149020 0.019608
0.301961 0.149020 0.019608
0.333333 0.149020 0.015686
0.360784 0.149020 0.015686
0.384314 0.152941 0.015686
0.415686 0.152941 0.015686
0.443137 0.152941 0.015686
0.470588 0.152941 0.015686
0.494118 0.152941 0.015686
0.529412 0.149020 0.015686
0.552941 0.149020 0.011765
0.580392 0.149020 0.011765
0.607843 0.152941 0.011765
0.631373 0.152941 0.011765
0.658824 0.152941 0.011765
0.686275 0.156863 0.011765
0.717647 0.156863 0.007843
0.741176 0.156863 0.007843
0.768627 0.156863 0.007843
0.796078 0.156863 0.007843
0.819608 0.156863 0.007843
0.847059 0.156863 0.007843
0.870588 0.156863 0.003922
0.901961 0.156863 0.003922
0.925490 0.156863 0.003922
0.952941 0.156863 0.003922
0.976471 0.156863 0.003922
0.023529 0.176471 0.019608
0.054902 0.176471 0.019608
0.082353 0.176471 0.019608
0.105882 0.176471 0.019608
0.137255 0.176471 0.019608
0.164706 0.176471 0.019608
0.192157 0.176471 0.019608
0.219608 0.176471 0.019608
0.247059 0.176471 0.019608
0.278431 0.176471 0.015686
0.301961 0.176471 0.015686
0.333333 0.176471 0.015686
0.356863 0.176471 0.015686
0.384314 0.180392 0.015686
0.415686 0.180392 0.015686
0.439216 0.180392 0.015686
0.470588 0.180392 0.015686
0.494118 0.180392 0.011765
0.529412 0.180392 0.011765
0.552941 0.180392 0.011765
0.576471 0.176471 0.011765
0.607843 0.180392 0.011765
0.631373 0.180392 0.011765
0.654902 0.180392 0.007843
0.686275 0.184314 0.007843
0.713725 0.184314 0.007843
0.741176 0.184314 0.007843
0.764706 0.184314 0.007843
0.796078 0.188235 0.007843
0.819608 0.184314 0.003922
0.847059 0.184314 0.003922
0.870588 0.184314 0.003922
0.901961 0.184314 0.003922
0.925490 0.184314 0.003922
0.952941 0.184314 0.003922
0.976471 0.184314 0.000000
0.023529 0.203922 0.019608
0.050980 0.203922 0.019608
0.082353 0.203922 0.019608
0.105882 0.203922 0.019608
0.137255 0.203922 0.019608
0.160784 0.203922 0.019608
0.192157 0.203922 0.019608
0.219608 0.203922 0.015686
0.247059 0.207843 0.015686
0.274510 0.203922 0.015686
0.301961 0.203922 0.015686
0.333333 0.203922 0.015686
0.356863 0.203922 0.015686
0.380392 0.207843 0.015686
0.415686 0.207843 0.015686
0.439216 0.207843 0.011765
0.470588 0.207843 0.011765
0.494118 0.207843 0.011765
0.525490 0.207843 0.011765
0.552941 0.207843 0.011765
0.576471 0.207843 0.011765
0.603922 0.207843 0.007843
0.631373 0.207843 0.007843
0.654902 0.207843 0.007843
0.686275 0.211765 0.007843
0.713725 0.211765 0.007843
0.737255 0.211765 0.007843
0.764706 0.211765 0.003922
0.792157 0.215686 0.003922
0.819608 0.215686 0.003922
0.843137 0.211765 0.003922
0.870588 0.211765 0.003922
0.898039 0.211765 0.003922
0.925490 0.211765 0.000000
0.949020 0.211765 0.000000
0.976471 0.211765 0.000000
0.023529 0.231373 0.019608
0.050980 0.231373 0.019608
0.078431 0.231373 0.019608
0.105882 0.231373 0.015686
0.137255 0.231373 0.015686
0.160784 0.231373 0.015686
0.188235 0.231373 0.015686
0.219608 0.231373 0.015686
0.247059 0.231373 0.015686
0.274510 0.231373 0.015686
0.298039 0.231373 0.015686
0.333333 0.227451 0.015686
0.356863 0.227451 0.015686
0.380392 0.231373 0.011765
0.415686 0.231373 0.011765
0.439216 0.231373 0.011765
0.466667 0.231373 0.011765
0.494118 0.231373 0.011765
0.525490 0.231373 0.011765
0.549020 0.231373 0.011765
0.576471 0.231373 0.007843
0.603922 0.235294 0.007843
0.627451 0.231373 0.007843
0.654902 0.231373 0.007843
0.682353 0.235294 0.007843
0.713725 0.235294 0.003922
0.737255 0.235294 0.003922
0.764706 0.235294 0.003922
0.792157 0.239216 0.003922
0.815686 0.239216 0.003922
0.843137 0.239216 0.003922
0.866667 0.235294 0.000000
0.898039 0.235294 0.000000
0.921569 0.235294 0.000000
0.949020 0.235294 0.000000
0.972549 0.235294 0.000000
0.019608 0.258824 0.015686
0.050980 0.258824 0.015686
0.078431 0.258824 0.015686
0.101961 0.258824 0.015686
0.137255 0.258824 0.015686
0.160784 0.258824 0.015686
0.188235 0.258824 0.015686
0.215686 0.258824 0.015686
0.247059 0.258824 0.015686
0.274510 0.258824 0.015686
0.298039 0.258824 0.015686
0.329412 0.258824 0.011765
0.356863 0.254902 0.011765
0.380392 0.258824 0.011765
0.411765 0.258824 0.011765
0.439216 0.258824 0.011765
0.466667 0.258824 0.011765
0.490196 0.258824 0.011765
0.525490 0.258824 0.007843
0.549020 0.258824 0.007843
0.572549 0.258824 0.007843
0.603922 0.262745 0.007843
0.627451 0.262745 0.007843
0.654902 0.258824 0.007843
0.682353 0.262745 0.003922
0.709804 0.262745 0.003922
0.737255 0.262745 0.003922
0.760784 0.262745 0.003922
0.792157 0.266667 0.003922
0.815686 0.266667 0.000000
0.843137 0.266667 0.000000
0.866667 0.266667 0.000000
0.898039 0.262745 0.000000
0.921569 0.262745 0.000000
0.945098 0.262745 0.000000
0.972549 0.262745 0.000000
0.019608 0.282353 0.015686
0.047059 0.282353 0.015686
0.078431 0.282353 0.015686
0.101961 0.282353 0.015686
0.133333 0.282353 0.015686
0.160784 0.282353 0.015686
0.188235 0.282353 0.015686
0.215686 0.282353 0.015686
0.243137 0.282353 0.015686
0.274510 0.282353 0.011765
0.298039 0.282353 0.011765
0.329412 0.282353 0.011765
0.356863 0.282353 0.011765
0.380392 0.282353 0.011765
0.411765 0.282353 0.011765
0.435294 0.282353 0.011765
0.466667 0.282353 0.007843
0.490196 0.282353 0.007843
0.521569 0.282353 0.007843
0.549020 0.282353 0.007843
0.572549 0.282353 0.007843
0.603922 0.286275 0.007843
0.627451 0.286275 0.003922
0.650980 0.286275 0.003922
0.682353 0.290196 0.003922
0.709804 0.286275 0.003922
0.737255 0.286275 0.003922
0.760784 0.286275 0.003922
0.788235 0.290196 0.000000
0.815686 0.290196 0.000000
0.839216 0.290196 0.000000
0.866667 0.290196 0.000000
0.894118 0.290196 0.000000
0.921569 0.286275 0.000000
0.945098 0.286275 0.000000
0.972549 0.286275 0.000000
0.019608 0.317647 0.015686
0.047059 0.313725 0.015686
0.074510 0.313725 0.015686
0.101961 0.313725 0.015686
0.133333 0.313725 0.011765
0.156863 0.313725 0.011765
0.188235 0.313725 0.011765
0.215686 0.313725 0.011765
0.243137 0.313725 0.011765
0.270588 0.313725 0.011765
0.298039 0.313725 0.011765
0.329412 0.313725 0.011765
0.352941 0.313725 0.011765
0.376471 0.317647 0.011765
0.411765 0.317647 0.007843
0.435294 0.313725 0.007843
0.462745 0.313725 0.007843
0.490196 0.313725 0.007843
0.521569 0.313725 0.007843
0.545098 0.313725 0.007843
0.572549 0.313725 0.003922
0.600000 0.317647 0.003922
0.627451 0.317647 0.003922
0.650980 0.317647 0.003922
0.678431 0.321569 0.003922
0.709804 0.321569 0.000000
0.733333 0.317647 0.000000
0.760784 0.317647 0.000000
0.788235 0.321569 0.000000
0.811765 0.321569 0.000000
0.839216 0.321569 0.000000
0.862745 0.321569 0.000000
0.894118 0.321569 0.000000
0.917647 0.321569 0.000000
0.945098 0.321569 0.000000
0.968627 0.317647 0.000000
0.019608 0.337255 0.015686
0.047059 0.337255 0.011765
0.074510 0.333333 0.011765
0.098039 0.333333 0.011765
0.133333 0.333333 0.011765
0.156863 0.333333 0.011765
0.184314 0.333333 0.011765
0.215686 0.333333 0.011765
0.243137 0.333333 0.011765
0.270588 0.333333 0.011765
0.294118 0.333333 0.011765
0.329412 0.333333 0.011765
0.352941 0.333333 0.011765
0.376471 0.337255 0.007843
0.411765 0.337255 0.007843
0.435294 0.337255 0.007843
0.462745 0.333333 0.007843
0.490196 0.333333 0.007843
0.521569 0.333333 0.007843
0.545098 0.333333 0.003922
0.572549 0.333333 0.003922
0.600000 0.337255 0.003922
0.623529 0.337255 0.003922
0.650980 0.337255 0.003922
0.678431 0.341176 0.000000
0.705882 0.341176 0.000000
0.733333 0.341176 0.000000
0.756863 0.337255 0.000000
0.788235 0.341176 0.000000
0.811765 0.341176 0.000000
0.839216 0.341176 0.000000
0.862745 0.341176 0.000000
0.894118 0.341176 0.000000
0.917647 0.341176 0.000000
0.941176 0.341176 0.000000
0.968627 0.341176 0.000000
0.015686 0.364706 0.011765
0.047059 0.364706 0.011765
0.074510 0.364706 0.011765
0.098039 0.364706 0.011765
0.129412 0.360784 0.011765
0.156863 0.360784 0.011765
0.184314 0.360784 0.011765
0.211765 0.360784 0.011765
0.243137 0.360784 0.011765
0.270588 0.360784 0.011765
0.294118 0.360784 0.007843
0.325490 0.360784 0.007843
0.352941 0.360784 0.007843
0.376471 0.360784 0.007843
0.407843 0.360784 0.007843
0.435294 0.360784 0.007843
0.462745 0.360784 0.007843
0.486275 0.356863 0.007843
0.521569 0.356863 0.003922
0.545098 0.356863 0.003922
0.568627 0.356863 0.003922
0.600000 0.360784 0.003922
0.623529 0.360784 0.003922
0.647059 0.360784 0.000000
0.678431 0.364706 0.000000
0.705882 0.364706 0.000000
0.733333 0.364706 0.000000
0.756863 0.364706 0.000000
0.784314 0.364706 0.000000
0.811765 0.364706 0.000000
0.835294 0.364706 0.000000
0.862745 0.364706 0.000000
0.890196 0.364706 0.000000
0.917647 0.364706 0.000000
0.941176 0.364706 0.000000
0.968627 0.364706 0.000000
0.015686 0.396078 0.011765
0.043137 0.396078 0.011765
0.074510 0.396078 0.011765
0.098039 0.396078 0.011765
0.129412 0.396078 0.011765
0.152941 0.396078 0.007843
0.184314 0.392157 0.007843
0.211765 0.392157 0.007843
0.239216 0.392157 0.007843
0.270588 0.392157 0.007843
0.294118 0.392157 0.007843
0.325490 0.392157 0.007843
0.349020 0.392157 0.007843
0.376471 0.392157 0.007843
0.407843 0.392157 0.007843
0.431373 0.392157 0.007843
0.462745 0.392157 0.003922
0.486275 0.392157 0.003922
0.517647 0.392157 0.003922
0.545098 0.388235 0.003922
0.568627 0.388235 0.003922
0.596078 0.392157 0.000000
0.623529 0.392157 0.000000
0.647059 0.392157 0.000000
0.674510 0.396078 0.000000
0.705882 0.396078 0.000000
0.729412 0.396078 0.000000
0.756863 0.396078 0.000000
0.784314 0.400000 0.000000
0.807843 0.400000 0.000000
0.835294 0.396078 0.000000
0.858824 0.396078 0.000000
0.890196 0.396078 0.000000
0.913725 0.396078 0.000000
0.941176 0.396078 0.000000
0.964706 0.396078 0.000000
0.015686 0.419608 0.011765
0.043137 0.419608 0.007843
0.070588 0.419608 0.007843
0.094118 0.419608 0.007843
0.129412 0.419608 0.007843
0.152941 0.419608 0.007843
0.180392 0.419608 0.007843
0.211765 0.415686 0.007843
0.239216 0.415686 0.007843
0.266667 0.415686 0.007843
0.294118 0.415686 0.007843
0.325490 0.415686 0.007843
0.349020 0.415686 0.007843
0.372549 0.415686 0.007843
0.407843 0.415686 0.003922
0.431373 0.415686 0.003922
0.458824 0.415686 0.003922
0.486275 0.415686 0.003922
0.517647 0.415686 0.003922
0.541176 0.415686 0.003922
0.568627 0.411765 0.000000
0.596078 0.415686 0.000000
0.619608 0.415686 0.000000
0.647059 0.415686 0.000000
0.674510 0.419608 0.000000
0.705882 0.419608 0.000000
0.729412 0.419608 0.000000
0.752941 0.419608 0.000000
0.784314 0.423529 0.000000
0.807843 0.423529 0.000000
0.835294 0.423529 0.000000
0.858824 0.419608 0.000000
0.886275 0.419608 0.000000
0.913725 0.419608 0.000000
0.937255 0.419608 0.000000
0.964706 0.419608 0.000000
0.011765 0.443137 0.007843
0.043137 0.443137 0.007843
0.070588 0.443137 0.007843
0.094118 0.443137 0.007843
0.129412 0.443137 0.007843
0.152941 0.443137 0.007843
0.180392 0.443137 0.007843
0.207843 0.443137 0.007843
0.239216 0.443137 0.007843
0.266667 0.439216 0.007843
0.290196 0.439216 0.003922
0.325490 0.439216 0.003922
0.349020 0.439216 0.003922
0.372549 0.439216 0.003922
0.407843 0.439216 0.003922
0.431373 0.439216 0.003922
0.458824 0.439216 0.003922
0.482353 0.439216 0.003922
0.517647 0.439216 0.000000
0.541176 0.439216 0.000000
0.564706 0.439216 0.000000
0.596078 0.439216 0.000000
0.619608 0.439216 0.000000
0.643137 0.439216 0.000000
0.674510 0.443137 0.000000
0.701961 0.443137 0.000000
0.729412 0.443137 0.000000
0.752941 0.443137 0.000000
0.780392 0.447059 0.000000
0.807843 0.447059 0.000000
0.831373 0.447059 0.000000
0.858824 0.447059 0.000000
0.886275 0.443137 0.000000
0.913725 0.443137 0.000000
0.937255 0.443137 0.000000
0.960784 0.443137 0.000000
0.011765 0.466667 0.007843
0.039216 0.466667 0.007843
0.070588 0.466667 0.007843
0.094118 0.466667 0.007843
0.125490 0.466667 0.007843
0.152941 0.466667 0.007843
0.180392 0.466667 0.003922
0.207843 0.466667 0.003922
0.235294 0.466667 0.003922
0.266667 0.466667 0.003922
0.290196 0.462745 0.003922
0.321569 0.462745 0.003922
0.349020 0.462745 0.003922
0.372549 0.462745 0.003922
0.403922 0.462745 0.003922
0.431373 0.462745 0.003922
0.458824 0.462745 0.003922
0.482353 0.462745 0.000000
0.517647 0.462745 0.000000
0.541176 0.462745 0.000000
0.564706 0.462745 0.000000
0.596078 0.466667 0.000000
0.619608 0.466667 0.000000
0.643137 0.462745 0.000000
0.674510 0.466667 0.000000
0.701961 0.466667 0.000000
0.725490 0.466667 0.000000
0.752941 0.466667 0.000000
0.780392 0.470588 0.000000
0.807843 0.470588 0.000000
0.831373 0.470588 0.000000
0.854902 0.470588 0.000000
0.886275 0.470588 0.000000
0.909804 0.466667 0.000000
0.937255 0.466667 0.000000
0.960784 0.466667 0.000000
0.011765 0.498039 0.003922
0.039216 0.498039 0.003922
0.066667 0.498039 0.003922
0.090196 0.498039 0.003922
0.125490 0.498039 0.003922
0.149020 0.498039 0.003922
0.176471 0.498039 0.003922
0.207843 0.498039 0.003922
0.235294 0.498039 0.003922
0.262745 0.498039 0.003922
0.290196 0.498039 0.003922
0.321569 0.498039 0.003922
0.345098 0.494118 0.000000
0.372549 0.494118 0.000000
0.403922 0.494118 0.000000
0.427451 0.494118 0.000000
0.458824 0.494118 0.000000
0.482353 0.494118 0.000000
0.513725 0.494118 0.000000
0.541176 0.494118 0.000000
0.564706 0.494118 0.000000
0.592157 0.498039 0.000000
0.615686 0.498039 0.000000
0.643137 0.498039 0.000000
0.670588 0.501961 0.000000
0.701961 0.498039 0.000000
0.725490 0.498039 0.000000
0.749020 0.498039 0.000000
0.780392 0.501961 0.000000
0.803922 0.501961 0.000000
0.831373 0.501961 0.000000
0.854902 0.501961 0.000000
0.882353 0.501961 0.000000
0.909804 0.501961 0.000000
0.933333 0.501961 0.000000
0.960784 0.498039 0.000000
0.007843 0.525490 0.003922
0.039216 0.525490 0.003922
0.066667 0.521569 0.003922
0.090196 0.521569 0.003922
0.125490 0.521569 0.003922
0.149020 0.521569 0.003922
0.176471 0.521569 0.003922
0.203922 0.521569 0.003922
0.235294 0.521569 0.000000
0.262745 0.521569 0.000000
0.286275 0.521569 0.000000
0.321569 0.521569 0.000000
0.345098 0.521569 0.000000
0.368627 0.517647 0.000000
0.403922 0.517647 0.000000
0.427451 0.517647 0.000000
0.454902 0.517647 0.000000
0.482353 0.517647 0.000000
0.513725 0.517647 0.000000
0.537255 0.517647 0.000000
0.564706 0.517647 0.000000
0.592157 0.521569 0.000000
0.615686 0.521569 0.000000
0.643137 0.521569 0.000000
0.670588 0.525490 0.000000
0.698039 0.525490 0.000000
0.725490 0.521569 0.000000
0.749020 0.521569 0.000000
0.776471 0.525490 0.000000
0.803922 0.525490 0.000000
0.827451 0.525490 0.000000
0.854902 0.525490 0.000000
0.882353 0.525490 0.000000
0.909804 0.525490 0.000000
0.933333 0.525490 0.000000
0.956863 0.525490 0.000000
0.007843 0.549020 0.003922
0.035294 0.549020 0.003922
0.066667 0.549020 0.003922
0.090196 0.545098 0.003922
0.121569 0.545098 0.000000
0.145098 0.545098 0.000000
0.176471 0.545098 0.000000
0.203922 0.545098 0.000000
0.231373 0.545098 0.000000
0.262745 0.545098 0.000000
0.286275 0.545098 0.000000
0.317647 0.545098 0.000000
0.345098 0.545098 0.000000
0.368627 0.545098 0.000000
0.400000 0.545098 0.000000
0.427451 0.541176 0.000000
0.454902 0.541176 0.000000
0.478431 0.541176 0.000000
0.513725 0.541176 0.000000
0.537255 0.541176 0.000000
0.560784 0.541176 0.000000
0.592157 0.545098 0.000000
0.615686 0.545098 0.000000
0.639216 0.545098 0.000000
0.670588 0.549020 0.000000
0.698039 0.549020 0.000000
0.721569 0.549020 0.000000
0.749020 0.545098 0.000000
0.776471 0.549020 0.000000
0.803922 0.549020 0.000000
0.827451 0.549020 0.000000
0.850980 0.549020 0.000000
0.882353 0.549020 0.000000
0.905882 0.549020 0.000000
0.933333 0.549020 0.000000
0.956863 0.549020 0.000000
0.003922 0.576471 0.000000
0.035294 0.576471 0.000000
0.062745 0.576471 0.000000
0.086275 0.576471 0.000000
0.121569 0.576471 0.000000
0.145098 0.572549 0.000000
0.172549 0.572549 0.000000
0.203922 0.572549 0.000000
0.231373 0.572549 0.000000
0.258824 0.572549 0.000000
0.286275 0.572549 0.000000
0.317647 0.572549 0.000000
0.341176 0.572549 0.000000
0.368627 0.572549 0.000000
0.400000 0.572549 0.000000
0.423529 0.572549 0.000000
0.454902 0.568627 0.000000
0.478431 0.568627 0.000000
0.509804 0.568627 0.000000
0.537255 0.568627 0.000000
0.560784 0.568627 0.000000
0.588235 0.568627 0.000000
0.615686 0.568627 0.000000
0.639216 0.568627 0.000000
0.666667 0.572549 0.000000
0.698039 0.572549 0.000000
0.721569 0.572549 0.000000
0.745098 0.572549 0.000000
0.776471 0.572549 0.000000
0.800000 0.572549 0.000000
0.827451 0.572549 0.000000
0.850980 0.572549 0.000000
0.878431 0.572549 0.000000
0.905882 0.572549 0.000000
0.929412 0.572549 0.000000
0.956863 0.572549 0.000000
0.003922 0.600000 0.000000
0.031373 0.600000 0.000000
0.062745 0.600000 0.000000
0.086275 0.600000 0.000000
0.117647 0.600000 0.000000
0.145098 0.600000 0.000000
0.172549 0.600000 0.000000
0.200000 0.596078 0.000000
0.231373 0.596078 0.000000
0.258824 0.596078 0.000000
0.282353 0.596078 0.000000
0.317647 0.596078 0.000000
0.341176 0.596078 0.000000
0.364706 0.596078 0.000000
0.400000 0.596078 0.000000
0.423529 0.596078 0.000000
0.450980 0.596078 0.000000
0.478431 0.596078 0.000000
0.509804 0.592157 0.000000
0.533333 0.592157 0.000000
0.560784 0.592157 0.000000
0.588235 0.592157 0.000000
0.611765 0.592157 0.000000
0.639216 0.592157 0.000000
0.666667 0.596078 0.000000
0.694118 0.596078 0.000000
0.721569 0.596078 0.000000
0.745098 0.596078 0.000000
0.776471 0.600000 0.000000
0.800000 0.600000 0.000000
0.823529 0.596078 0.000000
0.850980 0.596078 0.000000
0.878431 0.596078 0.000000
0.905882 0.596078 0.000000
0.929412 0.596078 0.000000
0.952941 0.596078 0.000000
0.003922 0.623529 0.000000
0.031373 0.623529 0.000000
0.058824 0.623529 0.000000
0.086275 0.623529 0.000000
0.117647 0.623529 0.000000
0.141176 0.623529 0.000000
0.172549 0.623529 0.000000
0.200000 0.623529 0.000000
0.227451 0.619608 0.000000
0.258824 0.619608 0.000000
0.282353 0.619608 0.000000
0.317647 0.619608 0.000000
0.341176 0.619608 0.000000
0.364706 0.619608 0.000000
0.400000 0.619608 0.000000
0.423529 0.619608 0.000000
0.450980 0.619608 0.000000
0.474510 0.619608 0.000000
0.509804 0.619608 0.000000
0.533333 0.615686 0.000000
0.556863 0.615686 0.000000
0.588235 0.615686 0.000000
0.611765 0.615686 0.000000
0.635294 0.615686 0.000000
0.666667 0.619608 0.000000
0.694118 0.619608 0.000000
0.721569 0.619608 0.000000
0.745098 0.619608 0.000000
0.772549 0.623529 0.000000
0.800000 0.623529 0.000000
0.823529 0.623529 0.000000
0.847059 0.619608 0.000000
0.878431 0.619608 0.000000
0.901961 0.619608 0.000000
0.929412 0.619608 0.000000
0.952941 0.619608 0.000000
0.000000 0.650980 0.000000
0.031373 0.650980 0.000000
0.058824 0.650980 0.000000
0.082353 0.650980 0.000000
0.117647 0.650980 0.000000
0.141176 0.650980 0.000000
0.168627 0.650980 0.000000
0.200000 0.650980 0.000000
0.227451 0.650980 0.000000
0.254902 0.650980 0.000000
0.282353 0.647059 0.000000
0.313725 0.647059 0.000000
0.337255 0.647059 0.000000
0.364706 0.647059 0.000000
0.396078 0.647059 0.000000
0.419608 0.647059 0.000000
0.450980 0.647059 0.000000
0.474510 0.647059 0.000000
0.509804 0.647059 0.000000
0.533333 0.647059 0.000000
0.556863 0.647059 0.000000
0.588235 0.643137 0.000000
0.611765 0.643137 0.000000
