luts/subtle/velvet.cube
TITLE "velvet (subtle)"
LUT_3D_SIZE 8
0.031373 0.015686 0.027451
0.168627 0.015686 0.023529
0.305882 0.019608 0.023529
0.447059 0.019608 0.019608
0.584314 0.019608 0.019608
0.721569 0.023529 0.015686
0.854902 0.027451 0.011765
0.984314 0.023529 0.011765
0.027451 0.149020 0.019608
0.164706 0.149020 0.019608
0.301961 0.149020 0.019608
0.443137 0.152941 0.015686
0.580392 0.149020 0.011765
0.717647 0.156863 0.007843
0.847059 0.156863 0.007843
0.976471 0.156863 0.003922
0.019608 0.282353 0.015686
0.160784 0.282353 0.015686
0.298039 0.282353 0.011765
0.435294 0.282353 0.011765
0.572549 0.282353 0.007843
0.709804 0.286275 0.003922
0.839216 0.290196 0.000000
0.972549 0.286275 0.000000
0.015686 0.419608 0.011765
0.152941 0.419608 0.007843
0.294118 0.415686 0.007843
0.431373 0.415686 0.003922
0.568627 0.411765 0.000000
0.705882 0.419608 0.000000
0.835294 0.423529 0.000000
0.964706 0.419608 0.000000
0.007843 0.549020 0.003922
0.145098 0.545098 0.000000
0.286275 0.545098 0.000000
0.427451 0.541176 0.000000
0.560784 0.541176 0.000000
0.698039 0.549020 0.000000
0.827451 0.549020 0.000000
0.956863 0.549020 0.000000
0.000000 0.682353 0.000000
0.141176 0.678431 0.000000
0.278431 0.678431 0.000000
0.419608 0.674510 0.000000
0.556863 0.674510 0.000000
0.694118 0.670588 0.000000
0.819608 0.674510 0.000000
0.949020 0.670588 0.000000
0.000000 0.803922 0.000000
0.133333 0.803922 0.000000
0.270588 0.800000 0.000000
0.411765 0.800000 0.000000
0.549020 0.796078 0.000000
0.686275 0.796078 0.000000
0.815686 0.792157 0.000000
0.945098 0.792157 0.000000
0.000000 0.925490 0.000000
0.121569 0.925490 0.000000
0.262745 0.921569 0.000000
0.403922 0.921569 0.000000
0.541176 0.917647 0.000000
0.678431 0.917647 0.000000
0.807843 0.913725 0.000000
0.937255 0.913725 0.000000
0.027451 0.015686 0.156863
0.168627 0.015686 0.156863
0.305882 0.019608 0.152941
0.447059 0.019608 0.152941
0.584314 0.019608 0.152941
0.721569 0.023529 0.149020
0.850980 0.023529 0.145098
0.984314 0.023529 0.145098
0.023529 0.149020 0.152941
0.164706 0.149020 0.149020
0.301961 0.152941 0.149020
0.439216 0.152941 0.149020
0.576471 0.156863 0.145098
0.713725 0.160784 0.145098
0.843137 0.156863 0.141176
0.972549 0.156863 0.137255
0.019608 0.282353 0.149020
0.160784 0.286275 0.145098
0.298039 0.286275 0.145098
0.435294 0.282353 0.141176
0.572549 0.290196 0.141176
0.709804 0.290196 0.137255
0.839216 0.290196 0.133333
0.968627 0.286275 0.133333
0.011765 0.419608 0.141176
0.152941 0.415686 0.141176
0.294118 0.415686 0.141176
0.431373 0.415686 0.137255
0.564706 0.419608 0.133333
0.701961 0.423529 0.133333
0.831373 0.419608 0.129412
0.960784 0.419608 0.125490
0.007843 0.549020 0.137255
0.149020 0.552941 0.133333
0.286275 0.552941 0.133333
0.427451 0.549020 0.133333
0.560784 0.549020 0.129412
0.698039 0.549020 0.125490
0.823529 0.549020 0.121569
0.952941 0.549020 0.117647
0.000000 0.678431 0.129412
0.141176 0.682353 0.129412
0.278431 0.678431 0.125490
0.419608 0.678431 0.125490
0.556863 0.674510 0.121569
0.690196 0.674510 0.121569
0.819608 0.674510 0.117647
0.949020 0.670588 0.113725
0.000000 0.803922 0.121569
0.133333 0.803922 0.121569
0.274510 0.800000 0.117647
0.415686 0.800000 0.117647
0.549020 0.796078 0.113725
0.686275 0.796078 0.113725
0.815686 0.792157 0.109804
0.941176 0.792157 0.105882
0.000000 0.925490 0.113725
0.125490 0.921569 0.113725
0.266667 0.921569 0.109804
0.407843 0.917647 0.109804
0.545098 0.917647 0.105882
0.678431 0.913725 0.105882
0.807843 0.913725 0.101961
0.937255 0.909804 0.101961
0.027451 0.019608 0.282353
0.168627 0.019608 0.282353
0.305882 0.019608 0.282353
0.447059 0.019608 0.282353
0.584314 0.015686 0.278431
0.721569 0.023529 0.278431
0.850980 0.023529 0.274510
0.984314 0.019608 0.274510
0.023529 0.152941 0.278431
0.160784 0.152941 0.278431
0.301961 0.152941 0.274510
0.439216 0.152941 0.274510
0.576471 0.156863 0.274510
0.713725 0.160784 0.270588
0.843137 0.156863 0.270588
0.972549 0.152941 0.266667
0.019608 0.282353 0.274510
0.156863 0.286275 0.274510
0.298039 0.282353 0.270588
0.435294 0.290196 0.270588
0.568627 0.294118 0.266667
0.705882 0.290196 0.266667
0.835294 0.290196 0.262745
0.964706 0.286275 0.262745
0.011765 0.419608 0.270588
0.152941 0.415686 0.270588
0.290196 0.423529 0.266667
0.431373 0.423529 0.266667
0.564706 0.423529 0.262745
0.701961 0.423529 0.262745
0.827451 0.419608 0.258824
0.956863 0.419608 0.254902
0.007843 0.545098 0.262745
0.149020 0.552941 0.262745
0.286275 0.552941 0.262745
0.427451 0.552941 0.258824
0.560784 0.552941 0.258824
0.694118 0.549020 0.254902
0.823529 0.549020 0.254902
0.952941 0.545098 0.250980
0.000000 0.678431 0.258824
0.141176 0.682353 0.254902
0.282353 0.678431 0.254902
0.419608 0.678431 0.254902
0.556863 0.674510 0.254902
0.690196 0.674510 0.250980
0.819608 0.670588 0.247059
0.945098 0.670588 0.243137
0.000000 0.803922 0.250980
0.133333 0.800000 0.250980
0.274510 0.800000 0.250980
0.415686 0.796078 0.247059
0.549020 0.796078 0.247059
0.686275 0.792157 0.243137
0.811765 0.792157 0.243137
0.941176 0.792157 0.239216
0.000000 0.925490 0.243137
0.125490 0.921569 0.243137
0.266667 0.917647 0.243137
0.407843 0.917647 0.239216
0.545098 0.917647 0.239216
0.678431 0.913725 0.235294
0.807843 0.913725 0.235294
0.937255 0.909804 0.231373
0.027451 0.023529 0.415686
0.168627 0.023529 0.415686
0.305882 0.019608 0.415686
0.447059 0.019608 0.411765
0.584314 0.015686 0.411765
0.721569 0.023529 0.411765
0.850980 0.023529 0.411765
0.984314 0.019608 0.407843
0.023529 0.156863 0.411765
0.160784 0.152941 0.407843
0.301961 0.152941 0.407843
0.439216 0.152941 0.407843
0.576471 0.156863 0.403922
0.713725 0.160784 0.403922
0.843137 0.156863 0.403922
0.972549 0.152941 0.400000
0.019608 0.286275 0.407843
0.156863 0.286275 0.403922
0.294118 0.290196 0.403922
0.435294 0.290196 0.400000
0.568627 0.294118 0.400000
0.705882 0.290196 0.400000
0.835294 0.290196 0.396078
0.964706 0.286275 0.396078
0.011765 0.419608 0.400000
0.152941 0.415686 0.400000
0.290196 0.423529 0.400000
0.431373 0.427451 0.396078
0.564706 0.423529 0.396078
0.698039 0.423529 0.392157
0.827451 0.419608 0.392157
0.956863 0.419608 0.388235
0.003922 0.545098 0.396078
0.145098 0.552941 0.396078
0.286275 0.552941 0.392157
0.427451 0.552941 0.392157
0.560784 0.552941 0.392157
0.694118 0.549020 0.388235
0.823529 0.549020 0.388235
0.949020 0.545098 0.384314
0.000000 0.678431 0.392157
0.141176 0.678431 0.388235
0.282353 0.678431 0.388235
0.419608 0.674510 0.388235
0.556863 0.674510 0.388235
0.690196 0.674510 0.384314
0.815686 0.670588 0.380392
0.945098 0.670588 0.380392
0.000000 0.803922 0.384314
0.133333 0.800000 0.384314
0.274510 0.800000 0.384314
0.415686 0.796078 0.380392
0.549020 0.796078 0.380392
0.686275 0.792157 0.380392
0.811765 0.792157 0.376471
0.941176 0.788235 0.372549
0.000000 0.925490 0.376471
0.125490 0.921569 0.376471
0.266667 0.917647 0.376471
0.407843 0.917647 0.376471
0.545098 0.913725 0.372549
0.678431 0.913725 0.372549
0.807843 0.909804 0.372549
0.933333 0.909804 0.368627
0.027451 0.023529 0.541176
0.168627 0.023529 0.541176
0.305882 0.019608 0.541176
0.447059 0.019608 0.537255
0.584314 0.015686 0.537255
0.721569 0.023529 0.537255
0.850980 0.023529 0.537255
0.980392 0.019608 0.533333
0.023529 0.156863 0.537255
0.160784 0.156863 0.533333
0.301961 0.156863 0.533333
0.439216 0.152941 0.529412
0.576471 0.156863 0.529412
0.709804 0.156863 0.529412
0.843137 0.156863 0.529412
0.972549 0.152941 0.525490
0.015686 0.286275 0.533333
0.156863 0.294118 0.529412
0.294118 0.294118 0.525490
0.435294 0.294118 0.525490
0.568627 0.294118 0.521569
0.705882 0.290196 0.521569
0.835294 0.290196 0.521569
0.964706 0.286275 0.521569
0.011765 0.419608 0.525490
0.152941 0.423529 0.521569
0.290196 0.427451 0.521569
0.427451 0.423529 0.517647
0.564706 0.423529 0.517647
0.698039 0.423529 0.517647
0.827451 0.419608 0.517647
0.956863 0.419608 0.513725
0.003922 0.545098 0.521569
0.145098 0.552941 0.517647
0.286275 0.552941 0.517647
0.423529 0.552941 0.513725
0.560784 0.552941 0.513725
0.694118 0.549020 0.513725
0.819608 0.549020 0.509804
0.949020 0.545098 0.509804
0.000000 0.678431 0.513725
0.137255 0.678431 0.513725
0.278431 0.678431 0.513725
0.419608 0.674510 0.509804
0.556863 0.674510 0.509804
0.690196 0.674510 0.509804
0.815686 0.670588 0.505882
0.945098 0.670588 0.505882
0.000000 0.803922 0.509804
0.133333 0.800000 0.505882
0.274510 0.796078 0.505882
0.415686 0.796078 0.505882
0.549020 0.792157 0.505882
0.686275 0.792157 0.501961
0.811765 0.792157 0.501961
0.937255 0.788235 0.498039
0.000000 0.925490 0.501961
0.125490 0.921569 0.501961
0.266667 0.917647 0.501961
0.407843 0.913725 0.501961
0.545098 0.913725 0.498039
0.678431 0.913725 0.498039
0.807843 0.909804 0.498039
0.933333 0.909804 0.494118
0.027451 0.027451 0.674510
0.168627 0.023529 0.670588
0.305882 0.023529 0.670588
0.447059 0.019608 0.666667
0.584314 0.019608 0.666667
0.717647 0.019608 0.666667
0.850980 0.023529 0.666667
0.980392 0.019608 0.666667
0.019608 0.156863 0.666667
0.160784 0.164706 0.662745
0.301961 0.164706 0.662745
0.439216 0.160784 0.658824
0.576471 0.160784 0.658824
0.709804 0.156863 0.658824
0.839216 0.156863 0.658824
0.972549 0.152941 0.654902
0.015686 0.290196 0.662745
0.156863 0.298039 0.658824
0.294118 0.294118 0.654902
0.435294 0.294118 0.650980
0.568627 0.290196 0.650980
0.705882 0.290196 0.650980
0.831373 0.286275 0.650980
0.960784 0.286275 0.650980
0.007843 0.423529 0.654902
0.149020 0.427451 0.650980
0.290196 0.427451 0.650980
0.427451 0.423529 0.647059
0.564706 0.423529 0.647059
0.698039 0.423529 0.643137
0.827451 0.419608 0.643137
0.952941 0.419608 0.643137
0.003922 0.549020 0.650980
0.145098 0.556863 0.647059
0.286275 0.552941 0.643137
0.423529 0.552941 0.643137
0.556863 0.549020 0.639216
0.694118 0.549020 0.639216
0.819608 0.549020 0.639216
0.949020 0.545098 0.635294
0.000000 0.678431 0.643137
0.137255 0.678431 0.643137
0.278431 0.678431 0.639216
0.419608 0.674510 0.639216
0.556863 0.674510 0.635294
0.690196 0.670588 0.635294
0.815686 0.670588 0.635294
0.941176 0.670588 0.631373
0.000000 0.803922 0.639216
0.129412 0.800000 0.635294
0.274510 0.796078 0.635294
0.415686 0.796078 0.635294
0.549020 0.792157 0.631373
0.686275 0.792157 0.631373
0.811765 0.792157 0.631373
0.937255 0.788235 0.627451
0.000000 0.921569 0.631373
0.121569 0.921569 0.631373
0.266667 0.917647 0.631373
0.407843 0.913725 0.627451
0.545098 0.913725 0.627451
0.682353 0.909804 0.627451
0.807843 0.909804 0.627451
0.933333 0.909804 0.623529
0.023529 0.035294 0.796078
0.164706 0.031373 0.796078
0.305882 0.031373 0.792157
0.447059 0.027451 0.792157
0.584314 0.027451 0.788235
0.721569 0.023529 0.788235
0.850980 0.023529 0.788235
0.980392 0.019608 0.788235
0.019608 0.164706 0.792157
0.160784 0.164706 0.784314
0.298039 0.160784 0.784314
0.439216 0.160784 0.780392
0.576471 0.156863 0.780392
0.709804 0.156863 0.776471
0.839216 0.156863 0.776471
0.972549 0.152941 0.776471
0.011765 0.298039 0.784314
0.152941 0.294118 0.780392
0.294118 0.294118 0.776471
0.435294 0.294118 0.772549
0.568627 0.290196 0.772549
0.705882 0.290196 0.772549
0.831373 0.286275 0.768627
0.960784 0.286275 0.768627
0.007843 0.431373 0.776471
0.149020 0.427451 0.772549
0.290196 0.427451 0.768627
0.427451 0.423529 0.768627
0.564706 0.423529 0.764706
0.698039 0.419608 0.764706
0.823529 0.419608 0.764706
0.952941 0.415686 0.760784
0.000000 0.556863 0.772549
0.141176 0.556863 0.768627
0.282353 0.552941 0.764706
0.423529 0.552941 0.760784
0.556863 0.549020 0.760784
0.694118 0.549020 0.756863
0.819608 0.549020 0.756863
0.949020 0.545098 0.756863
0.000000 0.682353 0.764706
0.137255 0.678431 0.760784
0.278431 0.678431 0.760784
0.419608 0.674510 0.756863
0.552941 0.674510 0.756863
0.690196 0.670588 0.752941
0.815686 0.670588 0.752941
0.941176 0.670588 0.752941
0.000000 0.800000 0.760784
0.129412 0.800000 0.756863
0.274510 0.796078 0.756863
0.415686 0.796078 0.752941
0.549020 0.792157 0.752941
0.686275 0.792157 0.749020
0.811765 0.788235 0.749020
0.937255 0.788235 0.749020
0.000000 0.921569 0.752941
0.121569 0.921569 0.752941
0.266667 0.917647 0.749020
0.407843 0.913725 0.749020
0.545098 0.913725 0.749020
0.678431 0.909804 0.745098
0.807843 0.909804 0.745098
0.933333 0.909804 0.745098
0.023529 0.031373 0.921569
0.164706 0.031373 0.917647
0.305882 0.027451 0.917647
0.447059 0.027451 0.913725
0.584314 0.023529 0.913725
0.721569 0.023529 0.909804
0.850980 0.019608 0.909804
0.980392 0.019608 0.909804
0.019608 0.164706 0.913725
0.160784 0.164706 0.909804
0.298039 0.160784 0.905882
0.439216 0.160784 0.905882
0.576471 0.156863 0.901961
0.713725 0.156863 0.901961
0.839216 0.152941 0.898039
0.968627 0.152941 0.898039
0.011765 0.298039 0.905882
0.152941 0.294118 0.901961
0.294118 0.294118 0.898039
0.435294 0.290196 0.894118
0.568627 0.290196 0.894118
0.705882 0.290196 0.894118
0.831373 0.286275 0.890196
0.960784 0.286275 0.890196
0.003922 0.427451 0.901961
0.145098 0.427451 0.898039
0.286275 0.423529 0.890196
0.427451 0.423529 0.886275
0.564706 0.423529 0.886275
0.698039 0.419608 0.886275
0.823529 0.419608 0.882353
0.952941 0.415686 0.882353
0.000000 0.556863 0.894118
0.141176 0.556863 0.890196
0.282353 0.552941 0.886275
0.423529 0.552941 0.882353
0.556863 0.549020 0.878431
0.694118 0.549020 0.878431
0.819608 0.545098 0.878431
0.945098 0.545098 0.874510
0.000000 0.682353 0.886275
0.133333 0.678431 0.882353
0.278431 0.678431 0.882353
0.415686 0.674510 0.878431
0.552941 0.674510 0.874510
0.686275 0.670588 0.874510
0.815686 0.670588 0.870588
0.941176 0.670588 0.870588
0.000000 0.800000 0.882353
0.129412 0.800000 0.878431
0.270588 0.796078 0.874510
0.411765 0.796078 0.874510
0.549020 0.792157 0.870588
0.682353 0.792157 0.870588
0.811765 0.788235 0.866667
0.937255 0.788235 0.866667
0.000000 0.921569 0.874510
0.121569 0.917647 0.874510
0.266667 0.917647 0.870588
0.407843 0.913725 0.866667
0.545098 0.913725 0.866667
0.678431 0.909804 0.866667
0.807843 0.909804 0.862745
0.933333 0.905882 0.862745
