luts/full/espresso.cube
TITLE "espresso (full)"
LUT_3D_SIZE 8
0.039216 0.039216 0.039216
0.117647 0.039216 0.039216
0.235294 0.039216 0.039216
0.372549 0.039216 0.039216
0.498039 0.039216 0.039216
0.600000 0.043137 0.039216
0.694118 0.047059 0.039216
0.796078 0.054902 0.039216
0.039216 0.133333 0.039216
0.125490 0.141176 0.039216
0.247059 0.149020 0.039216
0.384314 0.152941 0.039216
0.505882 0.156863 0.039216
0.607843 0.164706 0.039216
0.701961 0.172549 0.043137
0.815686 0.172549 0.050980
0.043137 0.254902 0.039216
0.149020 0.262745 0.039216
0.262745 0.274510 0.039216
0.392157 0.274510 0.039216
0.521569 0.282353 0.039216
0.615686 0.286275 0.039216
0.709804 0.290196 0.058824
0.827451 0.298039 0.070588
0.062745 0.380392 0.039216
0.172549 0.384314 0.039216
0.294118 0.388235 0.039216
0.411765 0.396078 0.039216
0.525490 0.403922 0.043137
0.627451 0.411765 0.062745
0.725490 0.411765 0.070588
0.831373 0.423529 0.074510
0.078431 0.501961 0.039216
0.188235 0.505882 0.039216
0.305882 0.513725 0.043137
0.423529 0.513725 0.043137
0.533333 0.525490 0.050980
0.635294 0.529412 0.078431
0.729412 0.537255 0.074510
0.850980 0.541176 0.094118
0.070588 0.619608 0.050980
0.184314 0.623529 0.050980
0.298039 0.631373 0.062745
0.415686 0.635294 0.078431
0.525490 0.639216 0.078431
0.635294 0.647059 0.090196
0.745098 0.654902 0.094118
0.854902 0.658824 0.098039
0.070588 0.733333 0.070588
0.188235 0.741176 0.074510
0.298039 0.741176 0.078431
0.423529 0.752941 0.090196
0.525490 0.756863 0.090196
0.654902 0.760784 0.105882
0.756863 0.768627 0.098039
0.862745 0.772549 0.113725
0.082353 0.854902 0.082353
0.200000 0.858824 0.094118
0.313725 0.858824 0.090196
0.435294 0.870588 0.105882
0.545098 0.874510 0.098039
0.654902 0.878431 0.113725
0.768627 0.878431 0.113725
0.874510 0.878431 0.121569
0.039216 0.039216 0.117647
0.117647 0.039216 0.117647
0.243137 0.039216 0.121569
0.372549 0.039216 0.121569
0.501961 0.043137 0.117647
0.600000 0.043137 0.129412
0.690196 0.054902 0.145098
0.807843 0.058824 0.152941
0.039216 0.141176 0.121569
0.137255 0.141176 0.129412
0.266667 0.149020 0.125490
0.388235 0.156863 0.121569
0.498039 0.160784 0.137255
0.596078 0.168627 0.149020
0.705882 0.172549 0.156863
0.815686 0.180392 0.160784
0.043137 0.258824 0.133333
0.160784 0.262745 0.129412
0.274510 0.270588 0.129412
0.411765 0.278431 0.141176
0.505882 0.282353 0.145098
0.611765 0.290196 0.168627
0.717647 0.294118 0.172549
0.827451 0.298039 0.172549
0.062745 0.384314 0.129412
0.184314 0.392157 0.141176
0.301961 0.392157 0.137255
0.411765 0.400000 0.149020
0.513725 0.407843 0.164706
0.615686 0.411765 0.172549
0.721569 0.415686 0.176471
0.839216 0.423529 0.188235
0.078431 0.505882 0.145098
0.180392 0.509804 0.156863
0.294118 0.513725 0.160784
0.411765 0.525490 0.168627
0.521569 0.525490 0.172549
0.623529 0.529412 0.188235
0.741176 0.537255 0.196078
0.847059 0.545098 0.200000
0.070588 0.619608 0.160784
0.176471 0.631373 0.180392
0.290196 0.635294 0.176471
0.411765 0.635294 0.188235
0.525490 0.647059 0.196078
0.635294 0.650980 0.200000
0.741176 0.654902 0.207843
0.854902 0.666667 0.211765
0.070588 0.737255 0.172549
0.188235 0.745098 0.188235
0.305882 0.745098 0.192157
0.419608 0.752941 0.196078
0.537255 0.756863 0.207843
0.647059 0.764706 0.203922
0.756863 0.772549 0.219608
0.870588 0.776471 0.223529
0.082353 0.850980 0.192157
0.200000 0.858824 0.196078
0.313725 0.862745 0.207843
0.435294 0.870588 0.203922
0.545098 0.874510 0.219608
0.658824 0.878431 0.223529
0.768627 0.878431 0.227451
0.878431 0.878431 0.235294
0.039216 0.039216 0.223529
0.121569 0.039216 0.223529
0.247059 0.039216 0.239216
0.376471 0.039216 0.227451
0.501961 0.039216 0.231373
0.603922 0.047059 0.247059
0.698039 0.050980 0.258824
0.807843 0.062745 0.266667
0.043137 0.141176 0.235294
0.141176 0.145098 0.227451
0.266667 0.152941 0.235294
0.403922 0.156863 0.235294
0.494118 0.160784 0.250980
0.600000 0.172549 0.262745
0.701961 0.172549 0.274510
0.819608 0.184314 0.274510
0.043137 0.258824 0.247059
0.172549 0.274510 0.239216
0.294118 0.274510 0.247059
0.392157 0.278431 0.254902
0.490196 0.286275 0.274510
0.607843 0.294118 0.274510
0.709804 0.298039 0.278431
0.827451 0.301961 0.286275
0.066667 0.384314 0.247059
0.192157 0.388235 0.247059
0.278431 0.392157 0.254902
0.400000 0.403922 0.270588
0.501961 0.407843 0.278431
0.619608 0.415686 0.286275
0.733333 0.419608 0.298039
0.839216 0.423529 0.294118
0.078431 0.505882 0.247059
0.172549 0.509804 0.266667
0.278431 0.517647 0.286275
0.400000 0.525490 0.282353
0.509804 0.525490 0.294118
0.631373 0.533333 0.294118
0.741176 0.541176 0.305882
0.850980 0.545098 0.309804
0.074510 0.619608 0.278431
0.180392 0.631373 0.282353
0.298039 0.631373 0.294118
0.411765 0.639216 0.298039
0.525490 0.650980 0.305882
0.643137 0.654902 0.309804
0.752941 0.658824 0.317647
0.858824 0.658824 0.321569
0.074510 0.737255 0.294118
0.192157 0.741176 0.298039
0.305882 0.749020 0.309804
0.423529 0.756863 0.305882
0.537255 0.760784 0.321569
0.654902 0.764706 0.321569
0.760784 0.776471 0.329412
0.870588 0.776471 0.329412
0.094118 0.858824 0.305882
0.203922 0.858824 0.305882
0.321569 0.866667 0.321569
0.435294 0.874510 0.321569
0.549020 0.878431 0.329412
0.662745 0.878431 0.329412
0.776471 0.878431 0.341176
0.878431 0.878431 0.345098
0.054902 0.039216 0.329412
0.145098 0.039216 0.337255
0.254902 0.039216 0.337255
0.380392 0.043137 0.345098
0.501961 0.043137 0.341176
0.600000 0.047059 0.360784
0.698039 0.054902 0.376471
0.807843 0.062745 0.380392
0.054902 0.145098 0.337255
0.168627 0.149020 0.337255
0.282353 0.149020 0.345098
0.400000 0.160784 0.352941
0.498039 0.164706 0.360784
0.600000 0.172549 0.380392
0.709804 0.180392 0.388235
0.819608 0.180392 0.392157
0.058824 0.262745 0.345098
0.176471 0.270588 0.349020
0.278431 0.274510 0.356863
0.392157 0.278431 0.376471
0.490196 0.286275 0.376471
0.611765 0.294118 0.392157
0.721569 0.298039 0.400000
0.827451 0.298039 0.400000
0.062745 0.388235 0.356863
0.192157 0.392157 0.368627
0.286275 0.396078 0.368627
0.396078 0.403922 0.392157
0.509804 0.411765 0.400000
0.615686 0.415686 0.400000
0.733333 0.423529 0.411765
0.839216 0.427451 0.411765
0.082353 0.505882 0.368627
0.180392 0.513725 0.384314
0.294118 0.517647 0.396078
0.407843 0.525490 0.407843
0.517647 0.529412 0.407843
0.635294 0.533333 0.415686
0.741176 0.545098 0.415686
0.850980 0.545098 0.423529
0.070588 0.627451 0.388235
0.184314 0.631373 0.407843
0.298039 0.639216 0.407843
0.411765 0.639216 0.411765
0.533333 0.650980 0.415686
0.635294 0.654902 0.423529
0.752941 0.654902 0.431373
0.862745 0.670588 0.435294
0.078431 0.745098 0.407843
0.196078 0.745098 0.411765
0.309804 0.752941 0.419608
0.431373 0.756863 0.423529
0.545098 0.764706 0.431373
0.647059 0.768627 0.431373
0.764706 0.776471 0.439216
0.874510 0.780392 0.450980
0.090196 0.858824 0.419608
0.200000 0.858824 0.419608
0.321569 0.870588 0.431373
0.435294 0.874510 0.435294
0.545098 0.878431 0.435294
0.666667 0.878431 0.450980
0.772549 0.878431 0.454902
0.878431 0.878431 0.462745
0.070588 0.039216 0.431373
0.156863 0.039216 0.435294
0.274510 0.039216 0.439216
0.392157 0.039216 0.454902
0.501961 0.047059 0.450980
0.607843 0.047059 0.470588
0.698039 0.058824 0.486275
0.807843 0.066667 0.490196
0.070588 0.145098 0.435294
0.156863 0.152941 0.454902
0.274510 0.156863 0.462745
0.384314 0.160784 0.466667
0.505882 0.172549 0.478431
0.600000 0.172549 0.486275
0.705882 0.180392 0.498039
0.819608 0.188235 0.498039
0.070588 0.274510 0.454902
0.168627 0.274510 0.466667
0.270588 0.278431 0.482353
0.384314 0.278431 0.490196
0.501961 0.290196 0.498039
0.607843 0.294118 0.501961
0.721569 0.298039 0.505882
0.827451 0.305882 0.509804
0.078431 0.388235 0.462745
0.172549 0.392157 0.482353
0.278431 0.403922 0.498039
0.388235 0.407843 0.501961
0.505882 0.411765 0.505882
0.623529 0.415686 0.509804
0.729412 0.423529 0.525490
0.847059 0.435294 0.525490
0.082353 0.509804 0.478431
0.180392 0.517647 0.494118
0.290196 0.521569 0.509804
0.400000 0.525490 0.505882
0.525490 0.533333 0.525490
0.631373 0.537255 0.525490
0.741176 0.545098 0.525490
0.858824 0.552941 0.537255
0.074510 0.627451 0.505882
0.184314 0.631373 0.505882
0.298039 0.639216 0.517647
0.419608 0.639216 0.525490
0.525490 0.650980 0.525490
0.647059 0.658824 0.537255
0.752941 0.662745 0.541176
0.862745 0.666667 0.545098
0.078431 0.741176 0.517647
0.192157 0.745098 0.521569
0.313725 0.752941 0.537255
0.427451 0.760784 0.533333
0.537255 0.764706 0.541176
0.654902 0.776471 0.545098
0.760784 0.776471 0.552941
0.878431 0.784314 0.552941
0.094118 0.858824 0.537255
0.207843 0.866667 0.533333
0.321569 0.870588 0.541176
0.443137 0.878431 0.545098
0.556863 0.878431 0.552941
0.666667 0.878431 0.556863
0.776471 0.878431 0.564706
0.878431 0.878431 0.564706
0.058824 0.039216 0.552941
0.149020 0.039216 0.556863
0.270588 0.039216 0.560784
0.384314 0.043137 0.568627
0.498039 0.047059 0.572549
0.603922 0.054902 0.580392
0.701961 0.062745 0.600000
0.811765 0.066667 0.596078
0.058824 0.149020 0.560784
0.149020 0.149020 0.572549
0.254902 0.156863 0.584314
0.372549 0.164706 0.584314
0.486275 0.172549 0.596078
0.600000 0.176471 0.596078
0.717647 0.180392 0.603922
0.823529 0.184314 0.607843
0.058824 0.266667 0.576471
0.149020 0.274510 0.584314
0.266667 0.282353 0.596078
0.384314 0.286275 0.600000
0.498039 0.294118 0.600000
0.611765 0.298039 0.607843
0.721569 0.301961 0.619608
0.839216 0.313725 0.627451
0.066667 0.392157 0.584314
0.160784 0.396078 0.600000
0.282353 0.400000 0.607843
0.396078 0.411765 0.607843
0.513725 0.411765 0.619608
0.627451 0.423529 0.627451
0.733333 0.427451 0.627451
0.847059 0.431373 0.635294
0.070588 0.509804 0.600000
0.172549 0.517647 0.603922
0.286275 0.525490 0.615686
0.411765 0.529412 0.623529
0.521569 0.533333 0.623529
0.635294 0.541176 0.639216
0.741176 0.545098 0.635294
0.858824 0.549020 0.647059
0.078431 0.631373 0.615686
0.188235 0.635294 0.623529
0.298039 0.643137 0.623529
0.423529 0.650980 0.639216
0.533333 0.654902 0.635294
0.647059 0.654902 0.647059
0.756863 0.662745 0.654902
0.862745 0.670588 0.654902
0.082353 0.745098 0.631373
0.200000 0.752941 0.635294
0.309804 0.756863 0.635294
0.435294 0.764706 0.647059
0.545098 0.764706 0.647059
0.654902 0.772549 0.658824
0.764706 0.776471 0.654902
0.878431 0.780392 0.670588
0.090196 0.858824 0.635294
0.215686 0.870588 0.647059
0.321569 0.874510 0.647059
0.443137 0.874510 0.658824
0.556863 0.878431 0.654902
0.666667 0.878431 0.670588
0.776471 0.878431 0.670588
0.878431 0.878431 0.678431
0.043137 0.039216 0.666667
0.141176 0.039216 0.670588
0.250980 0.043137 0.674510
0.360784 0.043137 0.682353
0.482353 0.050980 0.690196
0.592157 0.058824 0.701961
0.701961 0.062745 0.694118
0.815686 0.070588 0.709804
0.043137 0.149020 0.670588
0.141176 0.152941 0.686275
0.254902 0.160784 0.690196
0.372549 0.160784 0.690196
0.490196 0.172549 0.701961
0.607843 0.176471 0.705882
0.709804 0.180392 0.705882
0.827451 0.196078 0.717647
0.043137 0.274510 0.690196
0.149020 0.274510 0.690196
0.274510 0.278431 0.698039
0.388235 0.290196 0.713725
0.501961 0.298039 0.705882
0.619608 0.298039 0.721569
0.725490 0.305882 0.717647
0.839216 0.309804 0.729412
0.043137 0.392157 0.698039
0.172549 0.403922 0.713725
0.282353 0.407843 0.705882
0.396078 0.411765 0.721569
0.513725 0.415686 0.725490
0.623529 0.423529 0.729412
0.737255 0.427451 0.729412
0.847059 0.435294 0.741176
0.062745 0.509804 0.709804
0.180392 0.521569 0.721569
0.294118 0.525490 0.721569
0.411765 0.529412 0.725490
0.525490 0.537255 0.729412
0.639216 0.541176 0.741176
0.745098 0.545098 0.741176
0.858824 0.552941 0.752941
0.074510 0.631373 0.721569
0.184314 0.639216 0.725490
0.305882 0.643137 0.729412
0.419608 0.650980 0.741176
0.533333 0.650980 0.741176
0.647059 0.662745 0.752941
0.756863 0.670588 0.756863
0.874510 0.670588 0.760784
0.078431 0.749020 0.725490
0.200000 0.752941 0.741176
0.317647 0.756863 0.741176
0.431373 0.764706 0.749020
0.545098 0.768627 0.756863
0.654902 0.776471 0.756863
0.772549 0.780392 0.768627
0.878431 0.788235 0.776471
0.098039 0.858824 0.741176
0.207843 0.870588 0.749020
0.321569 0.874510 0.756863
0.447059 0.878431 0.756863
0.556863 0.878431 0.768627
0.674510 0.878431 0.776471
0.776471 0.878431 0.780392
0.878431 0.878431 0.780392
0.039216 0.039216 0.776471
0.133333 0.039216 0.780392
0.243137 0.043137 0.788235
0.372549 0.047059 0.796078
0.482353 0.050980 0.796078
0.600000 0.062745 0.807843
0.705882 0.062745 0.811765
0.815686 0.070588 0.811765
0.039216 0.149020 0.788235
0.141176 0.160784 0.792157
0.262745 0.164706 0.803922
0.376471 0.172549 0.800000
0.486275 0.172549 0.807843
0.611765 0.180392 0.819608
0.709804 0.188235 0.819608
0.835294 0.192157 0.827451
0.039216 0.274510 0.800000
0.160784 0.278431 0.807843
0.274510 0.282353 0.807843
0.388235 0.294118 0.811765
0.505882 0.298039 0.827451
0.615686 0.301961 0.827451
0.725490 0.301961 0.831373
0.839216 0.317647 0.835294
0.047059 0.396078 0.807843
0.172549 0.400000 0.811765
0.274510 0.407843 0.823529
0.407843 0.411765 0.827451
0.509804 0.415686 0.831373
0.631373 0.427451 0.835294
0.741176 0.435294 0.843137
0.847059 0.435294 0.843137
0.058824 0.513725 0.823529
0.172549 0.525490 0.819608
0.298039 0.525490 0.831373
0.411765 0.533333 0.839216
0.525490 0.541176 0.843137
0.639216 0.545098 0.847059
0.749020 0.552941 0.850980
0.858824 0.556863 0.858824
0.074510 0.635294 0.831373
0.196078 0.639216 0.839216
0.305882 0.650980 0.843137
0.423529 0.654902 0.847059
0.545098 0.654902 0.858824
0.650980 0.658824 0.854902
0.764706 0.670588 0.866667
0.870588 0.670588 0.870588
0.090196 0.752941 0.847059
0.200000 0.756863 0.843137
0.317647 0.760784 0.854902
0.435294 0.768627 0.854902
0.545098 0.776471 0.862745
0.662745 0.776471 0.870588
0.772549 0.784314 0.874510
0.878431 0.784314 0.878431
0.101961 0.870588 0.858824
0.215686 0.874510 0.858824
0.333333 0.874510 0.862745
0.447059 0.878431 0.870588
0.560784 0.878431 0.874510
0.670588 0.878431 0.878431
0.780392 0.878431 0.878431
0.878431 0.878431 0.878431
