luts/full/espresso.cube
TITLE "espresso (full)"
LUT_3D_SIZE 36
0.039216 0.039216 0.039216
0.039216 0.039216 0.039216
0.047059 0.039216 0.039216
0.070588 0.039216 0.039216
0.094118 0.039216 0.039216
0.117647 0.039216 0.039216
0.141176 0.039216 0.039216
0.160784 0.039216 0.039216
0.184314 0.039216 0.039216
0.215686 0.039216 0.039216
0.235294 0.039216 0.039216
0.266667 0.039216 0.039216
0.290196 0.039216 0.039216
0.313725 0.039216 0.039216
0.345098 0.039216 0.039216
0.372549 0.039216 0.039216
0.400000 0.039216 0.039216
0.415686 0.039216 0.039216
0.454902 0.039216 0.039216
0.478431 0.039216 0.039216
0.498039 0.039216 0.039216
0.521569 0.039216 0.039216
0.545098 0.043137 0.039216
0.556863 0.043137 0.039216
0.580392 0.043137 0.039216
0.600000 0.043137 0.039216
0.619608 0.043137 0.039216
0.635294 0.043137 0.039216
0.662745 0.043137 0.039216
0.674510 0.047059 0.039216
0.694118 0.047059 0.039216
0.713725 0.047059 0.039216
0.733333 0.054902 0.039216
0.756863 0.054902 0.039216
0.776471 0.050980 0.039216
0.796078 0.054902 0.039216
0.039216 0.043137 0.039216
0.039216 0.039216 0.039216
0.047059 0.039216 0.039216
0.070588 0.043137 0.039216
0.094118 0.043137 0.039216
0.117647 0.043137 0.039216
0.141176 0.043137 0.039216
0.172549 0.043137 0.039216
0.188235 0.047059 0.039216
0.211765 0.047059 0.039216
0.243137 0.047059 0.039216
0.270588 0.050980 0.039216
0.298039 0.050980 0.039216
0.321569 0.050980 0.039216
0.341176 0.054902 0.039216
0.372549 0.058824 0.039216
0.388235 0.050980 0.039216
0.427451 0.058824 0.039216
0.454902 0.058824 0.039216
0.478431 0.062745 0.039216
0.501961 0.062745 0.039216
0.525490 0.062745 0.039216
0.545098 0.066667 0.039216
0.564706 0.062745 0.039216
0.580392 0.066667 0.039216
0.600000 0.066667 0.039216
0.619608 0.070588 0.039216
0.639216 0.070588 0.039216
0.658824 0.070588 0.039216
0.682353 0.070588 0.039216
0.694118 0.074510 0.043137
0.709804 0.070588 0.039216
0.741176 0.070588 0.039216
0.756863 0.074510 0.039216
0.776471 0.074510 0.043137
0.807843 0.078431 0.043137
0.039216 0.062745 0.039216
0.039216 0.062745 0.039216
0.054902 0.062745 0.039216
0.070588 0.062745 0.039216
0.101961 0.066667 0.039216
0.121569 0.062745 0.039216
0.149020 0.070588 0.039216
0.172549 0.070588 0.039216
0.196078 0.070588 0.039216
0.211765 0.074510 0.039216
0.239216 0.074510 0.039216
0.274510 0.074510 0.039216
0.290196 0.074510 0.039216
0.321569 0.074510 0.039216
0.349020 0.070588 0.039216
0.376471 0.078431 0.039216
0.403922 0.082353 0.039216
0.431373 0.082353 0.039216
0.454902 0.086275 0.039216
0.478431 0.090196 0.039216
0.501961 0.082353 0.039216
0.521569 0.086275 0.039216
0.545098 0.086275 0.039216
0.564706 0.086275 0.039216
0.580392 0.094118 0.039216
0.603922 0.094118 0.039216
0.623529 0.094118 0.039216
0.639216 0.090196 0.039216
0.654902 0.094118 0.039216
0.682353 0.094118 0.039216
0.701961 0.094118 0.039216
0.717647 0.094118 0.039216
0.741176 0.098039 0.043137
0.764706 0.101961 0.043137
0.776471 0.101961 0.043137
0.807843 0.105882 0.047059
0.039216 0.090196 0.039216
0.039216 0.086275 0.039216
0.047059 0.086275 0.039216
0.070588 0.086275 0.039216
0.101961 0.090196 0.039216
0.125490 0.094118 0.039216
0.149020 0.094118 0.039216
0.172549 0.094118 0.039216
0.196078 0.094118 0.039216
0.219608 0.094118 0.039216
0.243137 0.094118 0.039216
0.270588 0.094118 0.039216
0.298039 0.094118 0.039216
0.325490 0.101961 0.039216
0.352941 0.101961 0.039216
0.380392 0.101961 0.039216
0.400000 0.101961 0.039216
0.427451 0.105882 0.039216
0.458824 0.101961 0.039216
0.478431 0.109804 0.039216
0.501961 0.109804 0.039216
0.525490 0.109804 0.039216
0.549020 0.113725 0.039216
0.564706 0.109804 0.039216
0.584314 0.113725 0.039216
0.600000 0.117647 0.039216
0.619608 0.117647 0.039216
0.639216 0.117647 0.039216
0.662745 0.117647 0.039216
0.682353 0.121569 0.039216
0.698039 0.121569 0.043137
0.721569 0.121569 0.043137
0.741176 0.121569 0.043137
0.764706 0.121569 0.043137
0.788235 0.121569 0.043137
0.807843 0.125490 0.043137
0.039216 0.113725 0.039216
0.039216 0.109804 0.039216
0.050980 0.117647 0.039216
0.082353 0.117647 0.039216
0.101961 0.121569 0.039216
0.125490 0.121569 0.039216
0.149020 0.121569 0.039216
0.172549 0.121569 0.039216
0.200000 0.121569 0.039216
0.219608 0.121569 0.039216
0.247059 0.121569 0.039216
0.274510 0.125490 0.039216
0.305882 0.125490 0.039216
0.333333 0.125490 0.039216
0.352941 0.129412 0.039216
0.380392 0.133333 0.039216
0.403922 0.129412 0.039216
0.427451 0.133333 0.039216
0.458824 0.129412 0.039216
0.486275 0.129412 0.039216
0.505882 0.137255 0.039216
0.533333 0.137255 0.039216
0.552941 0.137255 0.039216
0.568627 0.141176 0.039216
0.584314 0.137255 0.039216
0.603922 0.141176 0.039216
0.619608 0.145098 0.039216
0.639216 0.145098 0.039216
0.662745 0.145098 0.039216
0.682353 0.149020 0.043137
0.701961 0.149020 0.047059
0.721569 0.149020 0.043137
0.741176 0.149020 0.043137
0.764706 0.149020 0.043137
0.788235 0.149020 0.047059
0.807843 0.149020 0.047059
0.039216 0.133333 0.039216
0.039216 0.137255 0.039216
0.058824 0.141176 0.039216
0.082353 0.145098 0.039216
0.105882 0.145098 0.039216
0.125490 0.141176 0.039216
0.149020 0.141176 0.039216
0.172549 0.141176 0.039216
0.196078 0.145098 0.039216
0.223529 0.149020 0.039216
0.247059 0.149020 0.039216
0.274510 0.149020 0.039216
0.298039 0.149020 0.039216
0.325490 0.149020 0.039216
0.356863 0.149020 0.039216
0.384314 0.152941 0.039216
0.411765 0.152941 0.039216
0.435294 0.152941 0.039216
0.462745 0.160784 0.039216
0.486275 0.160784 0.039216
0.505882 0.156863 0.039216
0.529412 0.160784 0.039216
0.549020 0.160784 0.039216
0.568627 0.160784 0.039216
0.580392 0.164706 0.039216
0.607843 0.164706 0.039216
0.627451 0.164706 0.039216
0.643137 0.168627 0.039216
0.666667 0.172549 0.043137
0.682353 0.172549 0.043137
0.701961 0.172549 0.043137
0.725490 0.172549 0.043137
0.745098 0.172549 0.047059
0.764706 0.176471 0.047059
0.788235 0.176471 0.047059
0.815686 0.172549 0.050980
0.039216 0.160784 0.039216
0.039216 0.160784 0.039216
0.058824 0.160784 0.039216
0.078431 0.164706 0.039216
0.105882 0.164706 0.039216
0.133333 0.164706 0.039216
0.149020 0.168627 0.039216
0.184314 0.168627 0.039216
0.207843 0.172549 0.039216
0.223529 0.172549 0.039216
0.250980 0.172549 0.039216
0.278431 0.172549 0.039216
0.298039 0.172549 0.039216
0.325490 0.172549 0.039216
0.360784 0.172549 0.039216
0.380392 0.176471 0.039216
0.411765 0.176471 0.039216
0.435294 0.180392 0.039216
0.462745 0.180392 0.039216
0.486275 0.180392 0.039216
0.509804 0.180392 0.039216
0.533333 0.184314 0.039216
0.549020 0.188235 0.039216
0.572549 0.184314 0.039216
0.588235 0.180392 0.039216
0.607843 0.192157 0.039216
0.627451 0.192157 0.039216
0.647059 0.192157 0.039216
0.666667 0.192157 0.043137
0.690196 0.196078 0.043137
0.705882 0.196078 0.047059
0.721569 0.196078 0.043137
0.752941 0.200000 0.047059
0.772549 0.196078 0.043137
0.792157 0.200000 0.058824
0.815686 0.200000 0.058824
0.039216 0.188235 0.039216
0.039216 0.192157 0.039216
0.058824 0.188235 0.039216
0.082353 0.188235 0.039216
0.105882 0.188235 0.039216
0.137255 0.196078 0.039216
0.160784 0.196078 0.039216
0.184314 0.196078 0.039216
0.207843 0.196078 0.039216
0.227451 0.196078 0.039216
0.247059 0.200000 0.039216
0.274510 0.200000 0.039216
0.305882 0.200000 0.039216
0.333333 0.200000 0.039216
0.364706 0.203922 0.039216
0.388235 0.203922 0.039216
0.411765 0.207843 0.039216
0.435294 0.203922 0.039216
0.466667 0.203922 0.039216
0.486275 0.207843 0.039216
0.509804 0.207843 0.039216
0.533333 0.211765 0.039216
0.552941 0.211765 0.039216
0.576471 0.215686 0.039216
0.592157 0.211765 0.039216
0.615686 0.215686 0.039216
0.627451 0.219608 0.039216
0.647059 0.219608 0.039216
0.670588 0.219608 0.043137
0.686275 0.223529 0.043137
0.705882 0.223529 0.047059
0.725490 0.219608 0.043137
0.756863 0.223529 0.062745
0.776471 0.223529 0.058824
0.796078 0.223529 0.058824
0.815686 0.227451 0.054902
0.039216 0.207843 0.039216
0.039216 0.211765 0.039216
0.062745 0.211765 0.039216
0.094118 0.215686 0.039216
0.117647 0.215686 0.039216
0.129412 0.215686 0.039216
0.160784 0.215686 0.039216
0.184314 0.215686 0.039216
0.203922 0.219608 0.039216
0.227451 0.223529 0.039216
0.254902 0.223529 0.039216
0.282353 0.223529 0.039216
0.313725 0.223529 0.039216
0.337255 0.223529 0.039216
0.360784 0.227451 0.039216
0.388235 0.223529 0.039216
0.419608 0.223529 0.039216
0.439216 0.231373 0.039216
0.466667 0.231373 0.039216
0.490196 0.231373 0.039216
0.505882 0.231373 0.039216
0.541176 0.239216 0.039216
0.560784 0.235294 0.039216
0.572549 0.239216 0.039216
0.592157 0.239216 0.039216
0.615686 0.239216 0.039216
0.631373 0.243137 0.043137
0.654902 0.243137 0.043137
0.670588 0.243137 0.043137
0.690196 0.243137 0.043137
0.705882 0.247059 0.058824
0.729412 0.247059 0.058824
0.756863 0.247059 0.058824
0.776471 0.247059 0.062745
0.796078 0.250980 0.054902
0.827451 0.247059 0.054902
0.043137 0.231373 0.039216
0.050980 0.239216 0.039216
0.066667 0.239216 0.039216
0.090196 0.239216 0.039216
0.121569 0.235294 0.039216
0.141176 0.239216 0.039216
0.164706 0.243137 0.039216
0.188235 0.243137 0.039216
0.211765 0.247059 0.039216
0.231373 0.239216 0.039216
0.262745 0.247059 0.039216
0.290196 0.247059 0.039216
0.309804 0.247059 0.039216
0.337255 0.247059 0.039216
0.372549 0.247059 0.039216
0.388235 0.250980 0.039216
0.415686 0.250980 0.039216
0.439216 0.247059 0.039216
0.466667 0.250980 0.039216
0.498039 0.254902 0.039216
0.521569 0.254902 0.039216
0.537255 0.262745 0.039216
0.556863 0.262745 0.039216
0.576471 0.262745 0.039216
0.596078 0.258824 0.039216
0.615686 0.266667 0.039216
0.635294 0.262745 0.039216
0.647059 0.266667 0.039216
0.670588 0.266667 0.054902
0.690196 0.266667 0.058824
0.709804 0.270588 0.058824
0.733333 0.274510 0.062745
0.756863 0.274510 0.062745
0.776471 0.274510 0.050980
0.796078 0.274510 0.054902
0.819608 0.274510 0.054902
0.043137 0.254902 0.039216
0.054902 0.258824 0.039216
0.078431 0.258824 0.039216
0.098039 0.262745 0.039216
0.121569 0.262745 0.039216
0.149020 0.262745 0.039216
0.164706 0.262745 0.039216
0.192157 0.262745 0.039216
0.223529 0.266667 0.039216
0.239216 0.270588 0.039216
0.262745 0.274510 0.039216
0.298039 0.270588 0.039216
0.313725 0.274510 0.039216
0.337255 0.270588 0.039216
0.364706 0.274510 0.039216
0.392157 0.274510 0.039216
0.411765 0.274510 0.039216
0.454902 0.274510 0.039216
0.478431 0.278431 0.039216
0.498039 0.282353 0.039216
0.521569 0.282353 0.039216
0.545098 0.282353 0.039216
0.560784 0.282353 0.039216
0.576471 0.282353 0.039216
0.596078 0.282353 0.039216
0.615686 0.286275 0.039216
0.635294 0.290196 0.050980
0.658824 0.290196 0.054902
0.670588 0.294118 0.054902
0.690196 0.290196 0.058824
0.709804 0.290196 0.058824
0.729412 0.294118 0.058824
0.756863 0.294118 0.054902
0.780392 0.298039 0.054902
0.796078 0.298039 0.054902
0.827451 0.298039 0.070588
0.047059 0.278431 0.039216
0.058824 0.282353 0.039216
0.082353 0.286275 0.039216
0.105882 0.286275 0.039216
0.125490 0.290196 0.039216
0.149020 0.290196 0.039216
0.172549 0.294118 0.039216
0.200000 0.294118 0.039216
0.223529 0.294118 0.039216
0.247059 0.294118 0.039216
0.266667 0.298039 0.039216
0.298039 0.298039 0.039216
0.321569 0.298039 0.039216
0.337255 0.298039 0.039216
0.372549 0.301961 0.039216
0.400000 0.301961 0.039216
0.427451 0.301961 0.039216
0.454902 0.305882 0.039216
0.478431 0.305882 0.039216
0.501961 0.305882 0.039216
0.521569 0.309804 0.039216
0.545098 0.309804 0.039216
0.560784 0.305882 0.039216
0.576471 0.309804 0.039216
0.600000 0.313725 0.047059
0.619608 0.313725 0.050980
0.635294 0.317647 0.050980
0.654902 0.317647 0.058824
0.678431 0.317647 0.050980
0.690196 0.321569 0.054902
0.709804 0.321569 0.054902
0.733333 0.321569 0.054902
0.756863 0.321569 0.054902
0.784314 0.321569 0.070588
0.807843 0.325490 0.070588
0.827451 0.325490 0.070588
0.050980 0.305882 0.039216
0.070588 0.305882 0.039216
0.082353 0.305882 0.039216
0.105882 0.309804 0.039216
0.141176 0.309804 0.039216
0.160784 0.313725 0.039216
0.184314 0.317647 0.039216
0.207843 0.317647 0.039216
0.223529 0.321569 0.039216
0.254902 0.321569 0.039216
0.274510 0.317647 0.039216
0.294118 0.321569 0.039216
0.321569 0.321569 0.039216
0.349020 0.321569 0.039216
0.376471 0.321569 0.039216
0.403922 0.325490 0.039216
0.431373 0.325490 0.039216
0.450980 0.325490 0.039216
0.482353 0.329412 0.039216
0.501961 0.325490 0.039216
0.521569 0.329412 0.039216
0.541176 0.329412 0.039216
0.564706 0.333333 0.043137
0.580392 0.337255 0.047059
0.600000 0.341176 0.047059
0.619608 0.337255 0.054902
0.639216 0.333333 0.050980
0.654902 0.341176 0.054902
0.678431 0.337255 0.050980
0.698039 0.341176 0.054902
0.713725 0.345098 0.054902
0.741176 0.345098 0.070588
0.764706 0.345098 0.070588
0.776471 0.345098 0.066667
0.800000 0.345098 0.066667
0.827451 0.345098 0.070588
0.054902 0.329412 0.039216
0.066667 0.329412 0.039216
0.094118 0.333333 0.039216
0.121569 0.337255 0.039216
0.145098 0.337255 0.039216
0.168627 0.337255 0.039216
0.180392 0.337255 0.039216
0.211765 0.337255 0.039216
0.235294 0.337255 0.039216
0.254902 0.341176 0.039216
0.278431 0.345098 0.039216
0.317647 0.345098 0.039216
0.333333 0.345098 0.039216
0.356863 0.345098 0.039216
0.380392 0.345098 0.039216
0.400000 0.349020 0.039216
0.427451 0.349020 0.039216
0.454902 0.349020 0.039216
0.478431 0.352941 0.039216
0.501961 0.352941 0.039216
0.525490 0.356863 0.043137
0.545098 0.356863 0.043137
0.564706 0.352941 0.043137
0.580392 0.356863 0.047059
0.600000 0.360784 0.047059
0.619608 0.360784 0.050980
0.635294 0.360784 0.054902
0.658824 0.364706 0.058824
0.678431 0.364706 0.050980
0.701961 0.368627 0.070588
0.721569 0.364706 0.066667
0.737255 0.368627 0.066667
0.764706 0.368627 0.066667
0.788235 0.368627 0.070588
0.807843 0.368627 0.070588
0.827451 0.372549 0.070588
0.058824 0.360784 0.039216
0.078431 0.356863 0.039216
0.101961 0.360784 0.039216
0.121569 0.364706 0.039216
0.149020 0.364706 0.039216
0.172549 0.364706 0.039216
0.192157 0.360784 0.039216
0.219608 0.368627 0.039216
0.239216 0.364706 0.039216
0.270588 0.368627 0.039216
0.290196 0.368627 0.039216
0.321569 0.368627 0.039216
0.345098 0.368627 0.039216
0.360784 0.372549 0.039216
0.384314 0.376471 0.039216
0.403922 0.372549 0.039216
0.427451 0.376471 0.039216
0.454902 0.376471 0.039216
0.486275 0.376471 0.043137
0.505882 0.384314 0.043137
0.525490 0.384314 0.043137
0.549020 0.380392 0.047059
0.564706 0.384314 0.047059
0.580392 0.384314 0.047059
0.600000 0.384314 0.050980
0.619608 0.388235 0.047059
0.635294 0.388235 0.047059
0.662745 0.388235 0.066667
0.678431 0.392157 0.070588
0.701961 0.392157 0.070588
0.721569 0.388235 0.066667
0.741176 0.392157 0.070588
0.764706 0.392157 0.070588
0.788235 0.392157 0.070588
0.807843 0.392157 0.070588
0.827451 0.400000 0.066667
0.062745 0.380392 0.039216
0.082353 0.384314 0.039216
0.105882 0.388235 0.039216
0.125490 0.384314 0.039216
0.149020 0.384314 0.039216
0.172549 0.384314 0.039216
0.200000 0.388235 0.039216
0.223529 0.388235 0.039216
0.247059 0.392157 0.039216
0.274510 0.392157 0.039216
0.294118 0.388235 0.039216
0.313725 0.392157 0.039216
0.337255 0.392157 0.039216
0.364706 0.392157 0.039216
0.388235 0.396078 0.039216
0.411765 0.396078 0.039216
0.443137 0.400000 0.043137
0.462745 0.403922 0.043137
0.486275 0.403922 0.043137
0.505882 0.400000 0.043137
0.525490 0.403922 0.043137
0.545098 0.403922 0.043137
0.564706 0.403922 0.047059
0.580392 0.407843 0.050980
0.603922 0.411765 0.043137
0.627451 0.411765 0.062745
0.639216 0.411765 0.062745
0.658824 0.411765 0.062745
0.678431 0.411765 0.066667
0.701961 0.411765 0.070588
0.725490 0.411765 0.070588
0.745098 0.415686 0.070588
0.764706 0.419608 0.070588
0.788235 0.419608 0.070588
0.807843 0.419608 0.070588
0.831373 0.423529 0.074510
0.066667 0.403922 0.039216
0.086275 0.403922 0.039216
0.105882 0.407843 0.039216
0.133333 0.407843 0.039216
0.160784 0.407843 0.039216
0.184314 0.411765 0.039216
0.207843 0.411765 0.039216
0.239216 0.411765 0.039216
0.250980 0.411765 0.039216
0.274510 0.411765 0.039216
0.301961 0.411765 0.039216
0.321569 0.419608 0.039216
0.349020 0.415686 0.039216
0.372549 0.415686 0.039216
0.396078 0.423529 0.043137
0.415686 0.419608 0.039216
0.439216 0.423529 0.039216
0.462745 0.423529 0.043137
0.486275 0.423529 0.043137
0.509804 0.427451 0.043137
0.529412 0.427451 0.043137
0.549020 0.427451 0.047059
0.568627 0.427451 0.047059
0.584314 0.423529 0.047059
0.603922 0.435294 0.058824
0.623529 0.435294 0.058824
0.643137 0.435294 0.062745
0.658824 0.435294 0.066667
0.686275 0.435294 0.070588
0.705882 0.435294 0.070588
0.721569 0.435294 0.070588
0.741176 0.435294 0.070588
0.776471 0.439216 0.070588
0.792157 0.443137 0.082353
0.815686 0.443137 0.082353
0.839216 0.447059 0.074510
0.070588 0.427451 0.039216
0.094118 0.427451 0.039216
0.121569 0.431373 0.039216
0.133333 0.427451 0.039216
0.160784 0.435294 0.039216
0.192157 0.431373 0.039216
0.211765 0.435294 0.039216
0.235294 0.435294 0.039216
0.258824 0.435294 0.039216
0.274510 0.439216 0.039216
0.298039 0.439216 0.039216
0.329412 0.439216 0.039216
0.345098 0.435294 0.039216
0.372549 0.443137 0.039216
0.403922 0.439216 0.039216
0.419608 0.443137 0.043137
0.443137 0.447059 0.043137
0.466667 0.447059 0.043137
0.486275 0.450980 0.043137
0.505882 0.447059 0.043137
0.525490 0.450980 0.043137
0.545098 0.450980 0.043137
0.568627 0.454902 0.050980
0.588235 0.454902 0.054902
0.611765 0.454902 0.058824
0.631373 0.454902 0.062745
0.650980 0.454902 0.066667
0.666667 0.454902 0.062745
0.678431 0.458824 0.070588
0.701961 0.458824 0.070588
0.729412 0.462745 0.070588
0.752941 0.462745 0.082353
0.776471 0.462745 0.082353
0.796078 0.466667 0.082353
0.807843 0.466667 0.078431
0.839216 0.466667 0.074510
0.070588 0.454902 0.039216
0.098039 0.454902 0.039216
0.121569 0.454902 0.039216
0.145098 0.454902 0.039216
0.168627 0.454902 0.039216
0.192157 0.454902 0.039216
0.215686 0.454902 0.039216
0.235294 0.462745 0.039216
0.258824 0.462745 0.039216
0.282353 0.462745 0.039216
0.305882 0.470588 0.043137
0.333333 0.470588 0.043137
0.352941 0.466667 0.039216
0.372549 0.470588 0.043137
0.400000 0.466667 0.043137
0.427451 0.470588 0.043137
0.443137 0.474510 0.043137
0.466667 0.474510 0.043137
0.490196 0.478431 0.039216
0.505882 0.474510 0.043137
0.529412 0.482353 0.047059
0.556863 0.478431 0.050980
0.568627 0.482353 0.050980
0.588235 0.482353 0.058824
0.607843 0.486275 0.062745
0.631373 0.486275 0.062745
0.650980 0.486275 0.070588
0.666667 0.482353 0.066667
0.690196 0.486275 0.070588
0.705882 0.490196 0.082353
0.733333 0.486275 0.082353
0.756863 0.486275 0.082353
0.776471 0.494118 0.078431
0.796078 0.494118 0.078431
0.815686 0.490196 0.074510
0.843137 0.498039 0.078431
0.078431 0.482353 0.039216
0.094118 0.482353 0.039216
0.117647 0.482353 0.039216
0.145098 0.482353 0.039216
0.168627 0.482353 0.039216
0.192157 0.486275 0.039216
0.215686 0.486275 0.039216
0.239216 0.486275 0.039216
0.258824 0.482353 0.039216
0.286275 0.486275 0.039216
0.309804 0.486275 0.039216
0.329412 0.490196 0.043137
0.352941 0.494118 0.043137
0.376471 0.494118 0.043137
0.396078 0.494118 0.043137
0.419608 0.494118 0.043137
0.443137 0.494118 0.043137
0.458824 0.498039 0.043137
0.494118 0.498039 0.047059
0.517647 0.501961 0.047059
0.533333 0.505882 0.047059
0.552941 0.505882 0.054902
0.572549 0.505882 0.058824
0.592157 0.501961 0.054902
0.611765 0.505882 0.062745
0.631373 0.505882 0.062745
0.647059 0.509804 0.070588
0.666667 0.509804 0.082353
0.690196 0.505882 0.082353
0.709804 0.513725 0.082353
0.733333 0.513725 0.086275
0.752941 0.509804 0.074510
0.776471 0.513725 0.074510
0.796078 0.513725 0.074510
0.819608 0.513725 0.078431
0.847059 0.521569 0.082353
0.078431 0.501961 0.039216
0.101961 0.501961 0.039216
0.121569 0.505882 0.039216
0.145098 0.501961 0.039216
0.168627 0.505882 0.039216
0.188235 0.505882 0.039216
0.211765 0.505882 0.039216
0.243137 0.505882 0.039216
0.258824 0.513725 0.039216
0.282353 0.513725 0.043137
0.305882 0.513725 0.043137
0.329412 0.513725 0.043137
0.349020 0.509804 0.039216
0.372549 0.513725 0.043137
0.400000 0.513725 0.043137
0.423529 0.513725 0.043137
0.447059 0.517647 0.058824
0.470588 0.521569 0.058824
0.490196 0.525490 0.050980
0.513725 0.525490 0.054902
0.533333 0.525490 0.050980
0.556863 0.525490 0.050980
0.572549 0.525490 0.058824
0.592157 0.525490 0.058824
0.611765 0.533333 0.066667
0.635294 0.529412 0.078431
0.654902 0.529412 0.082353
0.666667 0.529412 0.078431
0.690196 0.529412 0.078431
0.709804 0.529412 0.082353
0.729412 0.537255 0.074510
0.752941 0.537255 0.074510
0.780392 0.537255 0.078431
0.800000 0.545098 0.082353
0.823529 0.545098 0.090196
0.850980 0.541176 0.094118
0.074510 0.525490 0.039216
0.098039 0.525490 0.039216
0.121569 0.525490 0.039216
0.141176 0.533333 0.039216
0.168627 0.537255 0.043137
0.196078 0.529412 0.043137
0.211765 0.533333 0.043137
0.235294 0.533333 0.043137
0.262745 0.537255 0.043137
0.278431 0.541176 0.043137
0.298039 0.541176 0.047059
0.333333 0.537255 0.047059
0.345098 0.537255 0.043137
0.368627 0.541176 0.043137
0.396078 0.545098 0.050980
0.419608 0.545098 0.050980
0.443137 0.545098 0.050980
0.466667 0.545098 0.054902
0.490196 0.545098 0.054902
0.509804 0.549020 0.058824
0.529412 0.545098 0.054902
0.556863 0.545098 0.054902
0.576471 0.552941 0.062745
0.596078 0.552941 0.074510
0.615686 0.552941 0.074510
0.635294 0.556863 0.070588
0.654902 0.556863 0.074510
0.670588 0.552941 0.074510
0.690196 0.564706 0.078431
0.709804 0.560784 0.074510
0.733333 0.560784 0.078431
0.756863 0.564706 0.082353
0.784314 0.564706 0.090196
0.807843 0.564706 0.094118
0.823529 0.568627 0.094118
0.850980 0.564706 0.094118
0.078431 0.549020 0.039216
0.094118 0.549020 0.039216
0.113725 0.549020 0.039216
0.141176 0.552941 0.043137
0.168627 0.556863 0.043137
0.192157 0.556863 0.043137
0.215686 0.556863 0.043137
0.239216 0.556863 0.043137
0.262745 0.560784 0.050980
0.282353 0.556863 0.043137
0.298039 0.560784 0.047059
0.325490 0.560784 0.047059
0.349020 0.564706 0.062745
0.368627 0.564706 0.062745
0.396078 0.564706 0.054902
0.419608 0.564706 0.058824
0.435294 0.564706 0.054902
0.458824 0.568627 0.054902
0.486275 0.564706 0.058824
0.505882 0.568627 0.058824
0.529412 0.576471 0.062745
0.552941 0.576471 0.074510
0.576471 0.576471 0.074510
0.596078 0.580392 0.074510
0.615686 0.572549 0.070588
0.635294 0.576471 0.070588
0.650980 0.580392 0.070588
0.670588 0.580392 0.074510
0.698039 0.580392 0.078431
0.721569 0.584314 0.082353
0.741176 0.584314 0.090196
0.760784 0.580392 0.090196
0.776471 0.584314 0.090196
0.807843 0.584314 0.090196
0.827451 0.584314 0.094118
0.847059 0.588235 0.094118
0.074510 0.564706 0.043137
0.094118 0.576471 0.043137
0.121569 0.576471 0.043137
0.145098 0.576471 0.047059
0.168627 0.580392 0.047059
0.180392 0.580392 0.043137
0.203922 0.580392 0.043137
0.235294 0.576471 0.047059
0.254902 0.580392 0.047059
0.278431 0.580392 0.047059
0.301961 0.584314 0.066667
0.325490 0.584314 0.066667
0.349020 0.584314 0.066667
0.368627 0.584314 0.054902
0.388235 0.588235 0.054902
0.411765 0.588235 0.054902
0.435294 0.588235 0.062745
0.458824 0.592157 0.062745
0.486275 0.596078 0.066667
0.509804 0.596078 0.074510
0.525490 0.596078 0.070588
0.552941 0.592157 0.070588
0.576471 0.596078 0.070588
0.592157 0.600000 0.074510
0.615686 0.600000 0.074510
0.635294 0.600000 0.070588
0.654902 0.600000 0.074510
0.678431 0.603922 0.082353
0.701961 0.603922 0.090196
0.721569 0.603922 0.090196
0.737255 0.607843 0.090196
0.760784 0.607843 0.090196
0.788235 0.603922 0.094118
0.807843 0.607843 0.094118
0.827451 0.611765 0.094118
0.858824 0.607843 0.094118
0.070588 0.600000 0.043137
0.094118 0.600000 0.050980
0.109804 0.600000 0.043137
0.137255 0.600000 0.043137
0.164706 0.596078 0.043137
0.184314 0.600000 0.050980
0.207843 0.600000 0.050980
0.231373 0.600000 0.050980
0.254902 0.603922 0.066667
0.274510 0.600000 0.062745
0.298039 0.603922 0.062745
0.325490 0.603922 0.066667
0.345098 0.607843 0.058824
0.368627 0.611765 0.058824
0.396078 0.607843 0.062745
0.411765 0.611765 0.062745
0.443137 0.619608 0.066667
0.462745 0.611765 0.070588
0.482353 0.615686 0.070588
0.509804 0.615686 0.070588
0.533333 0.615686 0.070588
0.545098 0.619608 0.078431
0.572549 0.619608 0.078431
