luts/full/espresso.cube
TITLE "espresso (full)"
LUT_3D_SIZE 6
0.039216 0.039216 0.039216
0.160784 0.039216 0.039216
0.345098 0.039216 0.039216
0.521569 0.039216 0.039216
0.662745 0.043137 0.039216
0.796078 0.054902 0.039216
0.039216 0.188235 0.039216
0.184314 0.196078 0.039216
0.364706 0.203922 0.039216
0.533333 0.211765 0.039216
0.670588 0.219608 0.043137
0.815686 0.227451 0.054902
0.058824 0.360784 0.039216
0.219608 0.368627 0.039216
0.384314 0.376471 0.039216
0.549020 0.380392 0.047059
0.678431 0.392157 0.070588
0.827451 0.400000 0.066667
0.074510 0.525490 0.039216
0.235294 0.533333 0.043137
0.396078 0.545098 0.050980
0.556863 0.545098 0.054902
0.690196 0.564706 0.078431
0.850980 0.564706 0.094118
0.070588 0.690196 0.070588
0.227451 0.698039 0.070588
0.396078 0.705882 0.082353
0.549020 0.713725 0.090196
0.709804 0.721569 0.094118
0.862745 0.729412 0.105882
0.082353 0.854902 0.082353
0.250980 0.858824 0.090196
0.411765 0.866667 0.101961
0.568627 0.878431 0.105882
0.725490 0.878431 0.117647
0.874510 0.878431 0.121569
0.039216 0.039216 0.152941
0.172549 0.039216 0.168627
0.349020 0.039216 0.160784
0.525490 0.039216 0.168627
0.654902 0.047059 0.184314
0.803922 0.058824 0.200000
0.039216 0.188235 0.176471
0.203922 0.200000 0.172549
0.372549 0.211765 0.172549
0.517647 0.215686 0.200000
0.662745 0.223529 0.203922
0.823529 0.223529 0.219608
0.058824 0.360784 0.172549
0.231373 0.372549 0.184314
0.388235 0.376471 0.200000
0.529412 0.388235 0.219608
0.682353 0.396078 0.219608
0.843137 0.400000 0.231373
0.074510 0.525490 0.196078
0.211765 0.541176 0.215686
0.380392 0.545098 0.223529
0.541176 0.552941 0.227451
0.705882 0.564706 0.247059
0.847059 0.568627 0.250980
0.070588 0.694118 0.223529
0.235294 0.701961 0.235294
0.392157 0.705882 0.239216
0.552941 0.717647 0.247059
0.713725 0.725490 0.254902
0.862745 0.733333 0.262745
0.086275 0.854902 0.239216
0.247059 0.862745 0.250980
0.411765 0.874510 0.254902
0.576471 0.874510 0.270588
0.725490 0.878431 0.274510
0.878431 0.878431 0.278431
0.050980 0.039216 0.309804
0.184314 0.039216 0.313725
0.356863 0.039216 0.329412
0.525490 0.043137 0.321569
0.654902 0.050980 0.345098
0.807843 0.058824 0.356863
0.054902 0.196078 0.329412
0.215686 0.200000 0.321569
0.380392 0.207843 0.333333
0.517647 0.219608 0.352941
0.670588 0.223529 0.368627
0.823529 0.231373 0.368627
0.058824 0.364706 0.333333
0.231373 0.372549 0.349020
0.372549 0.380392 0.368627
0.525490 0.388235 0.368627
0.686275 0.396078 0.380392
0.839216 0.407843 0.388235
0.078431 0.533333 0.352941
0.219608 0.537255 0.368627
0.384314 0.545098 0.376471
0.545098 0.552941 0.388235
0.701961 0.564706 0.403922
0.858824 0.576471 0.403922
0.074510 0.694118 0.376471
0.239216 0.705882 0.388235
0.396078 0.713725 0.400000
0.560784 0.721569 0.407843
0.709804 0.725490 0.411765
0.870588 0.729412 0.423529
0.094118 0.858824 0.407843
0.254902 0.870588 0.407843
0.411765 0.874510 0.415686
0.576471 0.878431 0.423529
0.729412 0.878431 0.431373
0.878431 0.878431 0.435294
0.070588 0.039216 0.454902
0.203922 0.039216 0.470588
0.368627 0.043137 0.470588
0.525490 0.047059 0.478431
0.662745 0.050980 0.501961
0.807843 0.062745 0.509804
0.070588 0.200000 0.470588
0.200000 0.203922 0.494118
0.360784 0.211765 0.501961
0.521569 0.219608 0.513725
0.674510 0.227451 0.517647
0.823529 0.239216 0.529412
0.070588 0.364706 0.490196
0.211765 0.376471 0.513725
0.368627 0.388235 0.517647
0.537255 0.392157 0.529412
0.690196 0.400000 0.541176
0.843137 0.407843 0.549020
0.082353 0.537255 0.505882
0.223529 0.545098 0.525490
0.388235 0.549020 0.545098
0.545098 0.556863 0.545098
0.698039 0.568627 0.545098
0.858824 0.576471 0.564706
0.074510 0.701961 0.545098
0.235294 0.705882 0.545098
0.403922 0.713725 0.552941
0.564706 0.725490 0.560784
0.721569 0.729412 0.572549
0.870588 0.737255 0.576471
0.094118 0.862745 0.552941
0.258824 0.870588 0.560784
0.423529 0.874510 0.572549
0.572549 0.878431 0.576471
0.733333 0.878431 0.580392
0.878431 0.878431 0.588235
0.047059 0.039216 0.627451
0.188235 0.039216 0.623529
0.349020 0.043137 0.631373
0.505882 0.050980 0.647059
0.662745 0.058824 0.654902
0.811765 0.070588 0.662745
0.047059 0.200000 0.635294
0.196078 0.207843 0.650980
0.360784 0.215686 0.662745
0.521569 0.223529 0.662745
0.670588 0.231373 0.666667
0.831373 0.239216 0.682353
0.054902 0.368627 0.654902
0.207843 0.372549 0.654902
0.372549 0.388235 0.670588
0.533333 0.396078 0.682353
0.694118 0.400000 0.694118
0.847059 0.411765 0.694118
0.066667 0.537255 0.666667
0.223529 0.545098 0.682353
0.388235 0.552941 0.690196
0.549020 0.564706 0.690196
0.705882 0.564706 0.701961
0.862745 0.580392 0.709804
0.078431 0.705882 0.690196
0.247059 0.709804 0.698039
0.403922 0.717647 0.701961
0.564706 0.725490 0.713725
0.725490 0.729412 0.721569
0.870588 0.741176 0.721569
0.094118 0.862745 0.701961
0.258824 0.874510 0.713725
0.419608 0.878431 0.721569
0.584314 0.878431 0.725490
0.737255 0.878431 0.729412
0.878431 0.878431 0.745098
0.039216 0.039216 0.776471
0.180392 0.043137 0.780392
0.345098 0.043137 0.792157
0.505882 0.050980 0.796078
0.662745 0.062745 0.803922
0.815686 0.070588 0.811765
0.039216 0.203922 0.792157
0.196078 0.211765 0.803922
0.364706 0.219608 0.803922
0.525490 0.227451 0.811765
0.678431 0.235294 0.827451
0.827451 0.243137 0.827451
0.043137 0.372549 0.800000
0.215686 0.380392 0.811765
0.380392 0.392157 0.827451
0.537255 0.396078 0.835294
0.690196 0.407843 0.835294
0.847059 0.415686 0.843137
0.070588 0.541176 0.827451
0.227451 0.545098 0.831373
0.388235 0.556863 0.831373
0.552941 0.564706 0.843137
0.705882 0.572549 0.850980
0.870588 0.580392 0.870588
0.082353 0.705882 0.839216
0.247059 0.713725 0.843137
0.411765 0.721569 0.858824
0.564706 0.725490 0.858824
0.721569 0.737255 0.858824
0.878431 0.741176 0.874510
0.101961 0.870588 0.858824
0.262745 0.874510 0.858824
0.423529 0.878431 0.866667
0.580392 0.878431 0.874510
0.741176 0.878431 0.878431
0.878431 0.878431 0.878431
