luts/full/golden-hour.cube
TITLE "golden-hour (full)"
LUT_3D_SIZE 8
0.050980 0.027451 0.027451
0.207843 0.023529 0.023529
0.349020 0.019608 0.019608
0.494118 0.011765 0.011765
0.643137 0.007843 0.003922
0.792157 0.007843 0.000000
0.925490 0.007843 0.000000
1.000000 0.000000 0.000000
0.035294 0.164706 0.011765
0.192157 0.160784 0.007843
0.333333 0.152941 0.000000
0.474510 0.149020 0.000000
0.623529 0.145098 0.000000
0.768627 0.145098 0.000000
0.901961 0.149020 0.000000
1.000000 0.141176 0.000000
0.007843 0.298039 0.000000
0.164706 0.290196 0.000000
0.313725 0.286275 0.000000
0.458824 0.282353 0.000000
0.603922 0.278431 0.000000
0.745098 0.282353 0.000000
0.878431 0.282353 0.000000
1.000000 0.274510 0.000000
0.000000 0.427451 0.000000
0.133333 0.423529 0.000000
0.282353 0.415686 0.000000
0.439216 0.411765 0.000000
0.584314 0.407843 0.000000
0.725490 0.411765 0.000000
0.854902 0.411765 0.000000
0.988235 0.407843 0.000000
0.000000 0.560784 0.000000
0.109804 0.552941 0.000000
0.262745 0.545098 0.000000
0.419608 0.541176 0.000000
0.564706 0.537255 0.000000
0.701961 0.541176 0.000000
0.831373 0.545098 0.000000
0.964706 0.537255 0.000000
0.000000 0.690196 0.000000
0.086275 0.686275 0.000000
0.239216 0.678431 0.000000
0.400000 0.670588 0.000000
0.541176 0.666667 0.000000
0.682353 0.658824 0.000000
0.811765 0.662745 0.000000
0.941176 0.654902 0.000000
0.000000 0.815686 0.000000
0.058824 0.807843 0.000000
0.215686 0.803922 0.000000
0.376471 0.796078 0.000000
0.521569 0.788235 0.000000
0.662745 0.780392 0.000000
0.792157 0.776471 0.000000
0.921569 0.768627 0.000000
0.000000 0.929412 0.000000
0.031373 0.921569 0.000000
0.188235 0.913725 0.000000
0.352941 0.905882 0.000000
0.498039 0.898039 0.000000
0.643137 0.894118 0.000000
0.772549 0.886275 0.000000
0.901961 0.882353 0.000000
0.050980 0.027451 0.168627
0.207843 0.023529 0.164706
0.349020 0.015686 0.160784
0.494118 0.007843 0.156863
0.643137 0.007843 0.149020
0.788235 0.007843 0.145098
0.921569 0.007843 0.137255
1.000000 0.000000 0.129412
0.035294 0.164706 0.152941
0.180392 0.156863 0.149020
0.313725 0.152941 0.145098
0.470588 0.152941 0.137255
0.611765 0.156863 0.129412
0.756863 0.156863 0.121569
0.890196 0.149020 0.113725
1.000000 0.141176 0.105882
0.007843 0.294118 0.137255
0.152941 0.290196 0.133333
0.298039 0.286275 0.129412
0.450980 0.286275 0.121569
0.596078 0.290196 0.109804
0.737255 0.290196 0.101961
0.866667 0.282353 0.090196
1.000000 0.274510 0.082353
0.000000 0.427451 0.117647
0.133333 0.419608 0.117647
0.282353 0.415686 0.109804
0.435294 0.411765 0.105882
0.576471 0.419608 0.094118
0.717647 0.419608 0.082353
0.847059 0.411765 0.070588
0.980392 0.403922 0.058824
0.000000 0.556863 0.098039
0.109804 0.560784 0.094118
0.262745 0.556863 0.086275
0.415686 0.549020 0.082353
0.556863 0.549020 0.074510
0.698039 0.549020 0.062745
0.823529 0.541176 0.050980
0.956863 0.537255 0.039216
0.000000 0.690196 0.070588
0.086275 0.690196 0.066667
0.239216 0.682353 0.062745
0.396078 0.674510 0.054902
0.541176 0.670588 0.050980
0.678431 0.662745 0.043137
0.807843 0.658824 0.031373
0.937255 0.654902 0.015686
0.000000 0.815686 0.043137
0.062745 0.803922 0.043137
0.219608 0.796078 0.039216
0.376471 0.792157 0.031373
0.521569 0.784314 0.023529
0.662745 0.776471 0.019608
0.788235 0.772549 0.011765
0.917647 0.768627 0.000000
0.000000 0.929412 0.015686
0.039216 0.917647 0.019608
0.196078 0.909804 0.011765
0.352941 0.901961 0.003922
0.501961 0.894118 0.000000
0.643137 0.890196 0.000000
0.768627 0.882353 0.000000
0.898039 0.878431 0.000000
0.039216 0.027451 0.313725
0.196078 0.019608 0.309804
0.345098 0.015686 0.305882
0.490196 0.007843 0.301961
0.639216 0.003922 0.298039
0.784314 0.003922 0.294118
0.917647 0.003922 0.286275
1.000000 0.000000 0.282353
0.023529 0.160784 0.298039
0.164706 0.156863 0.290196
0.313725 0.152941 0.286275
0.466667 0.149020 0.282353
0.611765 0.156863 0.274510
0.752941 0.152941 0.270588
0.886275 0.145098 0.262745
1.000000 0.137255 0.254902
0.003922 0.294118 0.278431
0.152941 0.290196 0.274510
0.298039 0.286275 0.270588
0.447059 0.294118 0.262745
0.588235 0.294118 0.258824
0.729412 0.286275 0.250980
0.858824 0.282353 0.243137
0.992157 0.274510 0.235294
0.000000 0.423529 0.262745
0.133333 0.419608 0.258824
0.282353 0.423529 0.254902
0.431373 0.423529 0.247059
0.572549 0.423529 0.239216
0.709804 0.415686 0.231373
0.839216 0.411765 0.223529
0.968627 0.403922 0.215686
0.000000 0.556863 0.243137
0.109804 0.560784 0.239216
0.262745 0.560784 0.235294
0.415686 0.556863 0.227451
0.556863 0.549020 0.223529
0.694118 0.545098 0.215686
0.819608 0.541176 0.203922
0.949020 0.533333 0.192157
0.000000 0.686275 0.219608
0.086275 0.686275 0.215686
0.243137 0.678431 0.215686
0.396078 0.674510 0.207843
0.541176 0.666667 0.203922
0.674510 0.662745 0.196078
0.800000 0.658824 0.188235
0.929412 0.650980 0.176471
0.000000 0.811765 0.196078
0.062745 0.800000 0.192157
0.223529 0.792157 0.192157
0.380392 0.788235 0.188235
0.521569 0.780392 0.180392
0.658824 0.776471 0.176471
0.784314 0.768627 0.168627
0.909804 0.764706 0.156863
0.000000 0.925490 0.168627
0.039216 0.913725 0.168627
0.200000 0.901961 0.168627
0.356863 0.898039 0.164706
0.501961 0.890196 0.156863
0.643137 0.886275 0.152941
0.768627 0.878431 0.145098
0.894118 0.874510 0.141176
0.027451 0.023529 0.458824
0.188235 0.019608 0.450980
0.337255 0.011765 0.447059
0.490196 0.007843 0.443137
0.639216 0.003922 0.439216
0.784314 0.003922 0.435294
0.917647 0.003922 0.431373
1.000000 0.000000 0.427451
0.011765 0.160784 0.439216
0.164706 0.156863 0.431373
0.313725 0.149020 0.423529
0.466667 0.149020 0.419608
0.607843 0.152941 0.415686
0.752941 0.152941 0.411765
0.882353 0.145098 0.407843
1.000000 0.137255 0.403922
0.000000 0.294118 0.419608
0.149020 0.286275 0.411765
0.294118 0.294118 0.403922
0.447059 0.294118 0.400000
0.584314 0.294118 0.396078
0.725490 0.286275 0.392157
0.854902 0.282353 0.384314
0.984314 0.274510 0.380392
0.000000 0.423529 0.403922
0.129412 0.419608 0.396078
0.278431 0.427451 0.388235
0.431373 0.427451 0.384314
0.568627 0.419608 0.380392
0.705882 0.415686 0.372549
0.831373 0.411765 0.368627
0.960784 0.403922 0.360784
0.000000 0.552941 0.384314
0.109804 0.556863 0.376471
0.262745 0.560784 0.372549
0.415686 0.552941 0.368627
0.552941 0.549020 0.364706
0.690196 0.545098 0.356863
0.815686 0.541176 0.349020
0.941176 0.533333 0.341176
0.000000 0.686275 0.364706
0.086275 0.686275 0.356863
0.243137 0.674510 0.356863
0.400000 0.670588 0.352941
0.537255 0.666667 0.349020
0.674510 0.658824 0.341176
0.796078 0.654902 0.333333
0.925490 0.650980 0.325490
0.000000 0.811765 0.341176
0.058824 0.800000 0.337255
0.219608 0.792157 0.337255
0.380392 0.784314 0.333333
0.521569 0.776471 0.329412
0.658824 0.772549 0.321569
0.780392 0.768627 0.317647
0.905882 0.764706 0.305882
0.000000 0.921569 0.317647
0.035294 0.909804 0.317647
0.200000 0.901961 0.313725
0.360784 0.894118 0.313725
0.505882 0.886275 0.305882
0.643137 0.882353 0.301961
0.764706 0.878431 0.298039
0.890196 0.870588 0.290196
0.023529 0.023529 0.600000
0.184314 0.015686 0.596078
0.333333 0.007843 0.588235
0.490196 0.003922 0.584314
0.635294 0.000000 0.576471
0.780392 0.000000 0.576471
0.913725 0.000000 0.572549
1.000000 0.000000 0.572549
0.000000 0.160784 0.580392
0.160784 0.164706 0.564706
0.309804 0.160784 0.560784
0.466667 0.152941 0.552941
0.607843 0.152941 0.549020
0.749020 0.149020 0.549020
0.882353 0.141176 0.545098
1.000000 0.133333 0.541176
0.000000 0.294118 0.560784
0.145098 0.298039 0.549020
0.294118 0.301961 0.537255
0.443137 0.298039 0.533333
0.584314 0.290196 0.529412
0.725490 0.286275 0.525490
0.854902 0.278431 0.521569
0.984314 0.270588 0.517647
0.000000 0.423529 0.541176
0.125490 0.427451 0.529412
0.278431 0.431373 0.521569
0.427451 0.423529 0.513725
0.568627 0.419608 0.509804
0.701961 0.415686 0.509804
0.827451 0.407843 0.501961
0.956863 0.403922 0.498039
0.000000 0.552941 0.521569
0.105882 0.556863 0.513725
0.258824 0.556863 0.505882
0.415686 0.552941 0.501961
0.552941 0.549020 0.498039
0.686275 0.541176 0.494118
0.807843 0.537255 0.486275
0.933333 0.533333 0.482353
0.000000 0.682353 0.501961
0.082353 0.682353 0.494118
0.239216 0.674510 0.490196
0.400000 0.666667 0.486275
0.537255 0.662745 0.482353
0.670588 0.658824 0.478431
0.796078 0.654902 0.470588
0.917647 0.650980 0.466667
0.000000 0.807843 0.482353
0.058824 0.796078 0.478431
0.219608 0.788235 0.474510
0.380392 0.780392 0.470588
0.521569 0.776471 0.466667
0.658824 0.768627 0.462745
0.780392 0.764706 0.458824
0.901961 0.760784 0.450980
0.000000 0.921569 0.458824
0.031373 0.909804 0.454902
0.196078 0.898039 0.454902
0.360784 0.890196 0.450980
0.505882 0.882353 0.450980
0.643137 0.878431 0.443137
0.764706 0.874510 0.439216
0.890196 0.870588 0.435294
0.019608 0.027451 0.741176
0.180392 0.019608 0.733333
0.333333 0.015686 0.725490
0.494118 0.007843 0.721569
0.635294 0.000000 0.713725
0.780392 0.000000 0.709804
0.913725 0.000000 0.709804
1.000000 0.000000 0.709804
0.000000 0.164706 0.717647
0.156863 0.172549 0.701961
0.309804 0.164706 0.694118
0.466667 0.160784 0.690196
0.607843 0.152941 0.682353
0.749020 0.149020 0.682353
0.878431 0.141176 0.678431
1.000000 0.133333 0.678431
0.000000 0.298039 0.698039
0.137255 0.305882 0.682353
0.290196 0.298039 0.670588
0.443137 0.294118 0.666667
0.584314 0.290196 0.658824
0.721569 0.282353 0.654902
0.850980 0.278431 0.654902
0.984314 0.270588 0.650980
0.000000 0.431373 0.678431
0.117647 0.435294 0.662745
0.274510 0.427451 0.654902
0.427451 0.423529 0.643137
0.564706 0.419608 0.639216
0.701961 0.411765 0.635294
0.827451 0.407843 0.635294
0.956863 0.400000 0.631373
0.000000 0.560784 0.654902
0.101961 0.564706 0.643137
0.254902 0.556863 0.635294
0.411765 0.549020 0.627451
0.549020 0.545098 0.623529
0.682353 0.541176 0.619608
0.807843 0.537255 0.615686
0.933333 0.533333 0.611765
0.000000 0.682353 0.639216
0.082353 0.682353 0.627451
0.239216 0.674510 0.619608
0.396078 0.666667 0.615686
0.537255 0.662745 0.611765
0.670588 0.658824 0.607843
0.792157 0.654902 0.603922
0.913725 0.647059 0.596078
0.000000 0.807843 0.619608
0.058824 0.796078 0.611765
0.215686 0.788235 0.603922
0.380392 0.780392 0.600000
0.521569 0.772549 0.596078
0.658824 0.768627 0.592157
0.776471 0.764706 0.588235
0.901961 0.760784 0.584314
0.000000 0.917647 0.600000
0.031373 0.905882 0.592157
0.196078 0.898039 0.588235
0.360784 0.890196 0.584314
0.505882 0.882353 0.580392
0.643137 0.874510 0.576471
0.764706 0.870588 0.572549
0.886275 0.866667 0.568627
0.015686 0.035294 0.870588
0.180392 0.027451 0.858824
0.333333 0.019608 0.854902
0.494118 0.011765 0.847059
0.639216 0.007843 0.839216
0.780392 0.000000 0.831373
0.909804 0.000000 0.831373
1.000000 0.000000 0.831373
0.000000 0.172549 0.847059
0.156863 0.168627 0.827451
0.309804 0.164706 0.819608
0.466667 0.156863 0.811765
0.607843 0.152941 0.807843
0.749020 0.145098 0.800000
0.878431 0.137255 0.800000
1.000000 0.129412 0.800000
0.000000 0.305882 0.823529
0.133333 0.301961 0.807843
0.290196 0.298039 0.792157
0.443137 0.290196 0.784314
0.584314 0.286275 0.780392
0.721569 0.282353 0.776471
0.850980 0.274510 0.772549
0.980392 0.266667 0.772549
0.000000 0.439216 0.800000
0.113725 0.435294 0.784314
0.270588 0.427451 0.772549
0.427451 0.419608 0.764706
0.564706 0.415686 0.756863
0.701961 0.411765 0.752941
0.827451 0.407843 0.749020
0.952941 0.400000 0.749020
0.000000 0.568627 0.780392
0.094118 0.564706 0.764706
0.250980 0.556863 0.756863
0.407843 0.549020 0.745098
0.549020 0.545098 0.737255
0.682353 0.541176 0.733333
0.803922 0.537255 0.729412
0.929412 0.529412 0.729412
0.000000 0.686275 0.760784
0.074510 0.678431 0.749020
0.235294 0.670588 0.737255
0.396078 0.666667 0.729412
0.537255 0.658824 0.725490
0.670588 0.654902 0.717647
0.788235 0.650980 0.717647
0.913725 0.647059 0.713725
0.000000 0.803922 0.741176
0.054902 0.792157 0.729412
0.215686 0.784314 0.721569
0.376471 0.776471 0.717647
0.521569 0.772549 0.709804
0.658824 0.764706 0.705882
0.776471 0.764706 0.701961
0.898039 0.760784 0.698039
0.000000 0.917647 0.721569
0.031373 0.905882 0.713725
0.192157 0.894118 0.705882
0.356863 0.886275 0.701961
0.505882 0.878431 0.698039
0.643137 0.874510 0.694118
0.764706 0.870588 0.690196
0.886275 0.866667 0.686275
0.011765 0.035294 1.000000
0.176471 0.027451 0.996078
0.333333 0.019608 0.988235
0.494118 0.011765 0.980392
0.639216 0.007843 0.972549
0.784314 0.000000 0.964706
0.909804 0.000000 0.960784
1.000000 0.000000 0.960784
0.000000 0.176471 0.980392
0.152941 0.168627 0.960784
0.305882 0.160784 0.952941
0.466667 0.152941 0.945098
0.611765 0.149020 0.937255
0.752941 0.141176 0.933333
0.878431 0.137255 0.925490
1.000000 0.129412 0.925490
0.000000 0.309804 0.956863
0.129412 0.301961 0.937255
0.286275 0.294118 0.921569
0.443137 0.290196 0.913725
0.588235 0.282353 0.909804
0.725490 0.278431 0.901961
0.850980 0.274510 0.898039
0.980392 0.266667 0.898039
0.000000 0.439216 0.933333
0.109804 0.431373 0.917647
0.266667 0.423529 0.901961
0.423529 0.419608 0.890196
0.564706 0.415686 0.882353
0.701961 0.407843 0.878431
0.827451 0.403922 0.874510
0.952941 0.400000 0.870588
0.000000 0.572549 0.909804
0.086275 0.560784 0.894118
0.247059 0.552941 0.882353
0.407843 0.549020 0.870588
0.549020 0.545098 0.858824
0.682353 0.537255 0.854902
0.803922 0.533333 0.850980
0.929412 0.529412 0.850980
0.000000 0.690196 0.890196
0.066667 0.678431 0.874510
0.227451 0.670588 0.862745
0.388235 0.662745 0.854902
0.533333 0.658824 0.847059
0.666667 0.654902 0.839216
0.788235 0.650980 0.835294
0.909804 0.647059 0.831373
0.000000 0.803922 0.866667
0.050980 0.792157 0.854902
0.211765 0.784314 0.847059
0.372549 0.776471 0.839216
0.517647 0.768627 0.831373
0.654902 0.764706 0.823529
0.776471 0.760784 0.819608
0.894118 0.756863 0.815686
0.000000 0.913725 0.850980
0.027451 0.901961 0.839216
0.192157 0.894118 0.831373
0.356863 0.886275 0.823529
0.501961 0.878431 0.815686
0.643137 0.874510 0.811765
0.764706 0.866667 0.807843
0.882353 0.866667 0.803922
