luts/full/golden-hour.cube
TITLE "golden-hour (full)"
LUT_3D_SIZE 6
0.050980 0.027451 0.027451
0.266667 0.019608 0.019608
0.466667 0.011765 0.011765
0.674510 0.007843 0.000000
0.870588 0.011765 0.000000
1.000000 0.000000 0.000000
0.027451 0.219608 0.003922
0.243137 0.211765 0.000000
0.439216 0.203922 0.000000
0.643137 0.200000 0.000000
0.835294 0.203922 0.000000
1.000000 0.196078 0.000000
0.000000 0.407843 0.000000
0.203922 0.400000 0.000000
0.415686 0.392157 0.000000
0.615686 0.388235 0.000000
0.803922 0.396078 0.000000
0.992157 0.384314 0.000000
0.000000 0.588235 0.000000
0.168627 0.580392 0.000000
0.388235 0.572549 0.000000
0.588235 0.560784 0.000000
0.772549 0.572549 0.000000
0.960784 0.564706 0.000000
0.000000 0.768627 0.000000
0.133333 0.760784 0.000000
0.356863 0.749020 0.000000
0.556863 0.741176 0.000000
0.745098 0.737255 0.000000
0.929412 0.729412 0.000000
0.000000 0.929412 0.000000
0.098039 0.917647 0.000000
0.321569 0.909804 0.000000
0.529412 0.898039 0.000000
0.717647 0.890196 0.000000
0.901961 0.882353 0.000000
0.050980 0.027451 0.227451
0.262745 0.019608 0.223529
0.462745 0.011765 0.219608
0.670588 0.003922 0.211765
0.862745 0.007843 0.200000
1.000000 0.000000 0.192157
0.027451 0.215686 0.207843
0.227451 0.207843 0.200000
0.435294 0.207843 0.192157
0.631373 0.215686 0.180392
0.823529 0.203922 0.172549
1.000000 0.196078 0.160784
0.000000 0.403922 0.184314
0.200000 0.400000 0.176471
0.411765 0.392157 0.168627
0.603922 0.400000 0.156863
0.792157 0.392157 0.141176
0.976471 0.384314 0.129412
0.000000 0.588235 0.152941
0.172549 0.592157 0.145098
0.384314 0.584314 0.137255
0.580392 0.576471 0.133333
0.764706 0.568627 0.113725
0.949020 0.560784 0.098039
0.000000 0.764706 0.117647
0.141176 0.756863 0.117647
0.356863 0.749020 0.105882
0.556863 0.741176 0.098039
0.741176 0.733333 0.090196
0.921569 0.725490 0.070588
0.000000 0.925490 0.082353
0.105882 0.909804 0.082353
0.329412 0.901961 0.074510
0.529412 0.890196 0.062745
0.717647 0.882353 0.054902
0.894118 0.874510 0.047059
0.027451 0.023529 0.435294
0.250980 0.015686 0.427451
0.462745 0.007843 0.419608
0.666667 0.000000 0.415686
0.862745 0.007843 0.407843
1.000000 0.000000 0.403922
0.003922 0.215686 0.407843
0.219608 0.211765 0.396078
0.431373 0.207843 0.388235
0.627451 0.211765 0.380392
0.819608 0.203922 0.376471
1.000000 0.192157 0.368627
0.000000 0.400000 0.384314
0.200000 0.396078 0.372549
0.407843 0.407843 0.364706
0.600000 0.400000 0.356863
0.784314 0.392157 0.349020
0.964706 0.384314 0.341176
0.000000 0.584314 0.356863
0.168627 0.588235 0.349020
0.384314 0.580392 0.345098
0.576471 0.572549 0.337255
0.760784 0.564706 0.325490
0.937255 0.560784 0.313725
0.000000 0.764706 0.325490
0.137255 0.752941 0.321569
0.360784 0.741176 0.317647
0.556863 0.733333 0.309804
0.737255 0.729412 0.301961
0.913725 0.721569 0.290196
0.000000 0.921569 0.294118
0.105882 0.905882 0.290196
0.333333 0.894118 0.290196
0.529412 0.886275 0.282353
0.717647 0.878431 0.274510
0.890196 0.870588 0.266667
0.019608 0.019608 0.631373
0.247059 0.011765 0.623529
0.462745 0.003922 0.611765
0.666667 0.000000 0.607843
0.858824 0.003922 0.603922
1.000000 0.000000 0.600000
0.000000 0.211765 0.603922
0.215686 0.219608 0.584314
0.427451 0.215686 0.576471
0.623529 0.211765 0.568627
0.815686 0.200000 0.564706
1.000000 0.188235 0.560784
0.000000 0.400000 0.572549
0.192157 0.411765 0.556863
0.403922 0.403922 0.545098
0.596078 0.400000 0.541176
0.780392 0.392157 0.537255
0.960784 0.380392 0.529412
0.000000 0.580392 0.549020
0.164706 0.584314 0.533333
0.384314 0.576471 0.525490
0.576471 0.572549 0.521569
0.752941 0.564706 0.513725
0.929412 0.556863 0.505882
0.000000 0.760784 0.517647
0.137255 0.749020 0.509804
0.360784 0.741176 0.505882
0.556863 0.733333 0.501961
0.733333 0.725490 0.494118
0.909804 0.721569 0.482353
0.000000 0.921569 0.490196
0.101961 0.905882 0.482353
0.333333 0.890196 0.478431
0.533333 0.882353 0.478431
0.713725 0.874510 0.470588
0.886275 0.870588 0.462745
0.015686 0.035294 0.815686
0.243137 0.023529 0.803922
0.462745 0.015686 0.796078
0.666667 0.007843 0.788235
0.854902 0.000000 0.780392
1.000000 0.000000 0.784314
0.000000 0.227451 0.784314
0.211765 0.223529 0.760784
0.427451 0.215686 0.752941
0.627451 0.207843 0.745098
0.811765 0.200000 0.741176
1.000000 0.188235 0.741176
0.000000 0.415686 0.752941
0.184314 0.411765 0.733333
0.403922 0.403922 0.717647
0.596078 0.396078 0.713725
0.780392 0.388235 0.709804
0.956863 0.380392 0.705882
0.000000 0.592157 0.725490
0.160784 0.584314 0.709804
0.380392 0.576471 0.698039
0.572549 0.568627 0.686275
0.752941 0.564706 0.682353
0.925490 0.556863 0.678431
0.000000 0.756863 0.698039
0.133333 0.749020 0.686275
0.356863 0.737255 0.678431
0.556863 0.729412 0.670588
0.733333 0.725490 0.666667
0.901961 0.717647 0.658824
0.000000 0.917647 0.670588
0.101961 0.901961 0.662745
0.329412 0.890196 0.654902
0.533333 0.878431 0.650980
0.713725 0.870588 0.647059
0.886275 0.866667 0.639216
0.011765 0.035294 1.000000
0.243137 0.023529 0.992157
0.466667 0.015686 0.980392
0.670588 0.003922 0.972549
0.858824 0.000000 0.964706
1.000000 0.000000 0.960784
0.000000 0.231373 0.968627
0.211765 0.219608 0.945098
0.427451 0.211765 0.933333
0.627451 0.200000 0.925490
0.815686 0.192157 0.917647
0.996078 0.184314 0.913725
0.000000 0.419608 0.937255
0.180392 0.407843 0.913725
0.400000 0.400000 0.894118
0.596078 0.392157 0.886275
0.780392 0.384314 0.878431
0.956863 0.376471 0.874510
0.000000 0.596078 0.905882
0.152941 0.584314 0.886275
0.376471 0.572549 0.870588
0.572549 0.568627 0.854902
0.752941 0.560784 0.850980
0.925490 0.552941 0.847059
0.000000 0.760784 0.874510
0.125490 0.749020 0.858824
0.352941 0.737255 0.847059
0.552941 0.729412 0.835294
0.729412 0.721569 0.827451
0.901961 0.717647 0.823529
0.000000 0.913725 0.850980
0.098039 0.898039 0.835294
0.329412 0.886275 0.823529
0.529412 0.878431 0.815686
0.713725 0.870588 0.811765
0.882353 0.866667 0.803922
