luts/full/golden-hour.cube
TITLE "golden-hour (full)"
LUT_3D_SIZE 36
0.050980 0.027451 0.027451
0.082353 0.027451 0.027451
0.113725 0.027451 0.027451
0.141176 0.027451 0.027451
0.176471 0.023529 0.023529
0.207843 0.023529 0.023529
0.235294 0.023529 0.023529
0.266667 0.019608 0.019608
0.294118 0.019608 0.019608
0.321569 0.019608 0.019608
0.349020 0.019608 0.019608
0.384314 0.015686 0.015686
0.411765 0.015686 0.015686
0.435294 0.015686 0.015686
0.466667 0.011765 0.011765
0.494118 0.011765 0.011765
0.525490 0.011765 0.011765
0.552941 0.007843 0.007843
0.588235 0.007843 0.007843
0.615686 0.003922 0.003922
0.643137 0.007843 0.003922
0.674510 0.007843 0.000000
0.701961 0.007843 0.000000
0.733333 0.007843 0.000000
0.756863 0.011765 0.000000
0.792157 0.007843 0.000000
0.815686 0.011765 0.000000
0.839216 0.011765 0.000000
0.870588 0.011765 0.000000
0.898039 0.011765 0.000000
0.925490 0.007843 0.000000
0.949020 0.007843 0.000000
0.980392 0.003922 0.000000
1.000000 0.003922 0.000000
1.000000 0.003922 0.000000
1.000000 0.000000 0.000000
0.047059 0.054902 0.027451
0.078431 0.050980 0.023529
0.109804 0.050980 0.023529
0.137255 0.050980 0.023529
0.172549 0.050980 0.023529
0.203922 0.047059 0.019608
0.231373 0.047059 0.019608
0.262745 0.047059 0.019608
0.290196 0.043137 0.015686
0.317647 0.043137 0.015686
0.345098 0.043137 0.015686
0.380392 0.043137 0.011765
0.407843 0.039216 0.011765
0.431373 0.039216 0.011765
0.462745 0.039216 0.007843
0.490196 0.035294 0.007843
0.521569 0.035294 0.007843
0.549020 0.035294 0.003922
0.584314 0.031373 0.003922
0.611765 0.031373 0.000000
0.639216 0.031373 0.000000
0.670588 0.031373 0.000000
0.698039 0.035294 0.000000
0.729412 0.031373 0.000000
0.752941 0.035294 0.000000
0.784314 0.035294 0.000000
0.811765 0.035294 0.000000
0.835294 0.035294 0.000000
0.862745 0.039216 0.000000
0.894118 0.035294 0.000000
0.921569 0.035294 0.000000
0.945098 0.031373 0.000000
0.976471 0.031373 0.000000
1.000000 0.027451 0.000000
1.000000 0.027451 0.000000
1.000000 0.027451 0.000000
0.047059 0.082353 0.023529
0.078431 0.082353 0.023529
0.105882 0.078431 0.019608
0.133333 0.078431 0.019608
0.168627 0.078431 0.019608
0.200000 0.078431 0.015686
0.227451 0.074510 0.015686
0.258824 0.074510 0.015686
0.286275 0.074510 0.011765
0.313725 0.074510 0.011765
0.341176 0.070588 0.011765
0.376471 0.070588 0.007843
0.403922 0.070588 0.007843
0.427451 0.066667 0.007843
0.458824 0.066667 0.003922
0.486275 0.066667 0.003922
0.517647 0.062745 0.003922
0.545098 0.062745 0.000000
0.580392 0.062745 0.000000
0.607843 0.058824 0.000000
0.635294 0.062745 0.000000
0.666667 0.062745 0.000000
0.694118 0.062745 0.000000
0.721569 0.062745 0.000000
0.745098 0.066667 0.000000
0.780392 0.062745 0.000000
0.803922 0.066667 0.000000
0.831373 0.062745 0.000000
0.858824 0.066667 0.000000
0.890196 0.066667 0.000000
0.913725 0.062745 0.000000
0.941176 0.062745 0.000000
0.968627 0.058824 0.000000
0.996078 0.058824 0.000000
1.000000 0.058824 0.000000
1.000000 0.054902 0.000000
0.043137 0.105882 0.019608
0.074510 0.105882 0.019608
0.105882 0.105882 0.019608
0.133333 0.105882 0.015686
0.168627 0.101961 0.015686
0.200000 0.101961 0.015686
0.227451 0.101961 0.011765
0.258824 0.098039 0.011765
0.286275 0.098039 0.011765
0.313725 0.098039 0.007843
0.341176 0.098039 0.007843
0.372549 0.094118 0.007843
0.400000 0.094118 0.003922
0.423529 0.094118 0.003922
0.454902 0.090196 0.000000
0.486275 0.090196 0.000000
0.513725 0.090196 0.000000
0.541176 0.086275 0.000000
0.576471 0.086275 0.000000
0.603922 0.086275 0.000000
0.631373 0.086275 0.000000
0.662745 0.086275 0.000000
0.690196 0.090196 0.000000
0.717647 0.086275 0.000000
0.741176 0.090196 0.000000
0.776471 0.090196 0.000000
0.800000 0.090196 0.000000
0.827451 0.090196 0.000000
0.854902 0.094118 0.000000
0.886275 0.090196 0.000000
0.909804 0.090196 0.000000
0.937255 0.086275 0.000000
0.964706 0.086275 0.000000
0.992157 0.082353 0.000000
1.000000 0.082353 0.000000
1.000000 0.082353 0.000000
0.039216 0.137255 0.015686
0.070588 0.133333 0.015686
0.101961 0.133333 0.015686
0.129412 0.133333 0.015686
0.164706 0.133333 0.011765
0.196078 0.129412 0.011765
0.223529 0.129412 0.007843
0.254902 0.129412 0.007843
0.282353 0.129412 0.007843
0.309804 0.125490 0.003922
0.337255 0.125490 0.003922
0.368627 0.125490 0.003922
0.396078 0.121569 0.000000
0.419608 0.121569 0.000000
0.450980 0.121569 0.000000
0.478431 0.121569 0.000000
0.509804 0.117647 0.000000
0.537255 0.117647 0.000000
0.568627 0.113725 0.000000
0.600000 0.113725 0.000000
0.627451 0.117647 0.000000
0.654902 0.113725 0.000000
0.686275 0.117647 0.000000
0.713725 0.117647 0.000000
0.737255 0.117647 0.000000
0.772549 0.117647 0.000000
0.796078 0.121569 0.000000
0.819608 0.117647 0.000000
0.850980 0.121569 0.000000
0.878431 0.121569 0.000000
0.905882 0.117647 0.000000
0.929412 0.117647 0.000000
0.960784 0.113725 0.000000
0.984314 0.113725 0.000000
1.000000 0.113725 0.000000
1.000000 0.109804 0.000000
0.035294 0.164706 0.011765
0.066667 0.164706 0.011765
0.098039 0.160784 0.011765
0.125490 0.160784 0.011765
0.160784 0.160784 0.007843
0.192157 0.160784 0.007843
0.219608 0.156863 0.007843
0.250980 0.156863 0.003922
0.278431 0.156863 0.003922
0.305882 0.156863 0.000000
0.333333 0.152941 0.000000
0.364706 0.152941 0.000000
0.392157 0.152941 0.000000
0.415686 0.152941 0.000000
0.447059 0.149020 0.000000
0.474510 0.149020 0.000000
0.505882 0.149020 0.000000
0.533333 0.145098 0.000000
0.564706 0.145098 0.000000
0.596078 0.145098 0.000000
0.623529 0.145098 0.000000
0.650980 0.145098 0.000000
0.678431 0.149020 0.000000
0.709804 0.145098 0.000000
0.733333 0.149020 0.000000
0.768627 0.145098 0.000000
0.792157 0.149020 0.000000
0.815686 0.149020 0.000000
0.847059 0.152941 0.000000
0.874510 0.149020 0.000000
0.901961 0.149020 0.000000
0.925490 0.145098 0.000000
0.956863 0.145098 0.000000
0.980392 0.145098 0.000000
1.000000 0.141176 0.000000
1.000000 0.141176 0.000000
0.031373 0.184314 0.011765
0.062745 0.184314 0.007843
0.094118 0.184314 0.007843
0.121569 0.180392 0.007843
0.156863 0.180392 0.007843
0.188235 0.180392 0.003922
0.215686 0.180392 0.003922
0.247059 0.176471 0.003922
0.274510 0.176471 0.000000
0.301961 0.176471 0.000000
0.329412 0.176471 0.000000
0.360784 0.172549 0.000000
0.388235 0.172549 0.000000
0.411765 0.172549 0.000000
0.443137 0.172549 0.000000
0.474510 0.168627 0.000000
0.501961 0.168627 0.000000
0.529412 0.168627 0.000000
0.564706 0.164706 0.000000
0.592157 0.164706 0.000000
0.619608 0.168627 0.000000
0.647059 0.164706 0.000000
0.678431 0.168627 0.000000
0.705882 0.168627 0.000000
0.729412 0.168627 0.000000
0.764706 0.168627 0.000000
0.788235 0.172549 0.000000
0.811765 0.168627 0.000000
0.843137 0.172549 0.000000
0.870588 0.168627 0.000000
0.898039 0.168627 0.000000
0.921569 0.168627 0.000000
0.952941 0.164706 0.000000
0.976471 0.164706 0.000000
1.000000 0.164706 0.000000
1.000000 0.160784 0.000000
0.027451 0.219608 0.003922
0.058824 0.215686 0.003922
0.090196 0.215686 0.003922
0.117647 0.215686 0.003922
0.152941 0.215686 0.000000
0.184314 0.211765 0.000000
0.211765 0.211765 0.000000
0.243137 0.211765 0.000000
0.270588 0.211765 0.000000
0.298039 0.207843 0.000000
0.325490 0.207843 0.000000
0.356863 0.207843 0.000000
0.384314 0.207843 0.000000
0.407843 0.203922 0.000000
0.439216 0.203922 0.000000
0.466667 0.203922 0.000000
0.498039 0.200000 0.000000
0.525490 0.200000 0.000000
0.556863 0.200000 0.000000
0.588235 0.196078 0.000000
0.615686 0.200000 0.000000
0.643137 0.200000 0.000000
0.670588 0.200000 0.000000
0.701961 0.200000 0.000000
0.725490 0.203922 0.000000
0.756863 0.200000 0.000000
0.784314 0.203922 0.000000
0.807843 0.203922 0.000000
0.835294 0.203922 0.000000
0.866667 0.203922 0.000000
0.890196 0.203922 0.000000
0.913725 0.200000 0.000000
0.945098 0.200000 0.000000
0.972549 0.200000 0.000000
0.996078 0.196078 0.000000
1.000000 0.196078 0.000000
0.019608 0.243137 0.003922
0.050980 0.243137 0.000000
0.082353 0.239216 0.000000
0.109804 0.239216 0.000000
0.145098 0.239216 0.000000
0.176471 0.239216 0.000000
0.203922 0.235294 0.000000
0.239216 0.235294 0.000000
0.266667 0.235294 0.000000
0.294118 0.235294 0.000000
0.321569 0.231373 0.000000
0.352941 0.231373 0.000000
0.380392 0.231373 0.000000
0.403922 0.231373 0.000000
0.435294 0.227451 0.000000
0.466667 0.227451 0.000000
0.494118 0.227451 0.000000
0.521569 0.223529 0.000000
0.552941 0.223529 0.000000
0.584314 0.223529 0.000000
0.611765 0.223529 0.000000
0.639216 0.223529 0.000000
0.666667 0.227451 0.000000
0.698039 0.227451 0.000000
0.721569 0.227451 0.000000
0.752941 0.227451 0.000000
0.776471 0.231373 0.000000
0.803922 0.227451 0.000000
0.831373 0.231373 0.000000
0.862745 0.231373 0.000000
0.886275 0.227451 0.000000
0.909804 0.227451 0.000000
0.941176 0.223529 0.000000
0.964706 0.223529 0.000000
0.992157 0.223529 0.000000
1.000000 0.219608 0.000000
0.015686 0.266667 0.000000
0.047059 0.266667 0.000000
0.078431 0.266667 0.000000
0.105882 0.266667 0.000000
0.145098 0.262745 0.000000
0.176471 0.262745 0.000000
0.200000 0.262745 0.000000
0.239216 0.258824 0.000000
0.262745 0.258824 0.000000
0.290196 0.258824 0.000000
0.317647 0.258824 0.000000
0.349020 0.254902 0.000000
0.376471 0.254902 0.000000
0.400000 0.254902 0.000000
0.435294 0.254902 0.000000
0.462745 0.250980 0.000000
0.490196 0.250980 0.000000
0.517647 0.250980 0.000000
0.549020 0.247059 0.000000
0.580392 0.247059 0.000000
0.607843 0.250980 0.000000
0.635294 0.250980 0.000000
0.662745 0.250980 0.000000
0.694118 0.250980 0.000000
0.717647 0.254902 0.000000
0.749020 0.250980 0.000000
0.772549 0.254902 0.000000
0.800000 0.254902 0.000000
0.827451 0.254902 0.000000
0.858824 0.254902 0.000000
0.882353 0.254902 0.000000
0.905882 0.250980 0.000000
0.937255 0.250980 0.000000
0.960784 0.247059 0.000000
0.988235 0.247059 0.000000
1.000000 0.247059 0.000000
0.007843 0.298039 0.000000
0.039216 0.298039 0.000000
0.070588 0.294118 0.000000
0.098039 0.294118 0.000000
0.133333 0.294118 0.000000
0.164706 0.290196 0.000000
0.192157 0.290196 0.000000
0.227451 0.290196 0.000000
0.254902 0.290196 0.000000
0.286275 0.286275 0.000000
0.313725 0.286275 0.000000
0.345098 0.286275 0.000000
0.372549 0.286275 0.000000
0.396078 0.282353 0.000000
0.431373 0.282353 0.000000
0.458824 0.282353 0.000000
0.486275 0.282353 0.000000
0.513725 0.278431 0.000000
0.545098 0.278431 0.000000
0.576471 0.278431 0.000000
0.603922 0.278431 0.000000
0.631373 0.278431 0.000000
0.658824 0.282353 0.000000
0.686275 0.278431 0.000000
0.709804 0.282353 0.000000
0.745098 0.282353 0.000000
0.768627 0.286275 0.000000
0.792157 0.282353 0.000000
0.823529 0.286275 0.000000
0.850980 0.282353 0.000000
0.878431 0.282353 0.000000
0.901961 0.282353 0.000000
0.933333 0.278431 0.000000
0.956863 0.278431 0.000000
0.980392 0.278431 0.000000
1.000000 0.274510 0.000000
0.000000 0.325490 0.000000
0.031373 0.325490 0.000000
0.062745 0.325490 0.000000
0.090196 0.325490 0.000000
0.125490 0.321569 0.000000
0.156863 0.321569 0.000000
0.184314 0.321569 0.000000
0.219608 0.317647 0.000000
0.247059 0.317647 0.000000
0.278431 0.317647 0.000000
0.305882 0.317647 0.000000
0.341176 0.313725 0.000000
0.368627 0.313725 0.000000
0.392157 0.313725 0.000000
0.423529 0.313725 0.000000
0.454902 0.309804 0.000000
0.482353 0.309804 0.000000
0.509804 0.309804 0.000000
0.541176 0.305882 0.000000
0.568627 0.305882 0.000000
0.596078 0.309804 0.000000
0.627451 0.305882 0.000000
0.654902 0.309804 0.000000
0.682353 0.309804 0.000000
0.705882 0.313725 0.000000
0.741176 0.309804 0.000000
0.764706 0.313725 0.000000
0.788235 0.313725 0.000000
0.815686 0.313725 0.000000
0.847059 0.313725 0.000000
0.870588 0.313725 0.000000
0.898039 0.309804 0.000000
0.925490 0.309804 0.000000
0.952941 0.309804 0.000000
0.976471 0.305882 0.000000
1.000000 0.305882 0.000000
0.000000 0.349020 0.000000
0.027451 0.345098 0.000000
0.058824 0.345098 0.000000
0.086275 0.345098 0.000000
0.121569 0.345098 0.000000
0.152941 0.341176 0.000000
0.180392 0.341176 0.000000
0.219608 0.341176 0.000000
0.247059 0.337255 0.000000
0.278431 0.337255 0.000000
0.305882 0.337255 0.000000
0.341176 0.337255 0.000000
0.368627 0.333333 0.000000
0.392157 0.333333 0.000000
0.423529 0.333333 0.000000
0.450980 0.333333 0.000000
0.478431 0.329412 0.000000
0.505882 0.329412 0.000000
0.537255 0.329412 0.000000
0.568627 0.325490 0.000000
0.596078 0.329412 0.000000
0.623529 0.329412 0.000000
0.650980 0.333333 0.000000
0.678431 0.329412 0.000000
0.701961 0.333333 0.000000
0.737255 0.333333 0.000000
0.760784 0.333333 0.000000
0.784314 0.333333 0.000000
0.815686 0.337255 0.000000
0.843137 0.333333 0.000000
0.866667 0.333333 0.000000
0.894118 0.333333 0.000000
0.921569 0.329412 0.000000
0.949020 0.329412 0.000000
0.972549 0.329412 0.000000
1.000000 0.325490 0.000000
0.000000 0.376471 0.000000
0.019608 0.376471 0.000000
0.050980 0.376471 0.000000
0.078431 0.372549 0.000000
0.113725 0.372549 0.000000
0.145098 0.372549 0.000000
0.172549 0.368627 0.000000
0.207843 0.368627 0.000000
0.235294 0.368627 0.000000
0.266667 0.368627 0.000000
0.294118 0.364706 0.000000
0.333333 0.364706 0.000000
0.360784 0.364706 0.000000
0.388235 0.364706 0.000000
0.419608 0.360784 0.000000
0.447059 0.360784 0.000000
0.474510 0.360784 0.000000
0.501961 0.356863 0.000000
0.533333 0.356863 0.000000
0.560784 0.356863 0.000000
0.592157 0.360784 0.000000
0.619608 0.356863 0.000000
0.647059 0.360784 0.000000
0.674510 0.360784 0.000000
0.698039 0.360784 0.000000
0.733333 0.360784 0.000000
0.756863 0.364706 0.000000
0.780392 0.364706 0.000000
0.807843 0.364706 0.000000
0.839216 0.364706 0.000000
0.862745 0.364706 0.000000
0.886275 0.360784 0.000000
0.917647 0.360784 0.000000
0.941176 0.356863 0.000000
0.968627 0.356863 0.000000
0.996078 0.356863 0.000000
0.000000 0.407843 0.000000
0.015686 0.403922 0.000000
0.047059 0.403922 0.000000
0.074510 0.403922 0.000000
0.109804 0.403922 0.000000
0.141176 0.400000 0.000000
0.168627 0.400000 0.000000
0.203922 0.400000 0.000000
0.231373 0.396078 0.000000
0.262745 0.396078 0.000000
0.290196 0.396078 0.000000
0.329412 0.392157 0.000000
0.356863 0.392157 0.000000
0.384314 0.392157 0.000000
0.415686 0.392157 0.000000
0.443137 0.388235 0.000000
0.470588 0.388235 0.000000
0.498039 0.388235 0.000000
0.529412 0.388235 0.000000
0.556863 0.384314 0.000000
0.584314 0.388235 0.000000
0.615686 0.388235 0.000000
0.643137 0.388235 0.000000
0.670588 0.388235 0.000000
0.694118 0.392157 0.000000
0.729412 0.392157 0.000000
0.752941 0.392157 0.000000
0.776471 0.392157 0.000000
0.803922 0.396078 0.000000
0.831373 0.392157 0.000000
0.858824 0.392157 0.000000
0.882353 0.392157 0.000000
0.913725 0.388235 0.000000
0.937255 0.388235 0.000000
0.960784 0.388235 0.000000
0.992157 0.384314 0.000000
0.000000 0.427451 0.000000
0.003922 0.427451 0.000000
0.039216 0.427451 0.000000
0.066667 0.423529 0.000000
0.101961 0.423529 0.000000
0.133333 0.423529 0.000000
0.160784 0.419608 0.000000
0.196078 0.419608 0.000000
0.223529 0.419608 0.000000
0.254902 0.415686 0.000000
0.282353 0.415686 0.000000
0.321569 0.415686 0.000000
0.349020 0.415686 0.000000
0.376471 0.411765 0.000000
0.411765 0.411765 0.000000
0.439216 0.411765 0.000000
0.466667 0.407843 0.000000
0.494118 0.407843 0.000000
0.525490 0.407843 0.000000
0.556863 0.407843 0.000000
0.584314 0.407843 0.000000
0.611765 0.407843 0.000000
0.639216 0.411765 0.000000
0.666667 0.407843 0.000000
0.690196 0.411765 0.000000
0.725490 0.411765 0.000000
0.749020 0.415686 0.000000
0.772549 0.411765 0.000000
0.800000 0.415686 0.000000
0.831373 0.415686 0.000000
0.854902 0.411765 0.000000
0.878431 0.411765 0.000000
0.909804 0.411765 0.000000
0.933333 0.407843 0.000000
0.956863 0.407843 0.000000
0.988235 0.407843 0.000000
0.000000 0.458824 0.000000
0.000000 0.454902 0.000000
0.031373 0.454902 0.000000
0.058824 0.454902 0.000000
0.098039 0.450980 0.000000
0.129412 0.450980 0.000000
0.156863 0.450980 0.000000
0.192157 0.447059 0.000000
0.219608 0.447059 0.000000
0.250980 0.447059 0.000000
0.278431 0.447059 0.000000
0.317647 0.443137 0.000000
0.345098 0.443137 0.000000
0.372549 0.443137 0.000000
0.407843 0.439216 0.000000
0.435294 0.439216 0.000000
0.462745 0.439216 0.000000
0.490196 0.439216 0.000000
0.521569 0.435294 0.000000
0.549020 0.435294 0.000000
0.576471 0.439216 0.000000
0.607843 0.439216 0.000000
0.635294 0.439216 0.000000
0.662745 0.439216 0.000000
0.686275 0.443137 0.000000
0.717647 0.439216 0.000000
0.741176 0.443137 0.000000
0.768627 0.443137 0.000000
0.796078 0.447059 0.000000
0.823529 0.443137 0.000000
0.847059 0.443137 0.000000
0.874510 0.443137 0.000000
0.901961 0.439216 0.000000
0.929412 0.439216 0.000000
0.952941 0.439216 0.000000
0.980392 0.435294 0.000000
0.000000 0.482353 0.000000
0.000000 0.482353 0.000000
0.027451 0.482353 0.000000
0.054902 0.478431 0.000000
0.094118 0.478431 0.000000
0.125490 0.478431 0.000000
0.152941 0.474510 0.000000
0.188235 0.474510 0.000000
0.215686 0.474510 0.000000
0.247059 0.470588 0.000000
0.274510 0.470588 0.000000
0.313725 0.470588 0.000000
0.341176 0.466667 0.000000
0.368627 0.466667 0.000000
0.403922 0.466667 0.000000
0.431373 0.466667 0.000000
0.458824 0.462745 0.000000
0.486275 0.462745 0.000000
0.517647 0.462745 0.000000
0.545098 0.458824 0.000000
0.572549 0.462745 0.000000
0.603922 0.462745 0.000000
0.631373 0.466667 0.000000
0.658824 0.462745 0.000000
0.682353 0.466667 0.000000
0.713725 0.466667 0.000000
0.737255 0.470588 0.000000
0.760784 0.466667 0.000000
0.792157 0.470588 0.000000
0.819608 0.470588 0.000000
0.843137 0.466667 0.000000
0.870588 0.466667 0.000000
0.898039 0.466667 0.000000
0.921569 0.462745 0.000000
0.949020 0.462745 0.000000
0.976471 0.462745 0.000000
0.000000 0.509804 0.000000
0.000000 0.505882 0.000000
0.023529 0.505882 0.000000
0.050980 0.505882 0.000000
0.086275 0.501961 0.000000
0.121569 0.501961 0.000000
0.149020 0.501961 0.000000
0.184314 0.498039 0.000000
0.211765 0.498039 0.000000
0.243137 0.498039 0.000000
0.270588 0.494118 0.000000
0.309804 0.494118 0.000000
0.337255 0.494118 0.000000
0.364706 0.494118 0.000000
0.400000 0.490196 0.000000
0.427451 0.490196 0.000000
0.454902 0.490196 0.000000
0.482353 0.486275 0.000000
0.513725 0.486275 0.000000
0.541176 0.486275 0.000000
0.568627 0.490196 0.000000
0.600000 0.486275 0.000000
0.627451 0.490196 0.000000
0.654902 0.490196 0.000000
0.678431 0.494118 0.000000
0.709804 0.490196 0.000000
0.733333 0.494118 0.000000
0.756863 0.494118 0.000000
0.788235 0.498039 0.000000
0.815686 0.494118 0.000000
0.839216 0.494118 0.000000
0.862745 0.494118 0.000000
0.894118 0.490196 0.000000
0.917647 0.490196 0.000000
0.945098 0.490196 0.000000
0.972549 0.486275 0.000000
0.000000 0.533333 0.000000
0.000000 0.533333 0.000000
0.019608 0.529412 0.000000
0.047059 0.529412 0.000000
0.082353 0.529412 0.000000
0.113725 0.525490 0.000000
0.145098 0.525490 0.000000
0.180392 0.525490 0.000000
0.207843 0.525490 0.000000
0.239216 0.521569 0.000000
0.266667 0.521569 0.000000
0.305882 0.521569 0.000000
0.333333 0.517647 0.000000
0.360784 0.517647 0.000000
0.396078 0.517647 0.000000
0.423529 0.513725 0.000000
0.450980 0.513725 0.000000
0.478431 0.513725 0.000000
0.509804 0.509804 0.000000
0.541176 0.509804 0.000000
0.564706 0.513725 0.000000
0.596078 0.513725 0.000000
0.623529 0.513725 0.000000
0.650980 0.513725 0.000000
0.674510 0.517647 0.000000
0.705882 0.517647 0.000000
0.729412 0.517647 0.000000
0.752941 0.517647 0.000000
0.780392 0.521569 0.000000
0.811765 0.521569 0.000000
0.835294 0.517647 0.000000
0.858824 0.517647 0.000000
0.890196 0.517647 0.000000
0.913725 0.513725 0.000000
0.937255 0.513725 0.000000
0.968627 0.513725 0.000000
0.000000 0.560784 0.000000
0.000000 0.556863 0.000000
0.015686 0.556863 0.000000
0.043137 0.556863 0.000000
0.078431 0.552941 0.000000
0.109804 0.552941 0.000000
0.137255 0.552941 0.000000
0.176471 0.549020 0.000000
0.203922 0.549020 0.000000
0.235294 0.549020 0.000000
0.262745 0.545098 0.000000
0.301961 0.545098 0.000000
0.329412 0.545098 0.000000
0.356863 0.541176 0.000000
0.392157 0.541176 0.000000
0.419608 0.541176 0.000000
0.447059 0.537255 0.000000
0.474510 0.537255 0.000000
0.505882 0.537255 0.000000
0.537255 0.537255 0.000000
0.564706 0.537255 0.000000
0.592157 0.537255 0.000000
0.619608 0.541176 0.000000
0.647059 0.541176 0.000000
0.670588 0.541176 0.000000
0.701961 0.541176 0.000000
0.725490 0.545098 0.000000
0.749020 0.545098 0.000000
0.776471 0.545098 0.000000
0.807843 0.545098 0.000000
0.831373 0.545098 0.000000
0.854902 0.541176 0.000000
0.886275 0.541176 0.000000
0.909804 0.541176 0.000000
0.933333 0.541176 0.000000
0.964706 0.537255 0.000000
0.000000 0.588235 0.000000
0.000000 0.588235 0.000000
0.007843 0.588235 0.000000
0.035294 0.584314 0.000000
0.074510 0.584314 0.000000
0.105882 0.584314 0.000000
0.133333 0.580392 0.000000
0.168627 0.580392 0.000000
0.196078 0.580392 0.000000
0.231373 0.576471 0.000000
0.258824 0.576471 0.000000
0.294118 0.576471 0.000000
0.321569 0.572549 0.000000
0.349020 0.572549 0.000000
0.388235 0.572549 0.000000
0.415686 0.568627 0.000000
0.443137 0.568627 0.000000
0.470588 0.568627 0.000000
0.501961 0.564706 0.000000
0.529412 0.564706 0.000000
0.560784 0.564706 0.000000
0.588235 0.560784 0.000000
0.615686 0.564706 0.000000
0.643137 0.564706 0.000000
0.666667 0.568627 0.000000
0.698039 0.568627 0.000000
0.721569 0.568627 0.000000
0.745098 0.568627 0.000000
0.772549 0.572549 0.000000
0.803922 0.568627 0.000000
0.827451 0.568627 0.000000
0.850980 0.568627 0.000000
0.878431 0.568627 0.000000
0.905882 0.564706 0.000000
0.929412 0.564706 0.000000
0.960784 0.564706 0.000000
0.000000 0.615686 0.000000
0.000000 0.611765 0.000000
0.003922 0.611765 0.000000
0.031373 0.611765 0.000000
0.066667 0.607843 0.000000
0.101961 0.607843 0.000000
0.129412 0.607843 0.000000
0.164706 0.603922 0.000000
0.192157 0.603922 0.000000
0.227451 0.603922 0.000000
0.254902 0.600000 0.000000
0.290196 0.600000 0.000000
0.317647 0.600000 0.000000
0.345098 0.596078 0.000000
0.384314 0.596078 0.000000
0.411765 0.596078 0.000000
0.439216 0.592157 0.000000
0.466667 0.592157 0.000000
0.498039 0.592157 0.000000
0.525490 0.588235 0.000000
0.556863 0.588235 0.000000
0.584314 0.588235 0.000000
0.611765 0.592157 0.000000
0.639216 0.588235 0.000000
0.662745 0.592157 0.000000
0.694118 0.592157 0.000000
0.717647 0.596078 0.000000
0.741176 0.592157 0.000000
0.768627 0.596078 0.000000
0.800000 0.596078 0.000000
0.823529 0.596078 0.000000
0.847059 0.592157 0.000000
0.874510 0.592157 0.000000
0.901961 0.592157 0.000000
0.925490 0.588235 0.000000
0.952941 0.588235 0.000000
0.000000 0.635294 0.000000
0.000000 0.635294 0.000000
0.000000 0.635294 0.000000
0.027451 0.631373 0.000000
0.062745 0.631373 0.000000
0.098039 0.627451 0.000000
0.125490 0.627451 0.000000
0.160784 0.627451 0.000000
0.188235 0.623529 0.000000
0.223529 0.623529 0.000000
0.250980 0.623529 0.000000
0.286275 0.619608 0.000000
0.313725 0.619608 0.000000
0.341176 0.619608 0.000000
0.380392 0.615686 0.000000
0.407843 0.615686 0.000000
0.435294 0.615686 0.000000
0.462745 0.615686 0.000000
0.498039 0.611765 0.000000
0.525490 0.611765 0.000000
0.552941 0.611765 0.000000
0.580392 0.607843 0.000000
0.607843 0.607843 0.000000
0.635294 0.607843 0.000000
0.658824 0.611765 0.000000
0.690196 0.607843 0.000000
0.713725 0.611765 0.000000
0.737255 0.611765 0.000000
0.764706 0.615686 0.000000
0.796078 0.611765 0.000000
0.819608 0.611765 0.000000
0.843137 0.611765 0.000000
0.874510 0.607843 0.000000
0.898039 0.607843 0.000000
0.921569 0.607843 0.000000
0.952941 0.603922 0.000000
0.000000 0.662745 0.000000
0.000000 0.658824 0.000000
0.000000 0.658824 0.000000
0.019608 0.658824 0.000000
0.058824 0.654902 0.000000
0.090196 0.654902 0.000000
0.117647 0.654902 0.000000
0.156863 0.650980 0.000000
0.184314 0.650980 0.000000
0.215686 0.650980 0.000000
0.243137 0.647059 0.000000
0.282353 0.647059 0.000000
0.309804 0.647059 0.000000
0.337255 0.643137 0.000000
0.376471 0.643137 0.000000
0.403922 0.643137 0.000000
0.431373 0.639216 0.000000
0.458824 0.639216 0.000000
0.490196 0.639216 0.000000
0.521569 0.635294 0.000000
0.549020 0.635294 0.000000
0.576471 0.635294 0.000000
0.603922 0.631373 0.000000
