luts/full/honey.cube
TITLE "honey (full)"
LUT_3D_SIZE 36
0.043137 0.043137 0.043137
0.070588 0.039216 0.039216
0.094118 0.039216 0.039216
0.125490 0.039216 0.039216
0.152941 0.039216 0.039216
0.184314 0.039216 0.039216
0.207843 0.043137 0.039216
0.243137 0.043137 0.039216
0.270588 0.039216 0.035294
0.294118 0.043137 0.035294
0.325490 0.043137 0.035294
0.356863 0.047059 0.035294
0.380392 0.047059 0.035294
0.411765 0.047059 0.035294
0.443137 0.047059 0.031373
0.466667 0.047059 0.031373
0.494118 0.047059 0.031373
0.521569 0.047059 0.031373
0.549020 0.047059 0.031373
0.576471 0.043137 0.027451
0.603922 0.043137 0.027451
0.635294 0.043137 0.027451
0.662745 0.043137 0.027451
0.682353 0.039216 0.023529
0.709804 0.039216 0.023529
0.737255 0.039216 0.023529
0.764706 0.039216 0.023529
0.788235 0.039216 0.023529
0.819608 0.035294 0.019608
0.839216 0.035294 0.019608
0.866667 0.035294 0.019608
0.890196 0.035294 0.019608
0.917647 0.031373 0.015686
0.945098 0.031373 0.015686
0.968627 0.031373 0.015686
0.996078 0.031373 0.015686
0.039216 0.066667 0.039216
0.070588 0.066667 0.039216
0.094118 0.062745 0.039216
0.121569 0.062745 0.039216
0.152941 0.062745 0.039216
0.184314 0.062745 0.035294
0.207843 0.066667 0.035294
0.243137 0.066667 0.035294
0.266667 0.066667 0.035294
0.294118 0.066667 0.035294
0.321569 0.066667 0.035294
0.352941 0.070588 0.031373
0.380392 0.070588 0.031373
0.407843 0.070588 0.031373
0.439216 0.070588 0.031373
0.466667 0.070588 0.031373
0.490196 0.070588 0.027451
0.517647 0.070588 0.027451
0.549020 0.070588 0.027451
0.576471 0.070588 0.027451
0.600000 0.066667 0.027451
0.631373 0.066667 0.023529
0.658824 0.066667 0.023529
0.682353 0.066667 0.023529
0.709804 0.062745 0.023529
0.733333 0.062745 0.019608
0.760784 0.062745 0.019608
0.784314 0.062745 0.019608
0.815686 0.062745 0.019608
0.839216 0.058824 0.019608
0.866667 0.058824 0.015686
0.890196 0.058824 0.015686
0.917647 0.058824 0.015686
0.945098 0.054902 0.011765
0.964706 0.054902 0.011765
0.992157 0.054902 0.011765
0.039216 0.090196 0.039216
0.066667 0.090196 0.039216
0.094118 0.090196 0.039216
0.121569 0.086275 0.035294
0.152941 0.086275 0.035294
0.180392 0.086275 0.035294
0.207843 0.090196 0.035294
0.239216 0.090196 0.035294
0.266667 0.090196 0.035294
0.290196 0.094118 0.031373
0.321569 0.090196 0.031373
0.352941 0.094118 0.031373
0.376471 0.094118 0.031373
0.407843 0.094118 0.031373
0.439216 0.098039 0.027451
0.462745 0.098039 0.027451
0.490196 0.094118 0.027451
0.517647 0.094118 0.027451
0.545098 0.094118 0.027451
0.572549 0.094118 0.023529
0.600000 0.094118 0.023529
0.631373 0.090196 0.023529
0.658824 0.090196 0.023529
0.678431 0.090196 0.019608
0.705882 0.090196 0.019608
0.733333 0.086275 0.019608
0.760784 0.086275 0.019608
0.780392 0.086275 0.015686
0.815686 0.086275 0.015686
0.835294 0.086275 0.015686
0.862745 0.082353 0.015686
0.886275 0.082353 0.011765
0.913725 0.082353 0.011765
0.941176 0.082353 0.011765
0.964706 0.078431 0.011765
0.992157 0.078431 0.007843
0.035294 0.113725 0.035294
0.066667 0.113725 0.035294
0.090196 0.113725 0.035294
0.121569 0.113725 0.035294
0.149020 0.109804 0.035294
0.180392 0.109804 0.035294
0.203922 0.109804 0.035294
0.239216 0.113725 0.031373
0.262745 0.113725 0.031373
0.290196 0.117647 0.031373
0.321569 0.117647 0.031373
0.349020 0.113725 0.031373
0.376471 0.117647 0.027451
0.403922 0.117647 0.027451
0.435294 0.121569 0.027451
0.462745 0.121569 0.027451
0.486275 0.121569 0.023529
0.513725 0.117647 0.023529
0.545098 0.117647 0.023529
0.572549 0.117647 0.023529
0.596078 0.117647 0.023529
0.627451 0.117647 0.019608
0.654902 0.113725 0.019608
0.678431 0.113725 0.019608
0.705882 0.113725 0.019608
0.729412 0.113725 0.015686
0.756863 0.109804 0.015686
0.780392 0.109804 0.015686
0.811765 0.109804 0.015686
0.835294 0.109804 0.011765
0.862745 0.109804 0.011765
0.882353 0.105882 0.011765
0.909804 0.105882 0.011765
0.937255 0.105882 0.007843
0.960784 0.105882 0.007843
0.988235 0.101961 0.007843
0.035294 0.141176 0.035294
0.062745 0.141176 0.035294
0.090196 0.141176 0.035294
0.117647 0.141176 0.035294
0.149020 0.141176 0.031373
0.176471 0.137255 0.031373
0.203922 0.137255 0.031373
0.235294 0.141176 0.031373
0.262745 0.141176 0.031373
0.286275 0.145098 0.027451
0.317647 0.145098 0.027451
0.349020 0.145098 0.027451
0.372549 0.145098 0.027451
0.403922 0.145098 0.027451
0.435294 0.149020 0.023529
0.458824 0.149020 0.023529
0.486275 0.149020 0.023529
0.513725 0.149020 0.023529
0.541176 0.145098 0.019608
0.568627 0.145098 0.019608
0.596078 0.145098 0.019608
0.627451 0.145098 0.019608
0.650980 0.145098 0.015686
0.674510 0.141176 0.015686
0.701961 0.141176 0.015686
0.729412 0.141176 0.015686
0.756863 0.141176 0.011765
0.776471 0.141176 0.011765
0.807843 0.137255 0.011765
0.831373 0.137255 0.011765
0.858824 0.137255 0.007843
0.882353 0.137255 0.007843
0.909804 0.133333 0.007843
0.937255 0.133333 0.007843
0.956863 0.133333 0.003922
0.984314 0.133333 0.003922
0.035294 0.164706 0.035294
0.062745 0.164706 0.031373
0.086275 0.164706 0.031373
0.117647 0.164706 0.031373
0.145098 0.164706 0.031373
0.176471 0.164706 0.031373
0.200000 0.164706 0.031373
0.235294 0.164706 0.027451
0.258824 0.164706 0.027451
0.286275 0.168627 0.027451
0.317647 0.168627 0.027451
0.345098 0.168627 0.027451
0.372549 0.172549 0.023529
0.400000 0.168627 0.023529
0.431373 0.172549 0.023529
0.458824 0.172549 0.023529
0.482353 0.172549 0.019608
0.509804 0.172549 0.019608
0.541176 0.172549 0.019608
0.568627 0.168627 0.019608
0.592157 0.168627 0.015686
0.623529 0.168627 0.015686
0.650980 0.168627 0.015686
0.674510 0.168627 0.015686
0.698039 0.164706 0.011765
0.725490 0.164706 0.011765
0.752941 0.164706 0.011765
0.776471 0.164706 0.011765
0.807843 0.164706 0.007843
0.827451 0.160784 0.007843
0.854902 0.160784 0.007843
0.878431 0.160784 0.007843
0.905882 0.160784 0.003922
0.933333 0.156863 0.003922
0.956863 0.156863 0.003922
0.984314 0.156863 0.000000
0.031373 0.188235 0.031373
0.062745 0.188235 0.031373
0.086275 0.188235 0.031373
0.117647 0.188235 0.031373
0.145098 0.188235 0.031373
0.176471 0.188235 0.027451
0.200000 0.188235 0.027451
0.235294 0.192157 0.027451
0.258824 0.188235 0.027451
0.286275 0.192157 0.027451
0.313725 0.192157 0.023529
0.345098 0.192157 0.023529
0.368627 0.196078 0.023529
0.400000 0.196078 0.023529
0.431373 0.192157 0.019608
0.454902 0.196078 0.019608
0.482353 0.196078 0.019608
0.509804 0.196078 0.019608
0.537255 0.196078 0.015686
0.564706 0.196078 0.015686
0.592157 0.192157 0.015686
0.623529 0.192157 0.015686
0.647059 0.192157 0.011765
0.670588 0.192157 0.011765
0.698039 0.192157 0.011765
0.725490 0.188235 0.011765
0.749020 0.188235 0.007843
0.772549 0.188235 0.007843
0.803922 0.188235 0.007843
0.827451 0.188235 0.003922
0.854902 0.184314 0.003922
0.874510 0.184314 0.003922
0.901961 0.184314 0.003922
0.929412 0.184314 0.000000
0.952941 0.180392 0.000000
0.980392 0.180392 0.000000
0.031373 0.223529 0.031373
0.058824 0.223529 0.027451
0.086275 0.219608 0.027451
0.113725 0.219608 0.027451
0.145098 0.219608 0.027451
0.172549 0.219608 0.027451
0.200000 0.219608 0.027451
0.231373 0.219608 0.027451
0.258824 0.219608 0.023529
0.282353 0.215686 0.023529
0.313725 0.219608 0.023529
0.341176 0.219608 0.023529
0.368627 0.223529 0.019608
0.396078 0.223529 0.019608
0.427451 0.223529 0.019608
0.454902 0.227451 0.019608
0.478431 0.223529 0.015686
0.505882 0.223529 0.015686
0.537255 0.223529 0.015686
0.560784 0.223529 0.015686
0.588235 0.223529 0.011765
0.619608 0.219608 0.011765
0.647059 0.219608 0.011765
0.666667 0.219608 0.007843
0.694118 0.219608 0.007843
0.721569 0.219608 0.007843
0.749020 0.215686 0.007843
0.768627 0.215686 0.003922
0.800000 0.215686 0.003922
0.823529 0.215686 0.003922
0.850980 0.215686 0.000000
0.874510 0.211765 0.000000
0.901961 0.211765 0.000000
0.929412 0.211765 0.000000
0.949020 0.211765 0.000000
0.976471 0.207843 0.000000
0.027451 0.247059 0.027451
0.058824 0.247059 0.027451
0.082353 0.247059 0.027451
0.113725 0.243137 0.027451
0.141176 0.243137 0.027451
0.172549 0.243137 0.023529
0.196078 0.243137 0.023529
0.231373 0.243137 0.023529
0.254902 0.243137 0.023529
0.282353 0.243137 0.023529
0.309804 0.243137 0.019608
0.341176 0.243137 0.019608
0.364706 0.247059 0.019608
0.396078 0.247059 0.019608
0.427451 0.247059 0.015686
0.450980 0.250980 0.015686
0.478431 0.250980 0.015686
0.505882 0.247059 0.015686
0.533333 0.247059 0.011765
0.560784 0.247059 0.011765
0.588235 0.247059 0.011765
0.615686 0.247059 0.007843
0.643137 0.243137 0.007843
0.666667 0.243137 0.007843
0.694118 0.243137 0.007843
0.717647 0.243137 0.003922
0.745098 0.243137 0.003922
0.768627 0.243137 0.003922
0.800000 0.239216 0.000000
0.823529 0.239216 0.000000
0.847059 0.239216 0.000000
0.870588 0.239216 0.000000
0.898039 0.235294 0.000000
0.925490 0.235294 0.000000
0.949020 0.235294 0.000000
0.976471 0.235294 0.000000
0.027451 0.270588 0.027451
0.054902 0.270588 0.023529
0.082353 0.270588 0.023529
0.109804 0.270588 0.023529
0.141176 0.266667 0.023529
0.168627 0.266667 0.023529
0.196078 0.266667 0.023529
0.227451 0.266667 0.023529
0.254902 0.266667 0.019608
0.278431 0.266667 0.019608
0.309804 0.270588 0.019608
0.337255 0.270588 0.019608
0.364706 0.270588 0.019608
0.396078 0.270588 0.015686
0.423529 0.270588 0.015686
0.450980 0.274510 0.015686
0.474510 0.274510 0.011765
0.501961 0.274510 0.011765
0.533333 0.270588 0.011765
0.556863 0.270588 0.011765
0.584314 0.270588 0.007843
0.615686 0.270588 0.007843
0.643137 0.270588 0.007843
0.662745 0.270588 0.003922
0.690196 0.266667 0.003922
0.717647 0.266667 0.003922
0.745098 0.266667 0.000000
0.764706 0.266667 0.000000
0.796078 0.262745 0.000000
0.819608 0.262745 0.000000
0.847059 0.262745 0.000000
0.870588 0.262745 0.000000
0.894118 0.262745 0.000000
0.921569 0.258824 0.000000
0.945098 0.258824 0.000000
0.972549 0.258824 0.000000
0.023529 0.298039 0.023529
0.054902 0.298039 0.023529
0.078431 0.298039 0.023529
0.109804 0.298039 0.023529
0.137255 0.298039 0.023529
0.168627 0.294118 0.019608
0.192157 0.290196 0.019608
0.227451 0.290196 0.019608
0.250980 0.290196 0.019608
0.278431 0.290196 0.019608
0.305882 0.294118 0.019608
0.337255 0.294118 0.015686
0.360784 0.294118 0.015686
0.392157 0.294118 0.015686
0.423529 0.294118 0.011765
0.447059 0.298039 0.011765
0.474510 0.298039 0.011765
0.501961 0.298039 0.011765
0.529412 0.298039 0.007843
0.556863 0.294118 0.007843
0.584314 0.294118 0.007843
0.611765 0.294118 0.003922
0.639216 0.294118 0.003922
0.662745 0.294118 0.003922
0.686275 0.294118 0.003922
0.713725 0.290196 0.000000
0.741176 0.290196 0.000000
0.764706 0.290196 0.000000
0.796078 0.290196 0.000000
0.815686 0.290196 0.000000
0.843137 0.286275 0.000000
0.866667 0.286275 0.000000
0.894118 0.286275 0.000000
0.921569 0.286275 0.000000
0.941176 0.282353 0.000000
0.968627 0.282353 0.000000
0.019608 0.333333 0.019608
0.050980 0.329412 0.019608
0.074510 0.329412 0.019608
0.105882 0.329412 0.019608
0.137255 0.329412 0.019608
0.164706 0.329412 0.019608
0.192157 0.329412 0.019608
0.223529 0.325490 0.015686
0.250980 0.325490 0.015686
0.274510 0.325490 0.015686
0.305882 0.325490 0.015686
0.333333 0.325490 0.015686
0.360784 0.325490 0.011765
0.388235 0.329412 0.011765
0.419608 0.325490 0.011765
0.447059 0.329412 0.011765
0.470588 0.329412 0.007843
0.498039 0.329412 0.007843
0.529412 0.329412 0.007843
0.552941 0.329412 0.003922
0.580392 0.329412 0.003922
0.611765 0.325490 0.003922
0.635294 0.325490 0.000000
0.658824 0.325490 0.000000
0.686275 0.325490 0.000000
0.713725 0.325490 0.000000
0.737255 0.321569 0.000000
0.760784 0.321569 0.000000
0.792157 0.321569 0.000000
0.815686 0.321569 0.000000
0.839216 0.321569 0.000000
0.862745 0.317647 0.000000
0.890196 0.317647 0.000000
0.917647 0.317647 0.000000
0.941176 0.317647 0.000000
0.968627 0.317647 0.000000
0.019608 0.352941 0.019608
0.050980 0.352941 0.019608
0.074510 0.349020 0.019608
0.105882 0.349020 0.019608
0.133333 0.349020 0.015686
0.164706 0.349020 0.015686
0.188235 0.349020 0.015686
0.223529 0.349020 0.015686
0.247059 0.349020 0.015686
0.274510 0.345098 0.015686
0.301961 0.345098 0.011765
0.333333 0.345098 0.011765
0.356863 0.345098 0.011765
0.388235 0.349020 0.011765
0.419608 0.349020 0.007843
0.443137 0.349020 0.007843
0.470588 0.349020 0.007843
0.494118 0.349020 0.007843
0.525490 0.349020 0.003922
0.552941 0.349020 0.003922
0.576471 0.349020 0.003922
0.607843 0.349020 0.000000
0.635294 0.345098 0.000000
0.658824 0.345098 0.000000
0.682353 0.345098 0.000000
0.709804 0.345098 0.000000
0.737255 0.345098 0.000000
0.756863 0.341176 0.000000
0.788235 0.341176 0.000000
0.811765 0.341176 0.000000
0.839216 0.341176 0.000000
0.862745 0.341176 0.000000
0.886275 0.337255 0.000000
0.913725 0.337255 0.000000
0.937255 0.337255 0.000000
0.964706 0.337255 0.000000
0.015686 0.380392 0.015686
0.047059 0.380392 0.015686
0.070588 0.380392 0.015686
0.101961 0.372549 0.015686
0.133333 0.372549 0.015686
0.160784 0.372549 0.015686
0.188235 0.372549 0.011765
0.219608 0.372549 0.011765
0.247059 0.372549 0.011765
0.270588 0.372549 0.011765
0.301961 0.368627 0.011765
0.333333 0.368627 0.011765
0.356863 0.368627 0.011765
0.388235 0.372549 0.007843
0.415686 0.372549 0.007843
0.443137 0.372549 0.007843
0.466667 0.376471 0.003922
0.494118 0.372549 0.003922
0.525490 0.372549 0.003922
0.549020 0.372549 0.000000
0.576471 0.372549 0.000000
0.607843 0.372549 0.000000
0.631373 0.372549 0.000000
0.654902 0.368627 0.000000
0.682353 0.368627 0.000000
0.705882 0.368627 0.000000
0.733333 0.368627 0.000000
0.756863 0.368627 0.000000
0.788235 0.364706 0.000000
0.807843 0.364706 0.000000
0.835294 0.364706 0.000000
0.858824 0.364706 0.000000
0.886275 0.364706 0.000000
0.913725 0.360784 0.000000
0.933333 0.360784 0.000000
0.960784 0.360784 0.000000
0.015686 0.407843 0.015686
0.043137 0.407843 0.015686
0.070588 0.407843 0.011765
0.098039 0.407843 0.011765
0.129412 0.407843 0.011765
0.160784 0.403922 0.011765
0.184314 0.403922 0.011765
0.219608 0.403922 0.011765
0.243137 0.403922 0.007843
0.270588 0.403922 0.007843
0.298039 0.403922 0.007843
0.329412 0.403922 0.007843
0.356863 0.400000 0.007843
0.384314 0.400000 0.007843
0.415686 0.400000 0.003922
0.439216 0.400000 0.003922
0.466667 0.403922 0.003922
0.490196 0.403922 0.003922
0.521569 0.400000 0.000000
0.549020 0.400000 0.000000
0.572549 0.400000 0.000000
0.603922 0.400000 0.000000
0.631373 0.400000 0.000000
0.650980 0.400000 0.000000
0.678431 0.396078 0.000000
0.705882 0.396078 0.000000
0.733333 0.396078 0.000000
0.752941 0.396078 0.000000
0.784314 0.396078 0.000000
0.807843 0.396078 0.000000
0.835294 0.392157 0.000000
0.854902 0.392157 0.000000
0.882353 0.392157 0.000000
0.909804 0.392157 0.000000
0.933333 0.392157 0.000000
0.960784 0.388235 0.000000
0.011765 0.431373 0.011765
0.043137 0.431373 0.011765
0.066667 0.431373 0.011765
0.098039 0.431373 0.011765
0.125490 0.431373 0.011765
0.156863 0.431373 0.007843
0.184314 0.431373 0.007843
0.215686 0.427451 0.007843
0.243137 0.427451 0.007843
0.266667 0.427451 0.007843
0.298039 0.427451 0.007843
0.329412 0.427451 0.003922
0.352941 0.427451 0.003922
0.384314 0.423529 0.003922
0.411765 0.423529 0.003922
0.439216 0.423529 0.003922
0.462745 0.427451 0.000000
0.490196 0.427451 0.000000
0.521569 0.427451 0.000000
0.545098 0.427451 0.000000
0.572549 0.423529 0.000000
0.603922 0.423529 0.000000
0.627451 0.423529 0.000000
0.650980 0.423529 0.000000
0.678431 0.423529 0.000000
0.701961 0.423529 0.000000
0.729412 0.419608 0.000000
0.752941 0.419608 0.000000
0.784314 0.419608 0.000000
0.803922 0.419608 0.000000
0.831373 0.419608 0.000000
0.854902 0.415686 0.000000
0.882353 0.415686 0.000000
0.905882 0.415686 0.000000
0.929412 0.415686 0.000000
0.956863 0.415686 0.000000
0.011765 0.458824 0.011765
0.039216 0.450980 0.007843
0.066667 0.450980 0.007843
0.094118 0.450980 0.007843
0.125490 0.450980 0.007843
0.156863 0.450980 0.007843
0.180392 0.450980 0.007843
0.215686 0.447059 0.007843
0.239216 0.447059 0.003922
0.266667 0.447059 0.003922
0.294118 0.447059 0.003922
0.325490 0.447059 0.003922
0.352941 0.447059 0.003922
0.380392 0.447059 0.003922
0.411765 0.443137 0.000000
0.435294 0.443137 0.000000
0.462745 0.447059 0.000000
0.490196 0.447059 0.000000
0.517647 0.447059 0.000000
0.545098 0.447059 0.000000
0.568627 0.447059 0.000000
0.600000 0.443137 0.000000
0.627451 0.443137 0.000000
0.647059 0.443137 0.000000
0.674510 0.443137 0.000000
0.701961 0.443137 0.000000
0.729412 0.443137 0.000000
0.749020 0.439216 0.000000
0.780392 0.439216 0.000000
0.803922 0.439216 0.000000
0.831373 0.439216 0.000000
0.850980 0.439216 0.000000
0.878431 0.435294 0.000000
0.905882 0.435294 0.000000
0.929412 0.435294 0.000000
0.952941 0.435294 0.000000
0.007843 0.482353 0.007843
0.039216 0.482353 0.007843
0.062745 0.482353 0.007843
0.094118 0.478431 0.007843
0.121569 0.478431 0.003922
0.152941 0.478431 0.003922
0.180392 0.478431 0.003922
0.211765 0.478431 0.003922
0.239216 0.478431 0.003922
0.262745 0.474510 0.003922
0.294118 0.474510 0.000000
0.325490 0.474510 0.000000
0.349020 0.474510 0.000000
0.380392 0.474510 0.000000
0.407843 0.474510 0.000000
0.435294 0.470588 0.000000
0.458824 0.470588 0.000000
0.486275 0.470588 0.000000
0.517647 0.470588 0.000000
0.541176 0.470588 0.000000
0.568627 0.470588 0.000000
0.600000 0.470588 0.000000
0.623529 0.466667 0.000000
0.647059 0.466667 0.000000
0.674510 0.466667 0.000000
0.698039 0.466667 0.000000
0.725490 0.466667 0.000000
0.749020 0.466667 0.000000
0.776471 0.462745 0.000000
0.800000 0.462745 0.000000
0.827451 0.462745 0.000000
0.850980 0.462745 0.000000
0.874510 0.462745 0.000000
0.901961 0.458824 0.000000
0.925490 0.458824 0.000000
0.952941 0.458824 0.000000
0.003922 0.505882 0.003922
0.035294 0.505882 0.003922
0.062745 0.505882 0.003922
0.090196 0.505882 0.003922
0.121569 0.501961 0.003922
0.149020 0.501961 0.003922
0.176471 0.501961 0.000000
0.211765 0.501961 0.000000
0.235294 0.501961 0.000000
0.262745 0.501961 0.000000
0.290196 0.498039 0.000000
0.321569 0.498039 0.000000
0.349020 0.498039 0.000000
0.376471 0.498039 0.000000
0.407843 0.498039 0.000000
0.431373 0.498039 0.000000
0.458824 0.498039 0.000000
0.486275 0.494118 0.000000
0.513725 0.494118 0.000000
0.541176 0.494118 0.000000
0.564706 0.494118 0.000000
0.596078 0.494118 0.000000
0.623529 0.494118 0.000000
0.643137 0.490196 0.000000
0.670588 0.490196 0.000000
0.698039 0.490196 0.000000
0.721569 0.490196 0.000000
0.745098 0.490196 0.000000
0.776471 0.490196 0.000000
0.800000 0.486275 0.000000
0.823529 0.486275 0.000000
0.847059 0.486275 0.000000
0.874510 0.486275 0.000000
0.901961 0.486275 0.000000
0.921569 0.486275 0.000000
0.949020 0.482353 0.000000
0.003922 0.533333 0.003922
0.031373 0.533333 0.000000
0.058824 0.533333 0.000000
0.086275 0.533333 0.000000
0.117647 0.533333 0.000000
0.149020 0.533333 0.000000
0.172549 0.529412 0.000000
0.207843 0.529412 0.000000
0.235294 0.529412 0.000000
0.258824 0.529412 0.000000
0.290196 0.529412 0.000000
0.317647 0.529412 0.000000
0.345098 0.525490 0.000000
0.376471 0.525490 0.000000
0.403922 0.525490 0.000000
0.431373 0.525490 0.000000
0.454902 0.525490 0.000000
0.482353 0.525490 0.000000
0.513725 0.521569 0.000000
0.537255 0.521569 0.000000
0.564706 0.521569 0.000000
0.592157 0.521569 0.000000
0.619608 0.521569 0.000000
0.643137 0.521569 0.000000
0.666667 0.521569 0.000000
0.694118 0.517647 0.000000
0.721569 0.517647 0.000000
0.741176 0.517647 0.000000
0.772549 0.517647 0.000000
0.796078 0.517647 0.000000
0.823529 0.517647 0.000000
0.843137 0.513725 0.000000
0.870588 0.513725 0.000000
0.898039 0.513725 0.000000
0.921569 0.513725 0.000000
0.945098 0.513725 0.000000
0.000000 0.560784 0.000000
0.031373 0.560784 0.000000
0.054902 0.556863 0.000000
0.086275 0.556863 0.000000
0.113725 0.556863 0.000000
0.145098 0.556863 0.000000
0.172549 0.556863 0.000000
0.203922 0.552941 0.000000
0.231373 0.552941 0.000000
0.258824 0.552941 0.000000
0.286275 0.552941 0.000000
0.317647 0.552941 0.000000
0.341176 0.552941 0.000000
0.372549 0.549020 0.000000
0.403922 0.549020 0.000000
0.427451 0.549020 0.000000
0.454902 0.549020 0.000000
0.478431 0.549020 0.000000
0.509804 0.549020 0.000000
0.537255 0.549020 0.000000
0.560784 0.545098 0.000000
0.592157 0.545098 0.000000
0.619608 0.545098 0.000000
0.639216 0.545098 0.000000
0.666667 0.545098 0.000000
0.690196 0.545098 0.000000
0.717647 0.541176 0.000000
0.741176 0.541176 0.000000
0.772549 0.541176 0.000000
0.792157 0.541176 0.000000
0.819608 0.541176 0.000000
0.843137 0.541176 0.000000
0.866667 0.537255 0.000000
0.894118 0.537255 0.000000
0.917647 0.537255 0.000000
0.945098 0.537255 0.000000
0.000000 0.584314 0.000000
0.027451 0.584314 0.000000
0.054902 0.584314 0.000000
0.082353 0.580392 0.000000
0.113725 0.580392 0.000000
0.145098 0.580392 0.000000
0.168627 0.580392 0.000000
0.203922 0.580392 0.000000
0.227451 0.580392 0.000000
0.254902 0.576471 0.000000
0.286275 0.576471 0.000000
0.313725 0.576471 0.000000
0.341176 0.576471 0.000000
0.372549 0.576471 0.000000
0.400000 0.576471 0.000000
0.427451 0.572549 0.000000
0.450980 0.572549 0.000000
0.478431 0.572549 0.000000
0.509804 0.572549 0.000000
0.533333 0.572549 0.000000
0.560784 0.572549 0.000000
0.588235 0.568627 0.000000
0.615686 0.568627 0.000000
0.639216 0.568627 0.000000
0.662745 0.568627 0.000000
0.690196 0.568627 0.000000
0.717647 0.568627 0.000000
0.737255 0.568627 0.000000
0.768627 0.564706 0.000000
0.792157 0.564706 0.000000
0.815686 0.564706 0.000000
0.839216 0.564706 0.000000
0.866667 0.564706 0.000000
0.894118 0.560784 0.000000
0.913725 0.560784 0.000000
0.941176 0.560784 0.000000
0.000000 0.603922 0.000000
0.023529 0.603922 0.000000
0.050980 0.603922 0.000000
0.082353 0.603922 0.000000
0.109804 0.603922 0.000000
0.141176 0.600000 0.000000
0.168627 0.600000 0.000000
0.200000 0.600000 0.000000
0.227451 0.600000 0.000000
0.250980 0.600000 0.000000
0.282353 0.596078 0.000000
0.313725 0.596078 0.000000
0.337255 0.596078 0.000000
0.368627 0.596078 0.000000
0.400000 0.596078 0.000000
0.423529 0.596078 0.000000
0.450980 0.592157 0.000000
0.474510 0.592157 0.000000
0.505882 0.592157 0.000000
0.533333 0.592157 0.000000
0.556863 0.592157 0.000000
0.588235 0.592157 0.000000
0.615686 0.588235 0.000000
0.635294 0.588235 0.000000
0.662745 0.588235 0.000000
0.686275 0.588235 0.000000
0.713725 0.588235 0.000000
0.737255 0.588235 0.000000
0.768627 0.588235 0.000000
0.788235 0.584314 0.000000
0.815686 0.584314 0.000000
0.839216 0.584314 0.000000
0.862745 0.584314 0.000000
0.890196 0.584314 0.000000
0.913725 0.584314 0.000000
0.941176 0.580392 0.000000
0.000000 0.623529 0.000000
0.023529 0.623529 0.000000
0.047059 0.623529 0.000000
0.078431 0.623529 0.000000
0.109804 0.623529 0.000000
0.137255 0.623529 0.000000
0.164706 0.619608 0.000000
0.200000 0.619608 0.000000
0.223529 0.619608 0.000000
0.250980 0.619608 0.000000
0.282353 0.619608 0.000000
0.309804 0.615686 0.000000
0.337255 0.615686 0.000000
0.368627 0.615686 0.000000
0.396078 0.615686 0.000000
0.423529 0.615686 0.000000
0.447059 0.615686 0.000000
0.474510 0.611765 0.000000
0.505882 0.611765 0.000000
0.529412 0.611765 0.000000
0.556863 0.611765 0.000000
0.588235 0.611765 0.000000
0.611765 0.611765 0.000000
0.635294 0.611765 0.000000
0.658824 0.607843 0.000000
0.686275 0.607843 0.000000
0.713725 0.607843 0.000000
0.733333 0.607843 0.000000
0.764706 0.607843 0.000000
0.788235 0.607843 0.000000
0.811765 0.603922 0.000000
0.835294 0.603922 0.000000
0.862745 0.603922 0.000000
0.890196 0.603922 0.000000
0.909804 0.603922 0.000000
0.937255 0.603922 0.000000
0.000000 0.650980 0.000000
0.019608 0.650980 0.000000
0.047059 0.647059 0.000000
0.074510 0.647059 0.000000
0.105882 0.647059 0.000000
0.137255 0.647059 0.000000
0.160784 0.647059 0.000000
0.196078 0.643137 0.000000
0.223529 0.643137 0.000000
0.247059 0.643137 0.000000
0.278431 0.643137 0.000000
0.309804 0.643137 0.000000
0.333333 0.643137 0.000000
0.364706 0.639216 0.000000
0.396078 0.639216 0.000000
0.419608 0.639216 0.000000
0.447059 0.639216 0.000000
0.470588 0.639216 0.000000
0.501961 0.639216 0.000000
0.529412 0.635294 0.000000
0.552941 0.635294 0.000000
0.584314 0.635294 0.000000
0.611765 0.635294 0.000000
