luts/full/honey.cube
TITLE "honey (full)"
LUT_3D_SIZE 6
0.043137 0.043137 0.043137
0.243137 0.043137 0.039216
0.443137 0.047059 0.031373
0.635294 0.043137 0.027451
0.819608 0.035294 0.019608
0.996078 0.031373 0.015686
0.031373 0.223529 0.031373
0.231373 0.219608 0.027451
0.427451 0.223529 0.019608
0.619608 0.219608 0.011765
0.800000 0.215686 0.003922
0.976471 0.207843 0.000000
0.015686 0.407843 0.015686
0.219608 0.403922 0.011765
0.415686 0.400000 0.003922
0.603922 0.400000 0.000000
0.784314 0.396078 0.000000
0.960784 0.388235 0.000000
0.000000 0.584314 0.000000
0.203922 0.580392 0.000000
0.400000 0.576471 0.000000
0.588235 0.568627 0.000000
0.768627 0.564706 0.000000
0.941176 0.560784 0.000000
0.000000 0.745098 0.000000
0.184314 0.741176 0.000000
0.384314 0.733333 0.000000
0.576471 0.729412 0.000000
0.752941 0.725490 0.000000
0.925490 0.721569 0.000000
0.000000 0.898039 0.000000
0.168627 0.894118 0.000000
0.368627 0.886275 0.000000
0.560784 0.882353 0.000000
0.741176 0.874510 0.000000
0.909804 0.870588 0.000000
0.039216 0.043137 0.219608
0.243137 0.039216 0.215686
0.439216 0.047059 0.215686
0.635294 0.043137 0.211765
0.815686 0.035294 0.207843
0.996078 0.027451 0.200000
0.027451 0.219608 0.207843
0.231373 0.223529 0.203922
0.423529 0.223529 0.200000
0.615686 0.219608 0.196078
0.796078 0.215686 0.192157
0.968627 0.211765 0.184314
0.011765 0.407843 0.196078
0.219608 0.407843 0.192157
0.411765 0.403922 0.188235
0.600000 0.400000 0.184314
0.780392 0.396078 0.176471
0.952941 0.388235 0.168627
0.000000 0.584314 0.180392
0.203922 0.576471 0.180392
0.400000 0.572549 0.176471
0.588235 0.568627 0.168627
0.764706 0.564706 0.160784
0.937255 0.560784 0.152941
0.000000 0.745098 0.164706
0.188235 0.737255 0.160784
0.388235 0.733333 0.156863
0.576471 0.725490 0.152941
0.752941 0.721569 0.149020
0.921569 0.717647 0.137255
0.000000 0.898039 0.145098
0.172549 0.886275 0.145098
0.368627 0.882353 0.141176
0.560784 0.878431 0.133333
0.737255 0.874510 0.129412
0.905882 0.870588 0.125490
0.039216 0.050980 0.400000
0.243137 0.047059 0.396078
0.439216 0.047059 0.392157
0.631373 0.039216 0.388235
0.815686 0.035294 0.388235
0.992157 0.027451 0.384314
0.027451 0.227451 0.384314
0.231373 0.227451 0.380392
0.423529 0.223529 0.376471
0.611765 0.219608 0.372549
0.792157 0.215686 0.368627
0.968627 0.207843 0.364706
0.011765 0.407843 0.372549
0.219608 0.403922 0.368627
0.411765 0.400000 0.364706
0.596078 0.400000 0.360784
0.772549 0.392157 0.356863
0.945098 0.388235 0.352941
0.000000 0.580392 0.360784
0.203922 0.576471 0.356863
0.400000 0.572549 0.352941
0.584314 0.568627 0.349020
0.760784 0.564706 0.345098
0.929412 0.560784 0.337255
0.000000 0.741176 0.345098
0.188235 0.733333 0.341176
0.388235 0.729412 0.341176
0.576471 0.725490 0.337255
0.749020 0.721569 0.329412
0.917647 0.717647 0.321569
0.000000 0.894118 0.325490
0.172549 0.886275 0.325490
0.372549 0.878431 0.325490
0.560784 0.874510 0.321569
0.737255 0.870588 0.317647
0.905882 0.866667 0.309804
0.035294 0.050980 0.576471
0.243137 0.047059 0.572549
0.439216 0.043137 0.568627
0.631373 0.039216 0.564706
0.811765 0.031373 0.564706
0.992157 0.023529 0.564706
0.023529 0.231373 0.560784
0.227451 0.227451 0.552941
0.423529 0.223529 0.549020
0.611765 0.219608 0.545098
0.792157 0.211765 0.545098
0.964706 0.207843 0.541176
0.007843 0.407843 0.549020
0.215686 0.403922 0.541176
0.411765 0.400000 0.533333
0.596078 0.396078 0.533333
0.772549 0.392157 0.529412
0.945098 0.388235 0.525490
0.000000 0.580392 0.533333
0.203922 0.572549 0.529412
0.400000 0.568627 0.525490
0.584314 0.564706 0.521569
0.756863 0.564706 0.517647
0.925490 0.560784 0.513725
0.000000 0.741176 0.521569
0.188235 0.733333 0.517647
0.388235 0.725490 0.513725
0.576471 0.721569 0.509804
0.749020 0.721569 0.505882
0.913725 0.717647 0.501961
0.000000 0.894118 0.505882
0.168627 0.886275 0.501961
0.372549 0.878431 0.498039
0.560784 0.874510 0.498039
0.737255 0.870588 0.494118
0.901961 0.866667 0.490196
0.035294 0.050980 0.745098
0.243137 0.047059 0.737255
0.443137 0.039216 0.733333
0.631373 0.035294 0.729412
0.811765 0.031373 0.729412
0.988235 0.023529 0.729412
0.019608 0.231373 0.729412
0.227451 0.223529 0.717647
0.423529 0.219608 0.713725
0.611765 0.215686 0.709804
0.788235 0.211765 0.705882
0.964706 0.203922 0.705882
0.003922 0.407843 0.713725
0.211765 0.403922 0.701961
0.407843 0.400000 0.694118
0.596078 0.396078 0.690196
0.772549 0.392157 0.690196
0.941176 0.388235 0.686275
0.000000 0.580392 0.698039
0.200000 0.572549 0.690196
0.396078 0.568627 0.682353
0.584314 0.564706 0.678431
0.756863 0.560784 0.674510
0.925490 0.556863 0.670588
0.000000 0.737255 0.682353
0.184314 0.733333 0.678431
0.384314 0.725490 0.670588
0.572549 0.721569 0.666667
0.745098 0.717647 0.666667
0.909804 0.717647 0.662745
0.000000 0.890196 0.670588
0.168627 0.882353 0.662745
0.372549 0.878431 0.658824
0.560784 0.870588 0.658824
0.737255 0.866667 0.654902
0.901961 0.866667 0.650980
0.035294 0.050980 0.905882
0.243137 0.043137 0.901961
0.443137 0.039216 0.894118
0.635294 0.031373 0.890196
0.811765 0.027451 0.886275
0.988235 0.023529 0.882353
0.015686 0.227451 0.890196
0.227451 0.223529 0.874510
0.423529 0.219608 0.870588
0.615686 0.215686 0.866667
0.792157 0.207843 0.862745
0.960784 0.203922 0.858824
0.000000 0.407843 0.870588
0.211765 0.403922 0.858824
0.407843 0.396078 0.850980
0.596078 0.392157 0.847059
0.772549 0.388235 0.843137
0.941176 0.384314 0.839216
0.000000 0.580392 0.854902
0.196078 0.572549 0.843137
0.396078 0.568627 0.835294
0.584314 0.564706 0.827451
0.756863 0.560784 0.827451
0.921569 0.556863 0.823529
0.000000 0.737255 0.839216
0.180392 0.733333 0.831373
0.384314 0.725490 0.823529
0.572549 0.721569 0.819608
0.745098 0.717647 0.811765
0.909804 0.713725 0.811765
0.000000 0.890196 0.823529
0.164706 0.882353 0.819608
0.368627 0.874510 0.811765
0.560784 0.870588 0.807843
0.737255 0.866667 0.803922
0.898039 0.862745 0.800000
