luts/full/honey.cube
TITLE "honey (full)"
LUT_3D_SIZE 8
0.043137 0.043137 0.043137
0.184314 0.039216 0.039216
0.325490 0.043137 0.035294
0.466667 0.047059 0.031373
0.603922 0.043137 0.027451
0.737255 0.039216 0.023529
0.866667 0.035294 0.019608
0.996078 0.031373 0.015686
0.035294 0.164706 0.035294
0.176471 0.164706 0.031373
0.317647 0.168627 0.027451
0.458824 0.172549 0.023529
0.592157 0.168627 0.015686
0.725490 0.164706 0.011765
0.854902 0.160784 0.007843
0.984314 0.156863 0.000000
0.023529 0.298039 0.023529
0.168627 0.294118 0.019608
0.305882 0.294118 0.019608
0.447059 0.298039 0.011765
0.584314 0.294118 0.007843
0.713725 0.290196 0.000000
0.843137 0.286275 0.000000
0.968627 0.282353 0.000000
0.011765 0.431373 0.011765
0.156863 0.431373 0.007843
0.298039 0.427451 0.007843
0.439216 0.423529 0.003922
0.572549 0.423529 0.000000
0.701961 0.423529 0.000000
0.831373 0.419608 0.000000
0.956863 0.415686 0.000000
0.000000 0.560784 0.000000
0.145098 0.556863 0.000000
0.286275 0.552941 0.000000
0.427451 0.549020 0.000000
0.560784 0.545098 0.000000
0.690196 0.545098 0.000000
0.819608 0.541176 0.000000
0.945098 0.537255 0.000000
0.000000 0.674510 0.000000
0.133333 0.670588 0.000000
0.274510 0.666667 0.000000
0.419608 0.662745 0.000000
0.552941 0.658824 0.000000
0.682353 0.658824 0.000000
0.807843 0.654902 0.000000
0.933333 0.650980 0.000000
0.000000 0.784314 0.000000
0.121569 0.780392 0.000000
0.262745 0.780392 0.000000
0.407843 0.776471 0.000000
0.541176 0.772549 0.000000
0.670588 0.768627 0.000000
0.800000 0.764706 0.000000
0.921569 0.760784 0.000000
0.000000 0.898039 0.000000
0.105882 0.894118 0.000000
0.250980 0.890196 0.000000
0.396078 0.886275 0.000000
0.529412 0.882353 0.000000
0.662745 0.878431 0.000000
0.788235 0.874510 0.000000
0.909804 0.870588 0.000000
0.039216 0.039216 0.164706
0.184314 0.039216 0.160784
0.325490 0.043137 0.160784
0.466667 0.047059 0.156863
0.603922 0.043137 0.152941
0.737255 0.039216 0.152941
0.866667 0.035294 0.149020
0.996078 0.027451 0.145098
0.031373 0.164706 0.156863
0.176471 0.168627 0.152941
0.313725 0.176471 0.152941
0.454902 0.172549 0.149020
0.588235 0.168627 0.145098
0.721569 0.164706 0.141176
0.850980 0.160784 0.137255
0.976471 0.156863 0.133333
0.023529 0.298039 0.149020
0.168627 0.298039 0.145098
0.305882 0.298039 0.145098
0.447059 0.298039 0.141176
0.580392 0.294118 0.133333
0.709804 0.290196 0.129412
0.839216 0.286275 0.125490
0.964706 0.282353 0.121569
0.011765 0.431373 0.137255
0.156863 0.431373 0.137255
0.298039 0.431373 0.133333
0.435294 0.427451 0.129412
0.568627 0.423529 0.125490
0.698039 0.419608 0.117647
0.827451 0.415686 0.113725
0.952941 0.411765 0.105882
0.000000 0.556863 0.125490
0.145098 0.552941 0.125490
0.286275 0.552941 0.121569
0.427451 0.549020 0.117647
0.560784 0.545098 0.113725
0.690196 0.541176 0.109804
0.815686 0.541176 0.101961
0.941176 0.537255 0.094118
0.000000 0.674510 0.113725
0.137255 0.670588 0.113725
0.278431 0.666667 0.109804
0.419608 0.662745 0.105882
0.552941 0.658824 0.101961
0.678431 0.654902 0.098039
0.807843 0.654902 0.094118
0.929412 0.650980 0.086275
0.000000 0.784314 0.101961
0.121569 0.780392 0.101961
0.266667 0.776471 0.098039
0.407843 0.772549 0.094118
0.541176 0.768627 0.090196
0.670588 0.764706 0.086275
0.796078 0.764706 0.082353
0.917647 0.760784 0.074510
0.000000 0.898039 0.086275
0.109804 0.890196 0.086275
0.250980 0.886275 0.082353
0.396078 0.882353 0.078431
0.529412 0.878431 0.074510
0.658824 0.878431 0.074510
0.788235 0.874510 0.070588
0.909804 0.870588 0.062745
0.039216 0.047059 0.294118
0.184314 0.043137 0.290196
0.321569 0.043137 0.290196
0.466667 0.047059 0.286275
0.600000 0.043137 0.286275
0.733333 0.035294 0.282353
0.866667 0.031373 0.282353
0.992157 0.027451 0.278431
0.031373 0.172549 0.286275
0.176471 0.172549 0.282353
0.313725 0.176471 0.278431
0.454902 0.172549 0.278431
0.588235 0.168627 0.274510
0.721569 0.164706 0.270588
0.847059 0.160784 0.266667
0.976471 0.156863 0.266667
0.023529 0.298039 0.278431
0.168627 0.301961 0.274510
0.305882 0.298039 0.270588
0.443137 0.298039 0.266667
0.576471 0.294118 0.266667
0.705882 0.290196 0.262745
0.835294 0.286275 0.258824
0.956863 0.282353 0.254902
0.011765 0.431373 0.266667
0.156863 0.431373 0.266667
0.298039 0.427451 0.262745
0.435294 0.427451 0.258824
0.568627 0.423529 0.254902
0.698039 0.419608 0.250980
0.823529 0.415686 0.247059
0.949020 0.411765 0.243137
0.000000 0.556863 0.254902
0.145098 0.552941 0.254902
0.286275 0.549020 0.254902
0.427451 0.545098 0.250980
0.560784 0.545098 0.247059
0.686275 0.541176 0.243137
0.811765 0.537255 0.235294
0.937255 0.537255 0.231373
0.000000 0.670588 0.247059
0.133333 0.666667 0.243137
0.278431 0.662745 0.243137
0.419608 0.658824 0.239216
0.549020 0.658824 0.239216
0.678431 0.654902 0.235294
0.803922 0.650980 0.227451
0.925490 0.650980 0.219608
0.000000 0.784314 0.235294
0.121569 0.776471 0.231373
0.266667 0.772549 0.231373
0.407843 0.768627 0.227451
0.541176 0.768627 0.227451
0.670588 0.764706 0.223529
0.796078 0.760784 0.219608
0.917647 0.760784 0.211765
0.000000 0.894118 0.219608
0.109804 0.890196 0.219608
0.254902 0.886275 0.219608
0.396078 0.882353 0.215686
0.529412 0.878431 0.211765
0.658824 0.874510 0.211765
0.784314 0.870588 0.207843
0.905882 0.870588 0.200000
0.039216 0.054902 0.419608
0.184314 0.050980 0.419608
0.321569 0.043137 0.415686
0.466667 0.043137 0.411765
0.600000 0.039216 0.411765
0.733333 0.035294 0.411765
0.862745 0.031373 0.407843
0.992157 0.027451 0.407843
0.027451 0.176471 0.411765
0.172549 0.176471 0.407843
0.313725 0.172549 0.403922
0.454902 0.172549 0.400000
0.588235 0.168627 0.400000
0.717647 0.164706 0.400000
0.847059 0.160784 0.396078
0.972549 0.152941 0.392157
0.019608 0.301961 0.403922
0.164706 0.301961 0.396078
0.305882 0.298039 0.396078
0.443137 0.298039 0.392157
0.576471 0.294118 0.388235
0.705882 0.290196 0.388235
0.831373 0.286275 0.384314
0.956863 0.282353 0.380392
0.007843 0.431373 0.392157
0.156863 0.431373 0.388235
0.298039 0.427451 0.388235
0.435294 0.423529 0.384314
0.564706 0.423529 0.380392
0.694118 0.419608 0.376471
0.819608 0.415686 0.376471
0.941176 0.411765 0.372549
0.000000 0.556863 0.384314
0.145098 0.552941 0.380392
0.286275 0.549020 0.376471
0.427451 0.545098 0.376471
0.556863 0.545098 0.372549
0.686275 0.541176 0.368627
0.811765 0.537255 0.364706
0.933333 0.533333 0.360784
0.000000 0.670588 0.372549
0.133333 0.666667 0.368627
0.278431 0.662745 0.368627
0.419608 0.658824 0.368627
0.549020 0.654902 0.364706
0.678431 0.654902 0.360784
0.800000 0.650980 0.356863
0.921569 0.647059 0.352941
0.000000 0.784314 0.360784
0.121569 0.776471 0.360784
0.266667 0.772549 0.360784
0.407843 0.768627 0.356863
0.541176 0.764706 0.352941
0.670588 0.764706 0.352941
0.792157 0.760784 0.349020
0.913725 0.756863 0.341176
0.000000 0.894118 0.349020
0.105882 0.890196 0.349020
0.254902 0.882353 0.349020
0.400000 0.878431 0.345098
0.533333 0.874510 0.345098
0.658824 0.874510 0.341176
0.784314 0.870588 0.337255
0.905882 0.866667 0.333333
0.039216 0.054902 0.549020
0.184314 0.050980 0.545098
0.325490 0.047059 0.545098
0.466667 0.043137 0.541176
0.600000 0.039216 0.537255
0.733333 0.035294 0.537255
0.862745 0.031373 0.537255
0.992157 0.023529 0.537255
0.027451 0.180392 0.541176
0.172549 0.176471 0.533333
0.313725 0.172549 0.529412
0.454902 0.168627 0.525490
0.588235 0.164706 0.525490
0.717647 0.160784 0.525490
0.847059 0.156863 0.521569
0.972549 0.152941 0.521569
0.015686 0.305882 0.529412
0.164706 0.301961 0.525490
0.301961 0.298039 0.517647
0.443137 0.294118 0.517647
0.576471 0.294118 0.513725
0.705882 0.290196 0.513725
0.831373 0.286275 0.509804
0.956863 0.282353 0.509804
0.007843 0.435294 0.517647
0.152941 0.431373 0.513725
0.294118 0.427451 0.509804
0.435294 0.423529 0.505882
0.564706 0.423529 0.505882
0.694118 0.419608 0.501961
0.819608 0.415686 0.501961
0.941176 0.411765 0.498039
0.000000 0.556863 0.509804
0.145098 0.552941 0.505882
0.286275 0.549020 0.501961
0.427451 0.545098 0.498039
0.556863 0.541176 0.498039
0.682353 0.541176 0.494118
0.807843 0.537255 0.490196
0.929412 0.533333 0.490196
0.000000 0.670588 0.498039
0.133333 0.666667 0.498039
0.278431 0.662745 0.494118
0.419608 0.658824 0.490196
0.549020 0.654902 0.490196
0.674510 0.654902 0.486275
0.800000 0.650980 0.482353
0.921569 0.647059 0.478431
0.000000 0.780392 0.490196
0.121569 0.776471 0.486275
0.266667 0.772549 0.486275
0.407843 0.768627 0.482353
0.541176 0.764706 0.482353
0.670588 0.760784 0.478431
0.792157 0.760784 0.474510
0.909804 0.756863 0.470588
0.000000 0.894118 0.478431
0.105882 0.886275 0.474510
0.254902 0.882353 0.474510
0.400000 0.878431 0.474510
0.533333 0.874510 0.470588
0.658824 0.870588 0.470588
0.784314 0.870588 0.466667
0.901961 0.866667 0.462745
0.035294 0.050980 0.670588
0.184314 0.047059 0.666667
0.325490 0.043137 0.662745
0.466667 0.043137 0.662745
0.600000 0.039216 0.658824
0.733333 0.035294 0.654902
0.862745 0.027451 0.658824
0.988235 0.023529 0.654902
0.023529 0.176471 0.658824
0.172549 0.172549 0.654902
0.313725 0.172549 0.650980
0.454902 0.168627 0.647059
0.588235 0.164706 0.643137
0.717647 0.160784 0.643137
0.847059 0.156863 0.643137
0.972549 0.152941 0.643137
0.015686 0.301961 0.650980
0.160784 0.301961 0.643137
0.301961 0.298039 0.635294
0.443137 0.294118 0.635294
0.576471 0.290196 0.631373
0.701961 0.290196 0.631373
0.831373 0.286275 0.627451
0.956863 0.278431 0.627451
0.003922 0.435294 0.639216
0.152941 0.431373 0.631373
0.294118 0.427451 0.627451
0.435294 0.423529 0.623529
0.564706 0.419608 0.619608
0.690196 0.419608 0.619608
0.815686 0.415686 0.615686
0.941176 0.411765 0.615686
0.000000 0.556863 0.627451
0.141176 0.552941 0.623529
0.286275 0.549020 0.619608
0.427451 0.545098 0.615686
0.556863 0.541176 0.611765
0.682353 0.541176 0.607843
0.807843 0.537255 0.607843
0.925490 0.533333 0.603922
0.000000 0.670588 0.619608
0.133333 0.666667 0.615686
0.274510 0.658824 0.611765
0.419608 0.658824 0.607843
0.549020 0.654902 0.603922
0.674510 0.650980 0.603922
0.796078 0.650980 0.600000
0.917647 0.647059 0.596078
0.000000 0.780392 0.607843
0.117647 0.776471 0.603922
0.266667 0.772549 0.603922
0.407843 0.768627 0.600000
0.541176 0.764706 0.596078
0.666667 0.760784 0.596078
0.792157 0.760784 0.592157
0.909804 0.756863 0.588235
0.000000 0.890196 0.600000
0.105882 0.886275 0.596078
0.254902 0.882353 0.592157
0.400000 0.878431 0.592157
0.533333 0.874510 0.588235
0.658824 0.870588 0.588235
0.784314 0.866667 0.584314
0.901961 0.866667 0.580392
0.035294 0.050980 0.784314
0.180392 0.047059 0.780392
0.325490 0.043137 0.776471
0.466667 0.039216 0.776471
0.603922 0.035294 0.772549
0.733333 0.031373 0.768627
0.862745 0.027451 0.768627
0.988235 0.023529 0.768627
0.023529 0.176471 0.772549
0.172549 0.172549 0.764706
0.313725 0.168627 0.760784
0.454902 0.164706 0.756863
0.588235 0.164706 0.756863
0.717647 0.160784 0.752941
0.843137 0.156863 0.752941
0.972549 0.152941 0.752941
0.011765 0.301961 0.760784
0.160784 0.298039 0.752941
0.301961 0.298039 0.749020
0.443137 0.294118 0.745098
0.576471 0.290196 0.741176
0.701961 0.286275 0.737255
0.831373 0.282353 0.737255
0.952941 0.278431 0.737255
0.000000 0.431373 0.749020
0.149020 0.427451 0.745098
0.294118 0.427451 0.737255
0.431373 0.423529 0.733333
0.564706 0.419608 0.729412
0.690196 0.415686 0.725490
0.815686 0.415686 0.725490
0.937255 0.411765 0.725490
0.000000 0.556863 0.741176
0.137255 0.549020 0.733333
0.282353 0.545098 0.729412
0.423529 0.545098 0.721569
0.556863 0.541176 0.717647
0.682353 0.537255 0.717647
0.803922 0.537255 0.713725
0.925490 0.533333 0.713725
0.000000 0.670588 0.729412
0.129412 0.662745 0.725490
0.274510 0.658824 0.717647
0.415686 0.654902 0.713725
0.549020 0.654902 0.709804
0.674510 0.650980 0.709804
0.796078 0.650980 0.705882
0.917647 0.647059 0.705882
0.000000 0.780392 0.717647
0.117647 0.772549 0.713725
0.262745 0.768627 0.709804
0.407843 0.764706 0.705882
0.541176 0.764706 0.705882
0.666667 0.760784 0.701961
0.788235 0.756863 0.698039
0.905882 0.756863 0.698039
0.000000 0.890196 0.709804
0.105882 0.886275 0.705882
0.250980 0.878431 0.701961
0.396078 0.874510 0.698039
0.533333 0.870588 0.698039
0.658824 0.870588 0.694118
0.784314 0.866667 0.694118
0.901961 0.866667 0.690196
0.035294 0.050980 0.905882
0.180392 0.043137 0.901961
0.325490 0.043137 0.898039
0.470588 0.039216 0.894118
0.603922 0.035294 0.890196
0.733333 0.031373 0.886275
0.862745 0.027451 0.882353
0.988235 0.023529 0.882353
0.019608 0.176471 0.894118
0.168627 0.172549 0.882353
0.313725 0.168627 0.878431
0.454902 0.164706 0.878431
0.588235 0.160784 0.874510
0.717647 0.156863 0.870588
0.843137 0.152941 0.866667
0.968627 0.149020 0.866667
0.007843 0.301961 0.882353
0.156863 0.298039 0.870588
0.301961 0.294118 0.862745
0.443137 0.290196 0.862745
0.576471 0.290196 0.858824
0.705882 0.286275 0.854902
0.831373 0.282353 0.850980
0.952941 0.278431 0.850980
0.000000 0.431373 0.870588
0.145098 0.427451 0.858824
0.290196 0.423529 0.850980
0.431373 0.423529 0.847059
0.564706 0.419608 0.843137
0.694118 0.415686 0.839216
0.815686 0.411765 0.839216
0.937255 0.407843 0.839216
0.000000 0.552941 0.858824
0.137255 0.549020 0.850980
0.278431 0.545098 0.843137
0.423529 0.541176 0.835294
0.556863 0.541176 0.831373
0.682353 0.537255 0.827451
0.803922 0.537255 0.827451
0.925490 0.533333 0.827451
0.000000 0.670588 0.847059
0.125490 0.662745 0.839216
0.270588 0.658824 0.831373
0.415686 0.654902 0.827451
0.549020 0.654902 0.823529
0.674510 0.650980 0.819608
0.796078 0.647059 0.815686
0.913725 0.647059 0.815686
0.000000 0.780392 0.835294
0.113725 0.772549 0.827451
0.262745 0.768627 0.823529
0.407843 0.764706 0.819608
0.541176 0.760784 0.815686
0.666667 0.760784 0.811765
0.788235 0.756863 0.811765
0.905882 0.756863 0.807843
0.000000 0.890196 0.823529
0.101961 0.886275 0.819608
0.250980 0.878431 0.815686
0.396078 0.874510 0.811765
0.529412 0.870588 0.807843
0.658824 0.866667 0.803922
0.780392 0.866667 0.803922
0.898039 0.862745 0.800000
