luts/full/linen.cube
TITLE "linen (full)"
LUT_3D_SIZE 36
0.019608 0.031373 0.019608
0.050980 0.031373 0.019608
0.078431 0.035294 0.023529
0.105882 0.035294 0.023529
0.133333 0.035294 0.023529
0.152941 0.039216 0.027451
0.176471 0.039216 0.015686
0.211765 0.035294 0.015686
0.235294 0.039216 0.015686
0.262745 0.043137 0.019608
0.290196 0.043137 0.019608
0.313725 0.039216 0.015686
0.333333 0.043137 0.015686
0.360784 0.043137 0.027451
0.384314 0.039216 0.023529
0.407843 0.043137 0.023529
0.435294 0.043137 0.031373
0.450980 0.043137 0.031373
0.478431 0.043137 0.031373
0.501961 0.043137 0.027451
0.513725 0.043137 0.023529
0.537255 0.039216 0.027451
0.552941 0.039216 0.027451
0.584314 0.039216 0.027451
0.596078 0.035294 0.027451
0.615686 0.039216 0.027451
0.627451 0.039216 0.031373
0.647059 0.031373 0.023529
0.666667 0.035294 0.027451
0.682353 0.031373 0.027451
0.698039 0.027451 0.023529
0.717647 0.031373 0.031373
0.737255 0.031373 0.027451
0.749020 0.035294 0.023529
0.764706 0.031373 0.031373
0.776471 0.035294 0.035294
0.027451 0.058824 0.023529
0.047059 0.062745 0.023529
0.070588 0.058824 0.019608
0.098039 0.062745 0.019608
0.133333 0.058824 0.023529
0.160784 0.062745 0.015686
0.184314 0.066667 0.015686
0.211765 0.066667 0.019608
0.235294 0.062745 0.015686
0.262745 0.066667 0.015686
0.286275 0.070588 0.015686
0.313725 0.070588 0.027451
0.337255 0.066667 0.023529
0.364706 0.066667 0.023529
0.392157 0.066667 0.023529
0.411765 0.070588 0.027451
0.431373 0.070588 0.023529
0.447059 0.070588 0.027451
0.474510 0.070588 0.027451
0.501961 0.070588 0.031373
0.521569 0.062745 0.023529
0.537255 0.070588 0.023529
0.560784 0.066667 0.027451
0.576471 0.066667 0.023529
0.596078 0.066667 0.027451
0.619608 0.062745 0.027451
0.635294 0.062745 0.023529
0.647059 0.062745 0.027451
0.662745 0.062745 0.023529
0.678431 0.058824 0.027451
0.698039 0.058824 0.023529
0.713725 0.058824 0.031373
0.733333 0.054902 0.035294
0.749020 0.054902 0.031373
0.760784 0.058824 0.035294
0.776471 0.058824 0.031373
0.027451 0.082353 0.019608
0.054902 0.082353 0.019608
0.074510 0.082353 0.019608
0.101961 0.086275 0.019608
0.129412 0.086275 0.019608
0.156863 0.086275 0.019608
0.184314 0.086275 0.023529
0.211765 0.090196 0.023529
0.235294 0.086275 0.019608
0.262745 0.086275 0.023529
0.290196 0.086275 0.031373
0.313725 0.094118 0.023529
0.337255 0.086275 0.027451
0.364706 0.090196 0.031373
0.392157 0.090196 0.031373
0.415686 0.094118 0.031373
0.431373 0.094118 0.027451
0.447059 0.094118 0.027451
0.474510 0.094118 0.027451
0.505882 0.094118 0.027451
0.517647 0.090196 0.027451
0.545098 0.090196 0.027451
0.560784 0.090196 0.027451
0.580392 0.086275 0.031373
0.596078 0.086275 0.027451
0.619608 0.086275 0.023529
0.631373 0.086275 0.027451
0.654902 0.082353 0.023529
0.662745 0.082353 0.031373
0.682353 0.082353 0.035294
0.698039 0.078431 0.039216
0.713725 0.078431 0.035294
0.733333 0.078431 0.031373
0.749020 0.078431 0.035294
0.768627 0.078431 0.031373
0.776471 0.082353 0.031373
0.023529 0.109804 0.019608
0.050980 0.109804 0.019608
0.078431 0.109804 0.019608
0.101961 0.117647 0.019608
0.133333 0.113725 0.023529
0.160784 0.113725 0.023529
0.184314 0.109804 0.019608
0.207843 0.113725 0.023529
0.235294 0.113725 0.031373
0.262745 0.117647 0.031373
0.290196 0.117647 0.031373
0.313725 0.113725 0.023529
0.337255 0.117647 0.031373
0.364706 0.117647 0.031373
0.392157 0.121569 0.027451
0.415686 0.117647 0.031373
0.435294 0.121569 0.031373
0.454902 0.121569 0.027451
0.482353 0.121569 0.027451
0.498039 0.121569 0.027451
0.521569 0.117647 0.031373
0.549020 0.117647 0.031373
0.564706 0.113725 0.023529
0.576471 0.117647 0.031373
0.592157 0.113725 0.023529
0.619608 0.113725 0.035294
0.635294 0.113725 0.039216
0.647059 0.105882 0.031373
0.674510 0.105882 0.039216
0.682353 0.105882 0.031373
0.694118 0.105882 0.035294
0.721569 0.105882 0.039216
0.733333 0.109804 0.035294
0.756863 0.105882 0.039216
0.764706 0.109804 0.035294
0.784314 0.109804 0.031373
0.027451 0.137255 0.019608
0.054902 0.137255 0.019608
0.078431 0.133333 0.019608
0.109804 0.137255 0.019608
0.129412 0.141176 0.019608
0.156863 0.141176 0.023529
0.184314 0.141176 0.031373
0.219608 0.141176 0.023529
0.243137 0.141176 0.031373
0.262745 0.141176 0.031373
0.294118 0.141176 0.023529
0.321569 0.145098 0.023529
0.337255 0.141176 0.027451
0.360784 0.149020 0.023529
0.392157 0.145098 0.023529
0.415686 0.149020 0.031373
0.439216 0.145098 0.027451
0.454902 0.145098 0.027451
0.478431 0.149020 0.027451
0.505882 0.149020 0.027451
0.521569 0.149020 0.031373
0.545098 0.145098 0.031373
0.560784 0.141176 0.035294
0.584314 0.137255 0.031373
0.596078 0.141176 0.035294
0.611765 0.141176 0.031373
0.631373 0.137255 0.035294
0.654902 0.133333 0.031373
0.670588 0.133333 0.031373
0.690196 0.133333 0.035294
0.698039 0.133333 0.039216
0.717647 0.133333 0.035294
0.733333 0.133333 0.031373
0.749020 0.133333 0.035294
0.768627 0.133333 0.035294
0.784314 0.129412 0.031373
0.023529 0.164706 0.019608
0.050980 0.164706 0.019608
0.078431 0.164706 0.019608
0.105882 0.168627 0.023529
0.137255 0.164706 0.031373
0.164706 0.168627 0.031373
0.188235 0.164706 0.027451
0.219608 0.172549 0.027451
0.243137 0.164706 0.031373
0.262745 0.172549 0.023529
0.290196 0.172549 0.027451
0.313725 0.168627 0.023529
0.345098 0.168627 0.031373
0.372549 0.172549 0.023529
0.392157 0.176471 0.027451
0.415686 0.172549 0.031373
0.439216 0.176471 0.031373
0.454902 0.176471 0.027451
0.490196 0.172549 0.031373
0.498039 0.172549 0.035294
0.521569 0.168627 0.039216
0.545098 0.172549 0.039216
0.564706 0.164706 0.031373
0.584314 0.168627 0.031373
0.596078 0.164706 0.031373
0.619608 0.168627 0.035294
0.635294 0.164706 0.039216
0.654902 0.164706 0.035294
0.670588 0.164706 0.031373
0.690196 0.156863 0.031373
0.701961 0.156863 0.035294
0.721569 0.160784 0.039216
0.733333 0.164706 0.035294
0.749020 0.164706 0.031373
0.768627 0.160784 0.035294
0.784314 0.160784 0.031373
0.027451 0.192157 0.019608
0.050980 0.196078 0.023529
0.086275 0.192157 0.031373
0.109804 0.188235 0.027451
0.137255 0.188235 0.027451
0.156863 0.192157 0.031373
0.184314 0.196078 0.031373
0.219608 0.196078 0.023529
0.243137 0.200000 0.027451
0.266667 0.196078 0.023529
0.294118 0.196078 0.023529
0.321569 0.196078 0.023529
0.341176 0.200000 0.027451
0.364706 0.200000 0.023529
0.392157 0.200000 0.023529
0.415686 0.203922 0.023529
0.439216 0.200000 0.031373
0.454902 0.196078 0.035294
0.482353 0.196078 0.035294
0.513725 0.200000 0.035294
0.521569 0.200000 0.031373
0.545098 0.196078 0.039216
0.564706 0.196078 0.035294
0.588235 0.192157 0.031373
0.603922 0.192157 0.035294
0.619608 0.192157 0.031373
0.631373 0.192157 0.035294
0.654902 0.188235 0.035294
0.670588 0.188235 0.031373
0.690196 0.188235 0.035294
0.705882 0.184314 0.039216
0.721569 0.184314 0.035294
0.741176 0.184314 0.031373
0.752941 0.188235 0.027451
0.772549 0.188235 0.039216
0.784314 0.192157 0.035294
0.031373 0.211765 0.027451
0.058824 0.215686 0.027451
0.078431 0.219608 0.027451
0.109804 0.219608 0.031373
0.141176 0.215686 0.031373
0.168627 0.219608 0.031373
0.192157 0.223529 0.035294
0.219608 0.223529 0.027451
0.243137 0.223529 0.023529
0.270588 0.223529 0.023529
0.298039 0.223529 0.027451
0.321569 0.227451 0.027451
0.345098 0.223529 0.023529
0.372549 0.227451 0.023529
0.400000 0.223529 0.035294
0.415686 0.223529 0.031373
0.439216 0.227451 0.039216
0.454902 0.227451 0.035294
0.482353 0.227451 0.039216
0.505882 0.223529 0.035294
0.529412 0.223529 0.031373
0.545098 0.227451 0.039216
0.564706 0.219608 0.031373
0.584314 0.223529 0.035294
0.600000 0.215686 0.035294
0.627451 0.219608 0.035294
0.635294 0.219608 0.039216
0.654902 0.219608 0.035294
0.670588 0.219608 0.031373
0.682353 0.211765 0.031373
0.701961 0.211765 0.027451
0.721569 0.215686 0.039216
0.741176 0.215686 0.035294
0.756863 0.215686 0.031373
0.768627 0.215686 0.035294
0.784314 0.215686 0.039216
0.031373 0.235294 0.023529
0.058824 0.235294 0.023529
0.082353 0.243137 0.027451
0.109804 0.243137 0.027451
0.137255 0.243137 0.027451
0.164706 0.243137 0.031373
0.192157 0.247059 0.031373
0.219608 0.247059 0.031373
0.243137 0.243137 0.027451
0.270588 0.243137 0.031373
0.301961 0.247059 0.031373
0.321569 0.250980 0.031373
0.337255 0.250980 0.031373
0.372549 0.247059 0.039216
0.400000 0.247059 0.039216
0.419608 0.247059 0.035294
0.439216 0.250980 0.039216
0.454902 0.250980 0.035294
0.486275 0.250980 0.035294
0.509804 0.247059 0.031373
0.525490 0.247059 0.035294
0.552941 0.247059 0.039216
0.564706 0.243137 0.031373
0.588235 0.247059 0.039216
0.600000 0.239216 0.031373
0.627451 0.243137 0.031373
0.639216 0.243137 0.039216
0.662745 0.239216 0.035294
0.670588 0.239216 0.039216
0.686275 0.235294 0.031373
0.701961 0.235294 0.035294
0.725490 0.239216 0.035294
0.741176 0.235294 0.039216
0.756863 0.235294 0.047059
0.776471 0.235294 0.043137
0.784314 0.239216 0.039216
0.031373 0.266667 0.027451
0.058824 0.266667 0.027451
0.086275 0.270588 0.027451
0.105882 0.270588 0.027451
0.137255 0.266667 0.027451
0.164706 0.266667 0.027451
0.196078 0.270588 0.027451
0.223529 0.270588 0.031373
0.243137 0.274510 0.031373
0.266667 0.270588 0.027451
0.294118 0.270588 0.031373
0.321569 0.270588 0.039216
0.345098 0.274510 0.039216
0.368627 0.270588 0.035294
0.396078 0.274510 0.039216
0.423529 0.274510 0.039216
0.439216 0.274510 0.035294
0.462745 0.278431 0.035294
0.486275 0.274510 0.035294
0.505882 0.278431 0.035294
0.529412 0.274510 0.039216
0.549020 0.274510 0.035294
0.572549 0.270588 0.031373
0.580392 0.270588 0.039216
0.600000 0.270588 0.035294
0.623529 0.266667 0.031373
0.639216 0.266667 0.035294
0.654902 0.266667 0.031373
0.674510 0.262745 0.035294
0.690196 0.262745 0.039216
0.701961 0.262745 0.047059
0.725490 0.258824 0.043137
0.737255 0.262745 0.039216
0.756863 0.266667 0.047059
0.776471 0.266667 0.043137
0.792157 0.266667 0.043137
0.031373 0.290196 0.023529
0.058824 0.290196 0.027451
0.090196 0.290196 0.027451
0.109804 0.290196 0.023529
0.141176 0.290196 0.023529
0.168627 0.290196 0.027451
0.196078 0.290196 0.027451
0.223529 0.294118 0.027451
0.243137 0.298039 0.031373
0.266667 0.294118 0.035294
0.298039 0.294118 0.035294
0.325490 0.294118 0.035294
0.352941 0.294118 0.039216
0.368627 0.294118 0.035294
0.396078 0.298039 0.035294
0.419608 0.301961 0.035294
0.443137 0.298039 0.035294
0.462745 0.301961 0.035294
0.482353 0.301961 0.031373
0.509804 0.301961 0.031373
0.533333 0.298039 0.039216
0.549020 0.298039 0.035294
0.572549 0.294118 0.039216
0.588235 0.290196 0.035294
0.600000 0.294118 0.039216
0.623529 0.290196 0.035294
0.635294 0.290196 0.039216
0.658824 0.286275 0.047059
0.674510 0.286275 0.043137
0.690196 0.282353 0.047059
0.709804 0.282353 0.043137
0.721569 0.286275 0.039216
0.737255 0.286275 0.043137
0.756863 0.290196 0.047059
0.776471 0.290196 0.043137
0.792157 0.286275 0.047059
0.031373 0.321569 0.027451
0.054902 0.317647 0.023529
0.082353 0.317647 0.023529
0.109804 0.317647 0.027451
0.145098 0.317647 0.027451
0.168627 0.321569 0.027451
0.196078 0.321569 0.031373
0.227451 0.317647 0.039216
0.247059 0.317647 0.035294
0.266667 0.321569 0.035294
0.294118 0.325490 0.039216
0.325490 0.325490 0.039216
0.345098 0.321569 0.035294
0.376471 0.321569 0.035294
0.396078 0.325490 0.039216
0.419608 0.325490 0.035294
0.447059 0.325490 0.035294
0.466667 0.325490 0.031373
0.494118 0.325490 0.035294
0.501961 0.329412 0.031373
0.525490 0.325490 0.035294
0.552941 0.325490 0.035294
0.572549 0.321569 0.039216
0.588235 0.321569 0.047059
0.607843 0.313725 0.039216
0.623529 0.317647 0.047059
0.639216 0.317647 0.043137
0.658824 0.317647 0.047059
0.682353 0.313725 0.043137
0.698039 0.313725 0.050980
0.713725 0.309804 0.047059
0.733333 0.309804 0.043137
0.737255 0.317647 0.047059
0.760784 0.313725 0.043137
0.772549 0.313725 0.039216
0.788235 0.313725 0.043137
0.035294 0.333333 0.027451
0.054902 0.337255 0.027451
0.090196 0.337255 0.031373
0.113725 0.333333 0.027451
0.145098 0.337255 0.031373
0.164706 0.337255 0.031373
0.192157 0.337255 0.039216
0.227451 0.337255 0.031373
0.247059 0.341176 0.031373
0.274510 0.345098 0.035294
0.298039 0.341176 0.031373
0.325490 0.341176 0.031373
0.349020 0.345098 0.035294
0.372549 0.341176 0.031373
0.400000 0.341176 0.031373
0.419608 0.349020 0.031373
0.443137 0.341176 0.039216
0.466667 0.345098 0.039216
0.490196 0.341176 0.035294
0.517647 0.345098 0.035294
0.529412 0.345098 0.039216
0.552941 0.341176 0.047059
0.568627 0.341176 0.043137
0.592157 0.337255 0.039216
0.607843 0.333333 0.043137
0.627451 0.333333 0.039216
0.635294 0.337255 0.043137
0.658824 0.333333 0.043137
0.682353 0.337255 0.043137
0.694118 0.329412 0.043137
0.709804 0.329412 0.039216
0.729412 0.329412 0.043137
0.745098 0.329412 0.039216
0.760784 0.337255 0.043137
0.776471 0.333333 0.047059
0.788235 0.337255 0.043137
0.039216 0.360784 0.031373
0.058824 0.360784 0.027451
0.086275 0.364706 0.027451
0.113725 0.364706 0.031373
0.149020 0.360784 0.039216
0.176471 0.360784 0.039216
0.196078 0.368627 0.031373
0.223529 0.368627 0.035294
0.247059 0.364706 0.031373
0.274510 0.364706 0.031373
0.305882 0.368627 0.035294
0.325490 0.372549 0.035294
0.349020 0.368627 0.031373
0.376471 0.368627 0.031373
0.403922 0.368627 0.035294
0.423529 0.368627 0.031373
0.443137 0.372549 0.039216
0.462745 0.372549 0.035294
0.490196 0.372549 0.047059
0.513725 0.368627 0.043137
0.537255 0.364706 0.039216
0.549020 0.372549 0.047059
0.572549 0.368627 0.043137
0.592157 0.368627 0.043137
0.603922 0.360784 0.043137
0.631373 0.360784 0.043137
0.643137 0.364706 0.047059
0.658824 0.364706 0.043137
0.678431 0.364706 0.039216
0.694118 0.360784 0.043137
0.709804 0.360784 0.043137
0.729412 0.360784 0.047059
0.745098 0.360784 0.043137
0.760784 0.356863 0.039216
0.772549 0.360784 0.043137
0.788235 0.360784 0.039216
0.035294 0.388235 0.027451
0.062745 0.388235 0.031373
0.086275 0.392157 0.039216
0.113725 0.392157 0.039216
0.149020 0.392157 0.043137
0.168627 0.388235 0.031373
0.200000 0.392157 0.031373
0.227451 0.392157 0.031373
0.247059 0.396078 0.035294
0.274510 0.396078 0.035294
0.298039 0.392157 0.031373
0.325490 0.396078 0.031373
0.349020 0.400000 0.035294
0.376471 0.400000 0.035294
0.400000 0.396078 0.031373
0.427451 0.396078 0.039216
0.443137 0.396078 0.039216
0.466667 0.400000 0.047059
0.490196 0.396078 0.043137
0.509804 0.400000 0.043137
0.533333 0.396078 0.043137
0.556863 0.392157 0.039216
0.568627 0.396078 0.043137
0.584314 0.392157 0.039216
0.607843 0.388235 0.043137
0.627451 0.388235 0.039216
0.647059 0.392157 0.043137
0.662745 0.388235 0.043137
0.682353 0.392157 0.043137
0.694118 0.384314 0.043137
0.713725 0.384314 0.039216
0.729412 0.384314 0.043137
0.745098 0.380392 0.039216
0.768627 0.388235 0.043137
0.780392 0.388235 0.047059
0.796078 0.388235 0.043137
0.035294 0.411765 0.035294
0.058824 0.407843 0.031373
0.094118 0.403922 0.031373
0.117647 0.407843 0.031373
0.145098 0.411765 0.035294
0.172549 0.411765 0.035294
0.200000 0.411765 0.035294
0.227451 0.411765 0.039216
0.243137 0.411765 0.035294
0.270588 0.415686 0.035294
0.305882 0.411765 0.039216
0.333333 0.411765 0.039216
0.345098 0.415686 0.035294
0.372549 0.415686 0.035294
0.400000 0.415686 0.047059
0.423529 0.411765 0.043137
0.450980 0.415686 0.043137
0.462745 0.415686 0.039216
0.490196 0.419608 0.043137
0.517647 0.419608 0.043137
0.533333 0.411765 0.043137
0.560784 0.415686 0.043137
0.576471 0.411765 0.047059
0.592157 0.411765 0.043137
0.607843 0.407843 0.043137
0.627451 0.411765 0.047059
0.643137 0.411765 0.043137
0.666667 0.403922 0.047059
0.686275 0.403922 0.043137
0.698039 0.407843 0.047059
0.713725 0.403922 0.047059
0.729412 0.403922 0.043137
0.749020 0.403922 0.047059
0.764706 0.403922 0.043137
0.780392 0.400000 0.047059
0.792157 0.403922 0.050980
0.039216 0.431373 0.039216
0.066667 0.431373 0.043137
0.090196 0.431373 0.039216
0.117647 0.431373 0.039216
0.145098 0.431373 0.031373
0.172549 0.435294 0.035294
0.200000 0.435294 0.035294
0.235294 0.435294 0.035294
0.247059 0.435294 0.031373
0.274510 0.439216 0.035294
0.301961 0.439216 0.035294
0.329412 0.439216 0.035294
0.352941 0.435294 0.039216
0.372549 0.439216 0.043137
0.403922 0.439216 0.043137
0.427451 0.435294 0.039216
0.447059 0.439216 0.043137
0.470588 0.435294 0.047059
0.494118 0.439216 0.047059
0.513725 0.443137 0.047059
0.533333 0.435294 0.039216
0.560784 0.439216 0.043137
0.576471 0.435294 0.047059
0.596078 0.435294 0.043137
0.600000 0.431373 0.043137
0.627451 0.435294 0.043137
0.647059 0.431373 0.039216
0.662745 0.431373 0.047059
0.686275 0.427451 0.043137
0.701961 0.427451 0.047059
0.713725 0.427451 0.043137
0.733333 0.427451 0.047059
0.741176 0.427451 0.050980
0.764706 0.423529 0.047059
0.776471 0.427451 0.054902
0.792157 0.427451 0.050980
0.035294 0.450980 0.031373
0.062745 0.450980 0.035294
0.090196 0.450980 0.035294
0.125490 0.450980 0.035294
0.145098 0.454902 0.039216
0.168627 0.450980 0.035294
0.196078 0.450980 0.035294
0.231373 0.450980 0.039216
0.254902 0.454902 0.039216
0.274510 0.458824 0.039216
0.305882 0.450980 0.035294
0.333333 0.450980 0.047059
0.352941 0.454902 0.047059
0.380392 0.458824 0.047059
0.400000 0.458824 0.043137
0.427451 0.458824 0.047059
0.450980 0.454902 0.043137
0.470588 0.458824 0.043137
0.498039 0.458824 0.043137
0.517647 0.458824 0.043137
0.533333 0.458824 0.047059
0.556863 0.454902 0.043137
0.572549 0.454902 0.039216
0.596078 0.450980 0.043137
0.607843 0.450980 0.039216
0.631373 0.454902 0.043137
0.647059 0.454902 0.047059
0.666667 0.447059 0.039216
0.686275 0.450980 0.047059
0.701961 0.443137 0.047059
0.717647 0.443137 0.050980
0.729412 0.443137 0.047059
0.745098 0.443137 0.047059
0.768627 0.447059 0.054902
0.784314 0.447059 0.050980
0.796078 0.450980 0.047059
0.035294 0.474510 0.031373
0.062745 0.474510 0.031373
0.090196 0.474510 0.035294
0.117647 0.478431 0.035294
0.152941 0.474510 0.035294
0.172549 0.474510 0.031373
0.200000 0.474510 0.035294
0.231373 0.474510 0.035294
0.254902 0.478431 0.035294
0.282353 0.478431 0.047059
0.298039 0.478431 0.043137
0.325490 0.478431 0.043137
0.356863 0.478431 0.043137
0.384314 0.482353 0.047059
0.400000 0.478431 0.043137
0.427451 0.482353 0.043137
0.447059 0.482353 0.039216
0.474510 0.482353 0.043137
0.501961 0.482353 0.043137
0.517647 0.482353 0.039216
0.533333 0.482353 0.043137
0.556863 0.478431 0.039216
0.576471 0.474510 0.047059
0.596078 0.478431 0.047059
0.607843 0.474510 0.047059
0.631373 0.478431 0.047059
0.647059 0.474510 0.050980
0.662745 0.470588 0.050980
0.690196 0.470588 0.054902
0.701961 0.462745 0.054902
0.713725 0.466667 0.050980
0.737255 0.462745 0.047059
0.749020 0.470588 0.054902
0.768627 0.470588 0.050980
0.780392 0.474510 0.050980
0.796078 0.470588 0.054902
0.043137 0.490196 0.035294
0.066667 0.498039 0.039216
0.094118 0.498039 0.039216
0.121569 0.498039 0.039216
0.152941 0.498039 0.035294
0.176471 0.501961 0.035294
0.200000 0.498039 0.031373
0.227451 0.498039 0.039216
0.254902 0.498039 0.043137
0.282353 0.501961 0.043137
0.305882 0.505882 0.043137
0.329412 0.501961 0.043137
0.356863 0.501961 0.043137
0.384314 0.501961 0.043137
0.407843 0.501961 0.039216
0.427451 0.505882 0.043137
0.450980 0.509804 0.043137
0.466667 0.505882 0.047059
0.494118 0.509804 0.047059
0.517647 0.505882 0.047059
0.537255 0.505882 0.043137
0.552941 0.505882 0.039216
0.576471 0.498039 0.043137
0.600000 0.501961 0.050980
0.611765 0.494118 0.050980
0.639216 0.498039 0.054902
0.650980 0.498039 0.050980
0.662745 0.494118 0.050980
0.682353 0.498039 0.050980
0.698039 0.490196 0.050980
0.713725 0.490196 0.047059
0.733333 0.494118 0.058824
0.752941 0.494118 0.054902
0.768627 0.494118 0.050980
0.780392 0.494118 0.054902
0.796078 0.494118 0.050980
0.043137 0.513725 0.035294
0.070588 0.517647 0.035294
0.090196 0.517647 0.031373
0.117647 0.517647 0.035294
0.152941 0.513725 0.035294
0.180392 0.517647 0.035294
0.200000 0.517647 0.047059
0.227451 0.521569 0.047059
0.250980 0.517647 0.043137
0.278431 0.517647 0.043137
0.309804 0.517647 0.047059
0.329412 0.521569 0.047059
0.352941 0.521569 0.043137
0.380392 0.521569 0.043137
0.407843 0.521569 0.047059
0.431373 0.517647 0.043137
0.447059 0.525490 0.043137
0.470588 0.521569 0.039216
0.498039 0.521569 0.043137
0.521569 0.529412 0.043137
0.537255 0.517647 0.043137
0.552941 0.525490 0.050980
0.576471 0.521569 0.047059
0.596078 0.517647 0.054902
0.611765 0.517647 0.050980
0.635294 0.513725 0.047059
0.650980 0.513725 0.050980
0.662745 0.517647 0.047059
0.686275 0.509804 0.050980
0.701961 0.509804 0.050980
0.713725 0.513725 0.054902
0.737255 0.509804 0.050980
0.749020 0.513725 0.047059
0.772549 0.505882 0.050980
0.784314 0.509804 0.047059
0.792157 0.509804 0.050980
0.047059 0.529412 0.035294
0.074510 0.529412 0.039216
0.090196 0.529412 0.035294
0.121569 0.529412 0.035294
0.149020 0.533333 0.035294
0.176471 0.533333 0.047059
0.203922 0.533333 0.047059
0.231373 0.537255 0.039216
0.254902 0.529412 0.043137
0.282353 0.533333 0.047059
0.309804 0.533333 0.047059
0.333333 0.537255 0.039216
0.349020 0.537255 0.043137
0.384314 0.533333 0.047059
0.411765 0.537255 0.047059
0.431373 0.541176 0.047059
0.450980 0.541176 0.047059
0.466667 0.541176 0.043137
0.494118 0.541176 0.043137
0.521569 0.541176 0.050980
0.541176 0.541176 0.047059
0.568627 0.541176 0.050980
0.576471 0.537255 0.050980
0.596078 0.541176 0.050980
0.615686 0.533333 0.050980
0.635294 0.537255 0.050980
0.654902 0.537255 0.050980
0.666667 0.529412 0.050980
0.686275 0.533333 0.050980
0.701961 0.529412 0.050980
0.717647 0.529412 0.047059
0.737255 0.529412 0.054902
0.756863 0.529412 0.050980
0.772549 0.529412 0.050980
0.784314 0.529412 0.054902
0.800000 0.529412 0.050980
0.043137 0.545098 0.039216
0.070588 0.549020 0.039216
0.098039 0.549020 0.039216
0.121569 0.552941 0.039216
0.149020 0.552941 0.043137
0.184314 0.552941 0.043137
0.207843 0.549020 0.039216
0.227451 0.552941 0.043137
0.254902 0.552941 0.043137
0.282353 0.552941 0.043137
0.313725 0.556863 0.043137
0.337255 0.552941 0.043137
0.356863 0.556863 0.043137
0.384314 0.556863 0.043137
0.407843 0.552941 0.039216
0.431373 0.556863 0.043137
0.458824 0.560784 0.043137
0.470588 0.560784 0.047059
0.498039 0.560784 0.047059
0.521569 0.556863 0.054902
0.537255 0.556863 0.050980
0.564706 0.556863 0.050980
0.580392 0.556863 0.054902
0.600000 0.556863 0.050980
0.615686 0.556863 0.050980
0.631373 0.552941 0.054902
0.650980 0.552941 0.050980
0.674510 0.549020 0.054902
0.690196 0.549020 0.050980
0.701961 0.552941 0.047059
0.717647 0.549020 0.050980
0.737255 0.549020 0.050980
0.752941 0.549020 0.054902
0.768627 0.545098 0.050980
0.788235 0.545098 0.047059
0.796078 0.549020 0.050980
0.043137 0.568627 0.035294
0.074510 0.568627 0.035294
0.098039 0.564706 0.039216
0.117647 0.568627 0.043137
0.152941 0.568627 0.043137
0.180392 0.568627 0.043137
0.207843 0.568627 0.047059
0.235294 0.572549 0.047059
0.250980 0.572549 0.043137
0.282353 0.572549 0.043137
0.309804 0.572549 0.047059
0.337255 0.572549 0.047059
0.360784 0.568627 0.043137
0.380392 0.576471 0.047059
0.407843 0.576471 0.047059
0.439216 0.576471 0.047059
0.454902 0.576471 0.050980
0.470588 0.576471 0.047059
0.498039 0.576471 0.050980
0.521569 0.580392 0.050980
0.537255 0.580392 0.047059
0.564706 0.580392 0.058824
0.584314 0.572549 0.050980
0.600000 0.580392 0.050980
0.611765 0.572549 0.050980
0.635294 0.576471 0.050980
0.650980 0.576471 0.054902
0.670588 0.568627 0.047059
0.690196 0.572549 0.050980
0.705882 0.564706 0.050980
0.713725 0.568627 0.047059
0.737255 0.572549 0.054902
0.752941 0.568627 0.050980
0.772549 0.568627 0.047059
0.788235 0.568627 0.054902
0.803922 0.568627 0.050980
0.043137 0.580392 0.031373
0.070588 0.576471 0.039216
0.098039 0.580392 0.043137
0.125490 0.580392 0.043137
0.152941 0.580392 0.043137
0.184314 0.584314 0.047059
0.207843 0.580392 0.043137
0.235294 0.580392 0.043137
0.254902 0.584314 0.043137
0.282353 0.584314 0.047059
0.309804 0.588235 0.047059
0.333333 0.584314 0.043137
0.364706 0.584314 0.047059
0.384314 0.588235 0.047059
0.411765 0.588235 0.047059
0.427451 0.588235 0.050980
0.458824 0.588235 0.054902
0.474510 0.588235 0.050980
0.494118 0.592157 0.050980
0.517647 0.588235 0.047059
0.541176 0.592157 0.058824
0.564706 0.588235 0.054902
0.580392 0.588235 0.050980
