luts/full/linen.cube
TITLE "linen (full)"
LUT_3D_SIZE 6
0.019608 0.031373 0.019608
0.211765 0.035294 0.015686
0.384314 0.039216 0.023529
0.537255 0.039216 0.027451
0.666667 0.035294 0.027451
0.776471 0.035294 0.035294
0.031373 0.211765 0.027451
0.219608 0.223529 0.027451
0.400000 0.223529 0.035294
0.545098 0.227451 0.039216
0.670588 0.219608 0.031373
0.784314 0.215686 0.039216
0.035294 0.388235 0.027451
0.227451 0.392157 0.031373
0.400000 0.396078 0.031373
0.556863 0.392157 0.039216
0.682353 0.392157 0.043137
0.796078 0.388235 0.043137
0.047059 0.529412 0.035294
0.231373 0.537255 0.039216
0.411765 0.537255 0.047059
0.568627 0.541176 0.050980
0.686275 0.533333 0.050980
0.800000 0.529412 0.050980
0.047059 0.643137 0.043137
0.243137 0.654902 0.043137
0.415686 0.658824 0.050980
0.560784 0.662745 0.047059
0.690196 0.654902 0.058824
0.803922 0.662745 0.058824
0.054902 0.749020 0.043137
0.247059 0.752941 0.054902
0.419608 0.756863 0.054902
0.572549 0.756863 0.058824
0.698039 0.760784 0.062745
0.811765 0.764706 0.058824
0.023529 0.035294 0.184314
0.215686 0.039216 0.188235
0.388235 0.043137 0.188235
0.541176 0.043137 0.196078
0.666667 0.035294 0.196078
0.776471 0.035294 0.196078
0.035294 0.215686 0.192157
0.219608 0.223529 0.196078
0.396078 0.219608 0.200000
0.549020 0.211765 0.200000
0.678431 0.215686 0.200000
0.792157 0.211765 0.200000
0.039216 0.392157 0.200000
0.231373 0.388235 0.200000
0.403922 0.392157 0.207843
0.560784 0.384314 0.200000
0.682353 0.380392 0.207843
0.796078 0.384314 0.211765
0.039216 0.529412 0.203922
0.231373 0.525490 0.203922
0.411765 0.525490 0.211765
0.564706 0.525490 0.207843
0.694118 0.529412 0.219608
0.800000 0.529412 0.219608
0.050980 0.650980 0.207843
0.235294 0.647059 0.215686
0.415686 0.647059 0.211765
0.572549 0.650980 0.223529
0.690196 0.654902 0.219608
0.807843 0.654902 0.227451
0.054902 0.749020 0.211765
0.243137 0.752941 0.215686
0.419608 0.756863 0.223529
0.568627 0.764706 0.223529
0.694118 0.760784 0.231373
0.811765 0.764706 0.227451
0.023529 0.039216 0.337255
0.215686 0.043137 0.333333
0.388235 0.047059 0.349020
0.549020 0.043137 0.345098
0.666667 0.035294 0.356863
0.780392 0.031373 0.349020
0.035294 0.219608 0.345098
0.223529 0.223529 0.349020
0.392157 0.219608 0.349020
0.549020 0.211765 0.352941
0.678431 0.215686 0.360784
0.796078 0.219608 0.360784
0.039216 0.392157 0.352941
0.231373 0.388235 0.352941
0.403922 0.380392 0.360784
0.560784 0.384314 0.360784
0.686275 0.388235 0.364706
0.796078 0.388235 0.364706
0.039216 0.533333 0.356863
0.235294 0.517647 0.360784
0.407843 0.525490 0.360784
0.564706 0.525490 0.368627
0.694118 0.533333 0.372549
0.800000 0.533333 0.372549
0.050980 0.650980 0.360784
0.235294 0.647059 0.364706
0.415686 0.650980 0.364706
0.572549 0.654902 0.376471
0.698039 0.654902 0.372549
0.807843 0.658824 0.380392
0.054902 0.749020 0.372549
0.243137 0.752941 0.368627
0.419608 0.756863 0.376471
0.572549 0.760784 0.376471
0.694118 0.764706 0.372549
0.811765 0.764706 0.388235
0.027451 0.035294 0.470588
0.219608 0.043137 0.478431
0.396078 0.047059 0.486275
0.545098 0.047059 0.482353
0.674510 0.039216 0.482353
0.784314 0.031373 0.494118
0.035294 0.223529 0.482353
0.227451 0.211765 0.482353
0.396078 0.215686 0.490196
0.552941 0.215686 0.490196
0.682353 0.219608 0.490196
0.788235 0.215686 0.498039
0.039216 0.392157 0.486275
0.227451 0.380392 0.490196
0.400000 0.384314 0.498039
0.552941 0.384314 0.494118
0.682353 0.388235 0.498039
0.796078 0.392157 0.509804
0.047059 0.533333 0.494118
0.239216 0.521569 0.498039
0.407843 0.529412 0.498039
0.564706 0.533333 0.505882
0.686275 0.533333 0.505882
0.800000 0.537255 0.509804
0.050980 0.654902 0.505882
0.243137 0.650980 0.501961
0.415686 0.654902 0.509804
0.568627 0.654902 0.501961
0.698039 0.658824 0.509804
0.807843 0.662745 0.513725
0.058824 0.749020 0.509804
0.243137 0.756863 0.505882
0.423529 0.756863 0.509804
0.576471 0.760784 0.509804
0.705882 0.764706 0.509804
0.815686 0.764706 0.525490
0.027451 0.027451 0.588235
0.219608 0.031373 0.584314
0.392157 0.035294 0.592157
0.549020 0.039216 0.596078
0.674510 0.039216 0.600000
0.780392 0.039216 0.600000
0.031373 0.211765 0.596078
0.223529 0.203922 0.596078
0.400000 0.207843 0.603922
0.552941 0.215686 0.607843
0.682353 0.219608 0.607843
0.792157 0.219608 0.607843
0.043137 0.380392 0.607843
0.227451 0.380392 0.607843
0.407843 0.380392 0.611765
0.560784 0.388235 0.615686
0.682353 0.388235 0.611765
0.796078 0.392157 0.619608
0.047059 0.525490 0.607843
0.235294 0.525490 0.611765
0.415686 0.525490 0.611765
0.564706 0.533333 0.623529
0.690196 0.533333 0.619608
0.800000 0.537255 0.619608
0.050980 0.654902 0.611765
0.243137 0.650980 0.619608
0.415686 0.654902 0.619608
0.568627 0.654902 0.619608
0.698039 0.658824 0.627451
0.807843 0.662745 0.631373
0.058824 0.749020 0.623529
0.250980 0.756863 0.619608
0.423529 0.756863 0.627451
0.576471 0.760784 0.627451
0.705882 0.764706 0.627451
0.815686 0.768627 0.631373
0.019608 0.019608 0.682353
0.223529 0.027451 0.682353
0.388235 0.031373 0.690196
0.541176 0.035294 0.686275
0.670588 0.035294 0.698039
0.788235 0.039216 0.701961
0.035294 0.203922 0.694118
0.227451 0.211765 0.690196
0.400000 0.215686 0.694118
0.552941 0.215686 0.694118
0.678431 0.215686 0.701961
0.792157 0.219608 0.709804
0.043137 0.372549 0.698039
0.231373 0.376471 0.694118
0.411765 0.384314 0.705882
0.556863 0.388235 0.705882
0.686275 0.392157 0.713725
0.792157 0.392157 0.713725
0.050980 0.521569 0.709804
0.243137 0.525490 0.705882
0.415686 0.529412 0.713725
0.560784 0.533333 0.713725
0.690196 0.537255 0.713725
0.803922 0.541176 0.725490
0.054902 0.643137 0.705882
0.239216 0.647059 0.717647
0.415686 0.654902 0.713725
0.568627 0.658824 0.717647
0.698039 0.662745 0.721569
0.807843 0.662745 0.721569
0.058824 0.749020 0.713725
0.247059 0.756863 0.709804
0.419608 0.756863 0.717647
0.576471 0.764706 0.717647
0.705882 0.764706 0.729412
0.815686 0.764706 0.729412
