luts/full/linen.cube
TITLE "linen (full)"
LUT_3D_SIZE 8
0.019608 0.031373 0.019608
0.152941 0.039216 0.027451
0.290196 0.043137 0.019608
0.407843 0.043137 0.023529
0.513725 0.043137 0.023529
0.615686 0.039216 0.027451
0.698039 0.027451 0.023529
0.776471 0.035294 0.035294
0.023529 0.164706 0.019608
0.164706 0.168627 0.031373
0.290196 0.172549 0.027451
0.415686 0.172549 0.031373
0.521569 0.168627 0.039216
0.619608 0.168627 0.035294
0.701961 0.156863 0.035294
0.784314 0.160784 0.031373
0.031373 0.290196 0.023529
0.168627 0.290196 0.027451
0.298039 0.294118 0.035294
0.419608 0.301961 0.035294
0.533333 0.298039 0.039216
0.623529 0.290196 0.035294
0.709804 0.282353 0.043137
0.792157 0.286275 0.047059
0.035294 0.411765 0.035294
0.172549 0.411765 0.035294
0.305882 0.411765 0.039216
0.423529 0.411765 0.043137
0.533333 0.411765 0.043137
0.627451 0.411765 0.047059
0.713725 0.403922 0.047059
0.792157 0.403922 0.050980
0.043137 0.513725 0.035294
0.180392 0.517647 0.035294
0.309804 0.517647 0.047059
0.431373 0.517647 0.043137
0.537255 0.517647 0.043137
0.635294 0.513725 0.047059
0.713725 0.513725 0.054902
0.792157 0.509804 0.050980
0.043137 0.600000 0.047059
0.180392 0.600000 0.039216
0.309804 0.603922 0.039216
0.435294 0.607843 0.050980
0.537255 0.611765 0.050980
0.635294 0.607843 0.054902
0.725490 0.600000 0.054902
0.800000 0.600000 0.058824
0.047059 0.666667 0.039216
0.188235 0.674510 0.047059
0.317647 0.674510 0.054902
0.439216 0.674510 0.050980
0.545098 0.682353 0.054902
0.643137 0.678431 0.058824
0.721569 0.678431 0.058824
0.803922 0.682353 0.054902
0.054902 0.749020 0.043137
0.184314 0.752941 0.050980
0.317647 0.752941 0.050980
0.435294 0.756863 0.050980
0.549020 0.760784 0.062745
0.639216 0.760784 0.058824
0.729412 0.760784 0.062745
0.811765 0.764706 0.058824
0.023529 0.031373 0.137255
0.160784 0.039216 0.141176
0.286275 0.047059 0.137255
0.407843 0.043137 0.141176
0.521569 0.043137 0.141176
0.619608 0.039216 0.145098
0.698039 0.027451 0.137255
0.776471 0.035294 0.149020
0.035294 0.164706 0.137255
0.156863 0.172549 0.149020
0.294118 0.172549 0.141176
0.415686 0.172549 0.149020
0.525490 0.160784 0.149020
0.623529 0.156863 0.152941
0.705882 0.160784 0.156863
0.784314 0.160784 0.149020
0.035294 0.290196 0.141176
0.160784 0.294118 0.141176
0.298039 0.294118 0.152941
0.419608 0.294118 0.149020
0.525490 0.286275 0.152941
0.619608 0.286275 0.149020
0.709804 0.282353 0.160784
0.792157 0.286275 0.164706
0.039216 0.411765 0.149020
0.172549 0.411765 0.152941
0.301961 0.415686 0.152941
0.427451 0.411765 0.156863
0.533333 0.403922 0.160784
0.631373 0.403922 0.156863
0.713725 0.407843 0.160784
0.792157 0.403922 0.168627
0.047059 0.513725 0.152941
0.180392 0.505882 0.156863
0.309804 0.509804 0.164706
0.435294 0.509804 0.160784
0.541176 0.509804 0.164706
0.631373 0.509804 0.168627
0.717647 0.513725 0.168627
0.803922 0.513725 0.172549
0.047059 0.600000 0.160784
0.180392 0.592157 0.160784
0.309804 0.596078 0.160784
0.427451 0.596078 0.164706
0.541176 0.600000 0.168627
0.635294 0.600000 0.164706
0.721569 0.603922 0.168627
0.803922 0.603922 0.180392
0.054902 0.674510 0.160784
0.184314 0.670588 0.156863
0.313725 0.670588 0.168627
0.443137 0.674510 0.168627
0.541176 0.678431 0.168627
0.643137 0.682353 0.176471
0.725490 0.682353 0.180392
0.807843 0.682353 0.180392
0.054902 0.749020 0.164706
0.184314 0.752941 0.168627
0.317647 0.752941 0.168627
0.435294 0.756863 0.164706
0.549020 0.760784 0.180392
0.650980 0.760784 0.180392
0.729412 0.760784 0.180392
0.807843 0.768627 0.180392
0.023529 0.031373 0.250980
0.164706 0.039216 0.250980
0.290196 0.043137 0.250980
0.415686 0.043137 0.258824
0.521569 0.043137 0.258824
0.619608 0.039216 0.262745
0.694118 0.031373 0.254902
0.776471 0.035294 0.266667
0.031373 0.168627 0.254902
0.164706 0.168627 0.258824
0.294118 0.172549 0.258824
0.411765 0.176471 0.254902
0.525490 0.160784 0.266667
0.623529 0.160784 0.262745
0.705882 0.164706 0.266667
0.780392 0.164706 0.266667
0.035294 0.290196 0.258824
0.164706 0.294118 0.258824
0.298039 0.294118 0.266667
0.419608 0.286275 0.270588
0.533333 0.282353 0.270588
0.631373 0.286275 0.278431
0.709804 0.282353 0.278431
0.788235 0.290196 0.270588
0.039216 0.411765 0.266667
0.172549 0.411765 0.270588
0.305882 0.407843 0.266667
0.427451 0.403922 0.278431
0.529412 0.400000 0.274510
0.631373 0.403922 0.274510
0.713725 0.407843 0.278431
0.796078 0.403922 0.278431
0.047059 0.513725 0.266667
0.184314 0.505882 0.274510
0.313725 0.501961 0.278431
0.431373 0.505882 0.274510
0.545098 0.509804 0.278431
0.631373 0.509804 0.282353
0.717647 0.513725 0.278431
0.807843 0.513725 0.282353
0.047059 0.600000 0.270588
0.176471 0.596078 0.274510
0.313725 0.596078 0.278431
0.431373 0.596078 0.282353
0.541176 0.600000 0.286275
0.639216 0.600000 0.282353
0.721569 0.603922 0.278431
0.803922 0.607843 0.290196
0.047059 0.674510 0.278431
0.184314 0.670588 0.274510
0.313725 0.670588 0.282353
0.443137 0.674510 0.286275
0.545098 0.678431 0.286275
0.643137 0.682353 0.294118
0.729412 0.686275 0.290196
0.807843 0.682353 0.286275
0.054902 0.749020 0.274510
0.192157 0.749020 0.286275
0.313725 0.756863 0.286275
0.439216 0.756863 0.282353
0.556863 0.756863 0.286275
0.650980 0.760784 0.298039
0.729412 0.760784 0.286275
0.807843 0.768627 0.298039
0.023529 0.035294 0.360784
0.164706 0.039216 0.360784
0.294118 0.047059 0.360784
0.415686 0.043137 0.364706
0.525490 0.043137 0.364706
0.619608 0.039216 0.368627
0.694118 0.035294 0.364706
0.784314 0.031373 0.376471
0.031373 0.168627 0.364706
0.168627 0.172549 0.364706
0.294118 0.176471 0.368627
0.419608 0.172549 0.372549
0.529412 0.164706 0.376471
0.623529 0.160784 0.380392
0.701961 0.160784 0.372549
0.780392 0.168627 0.372549
0.035294 0.290196 0.364706
0.172549 0.294118 0.368627
0.294118 0.290196 0.380392
0.419608 0.290196 0.376471
0.525490 0.290196 0.376471
0.627451 0.282353 0.380392
0.713725 0.286275 0.384314
0.788235 0.294118 0.388235
0.039216 0.411765 0.376471
0.176471 0.411765 0.376471
0.301961 0.403922 0.376471
0.423529 0.400000 0.384314
0.533333 0.400000 0.384314
0.627451 0.407843 0.384314
0.717647 0.407843 0.388235
0.796078 0.403922 0.392157
0.043137 0.521569 0.376471
0.176471 0.509804 0.388235
0.309804 0.505882 0.388235
0.431373 0.505882 0.384314
0.545098 0.509804 0.396078
0.635294 0.509804 0.392157
0.717647 0.513725 0.396078
0.800000 0.517647 0.392157
0.047059 0.600000 0.388235
0.184314 0.592157 0.384314
0.313725 0.596078 0.384314
0.439216 0.596078 0.392157
0.549020 0.600000 0.396078
0.639216 0.603922 0.392157
0.721569 0.603922 0.396078
0.807843 0.607843 0.400000
0.050980 0.678431 0.384314
0.188235 0.670588 0.384314
0.313725 0.674510 0.392157
0.439216 0.682353 0.392157
0.545098 0.682353 0.392157
0.647059 0.682353 0.403922
0.729412 0.686275 0.403922
0.807843 0.686275 0.396078
0.058824 0.749020 0.392157
0.192157 0.752941 0.392157
0.321569 0.756863 0.396078
0.447059 0.752941 0.400000
0.552941 0.760784 0.403922
0.647059 0.760784 0.400000
0.725490 0.768627 0.396078
0.815686 0.764706 0.407843
0.027451 0.039216 0.454902
0.160784 0.039216 0.454902
0.290196 0.043137 0.466667
0.419608 0.047059 0.466667
0.525490 0.047059 0.466667
0.615686 0.039216 0.458824
0.698039 0.035294 0.474510
0.784314 0.039216 0.470588
0.027451 0.168627 0.458824
0.164706 0.160784 0.458824
0.294118 0.164706 0.458824
0.423529 0.168627 0.466667
0.525490 0.160784 0.470588
0.619608 0.160784 0.466667
0.705882 0.164706 0.470588
0.788235 0.164706 0.482353
0.035294 0.294118 0.466667
0.168627 0.282353 0.466667
0.298039 0.278431 0.470588
0.423529 0.282353 0.474510
0.537255 0.282353 0.474510
0.631373 0.286275 0.474510
0.713725 0.290196 0.478431
0.788235 0.294118 0.478431
0.043137 0.407843 0.470588
0.172549 0.403922 0.470588
0.301961 0.400000 0.474510
0.427451 0.403922 0.482353
0.533333 0.407843 0.474510
0.639216 0.403922 0.474510
0.713725 0.407843 0.482353
0.796078 0.407843 0.486275
0.043137 0.517647 0.466667
0.180392 0.505882 0.478431
0.309804 0.501961 0.474510
0.435294 0.509804 0.482353
0.541176 0.509804 0.486275
0.635294 0.513725 0.486275
0.721569 0.509804 0.482353
0.803922 0.513725 0.486275
0.054902 0.603922 0.478431
0.180392 0.592157 0.478431
0.317647 0.592157 0.482353
0.439216 0.600000 0.490196
0.545098 0.600000 0.482353
0.639216 0.603922 0.490196
0.717647 0.603922 0.490196
0.807843 0.603922 0.494118
0.050980 0.674510 0.482353
0.188235 0.670588 0.490196
0.317647 0.678431 0.486275
0.439216 0.678431 0.482353
0.545098 0.682353 0.494118
0.643137 0.682353 0.490196
0.725490 0.686275 0.494118
0.807843 0.690196 0.498039
0.054902 0.749020 0.486275
0.188235 0.752941 0.482353
0.317647 0.756863 0.482353
0.447059 0.756863 0.494118
0.552941 0.756863 0.494118
0.647059 0.764706 0.494118
0.733333 0.764706 0.505882
0.811765 0.764706 0.501961
0.027451 0.035294 0.541176
0.164706 0.035294 0.545098
0.294118 0.039216 0.545098
0.411765 0.043137 0.541176
0.521569 0.047059 0.556863
0.611765 0.039216 0.545098
0.698039 0.035294 0.552941
0.784314 0.039216 0.556863
0.031373 0.156863 0.545098
0.168627 0.156863 0.545098
0.298039 0.160784 0.556863
0.419608 0.160784 0.552941
0.529412 0.160784 0.552941
0.627451 0.164706 0.552941
0.701961 0.164706 0.560784
0.792157 0.164706 0.564706
0.035294 0.286275 0.549020
0.172549 0.278431 0.556863
0.305882 0.278431 0.556863
0.423529 0.282353 0.552941
0.537255 0.286275 0.560784
0.627451 0.286275 0.560784
0.709804 0.290196 0.556863
0.800000 0.290196 0.568627
0.047059 0.407843 0.552941
0.172549 0.396078 0.552941
0.301961 0.400000 0.560784
0.427451 0.403922 0.564706
0.537255 0.403922 0.556863
0.635294 0.403922 0.572549
0.721569 0.407843 0.568627
0.792157 0.411765 0.568627
0.047059 0.513725 0.560784
0.180392 0.498039 0.560784
0.309804 0.501961 0.564706
0.431373 0.509804 0.572549
0.537255 0.509804 0.564706
0.639216 0.513725 0.564706
0.721569 0.517647 0.576471
0.800000 0.513725 0.576471
0.050980 0.603922 0.560784
0.188235 0.596078 0.564706
0.317647 0.596078 0.576471
0.443137 0.596078 0.572549
0.541176 0.600000 0.572549
0.643137 0.603922 0.572549
0.721569 0.611765 0.576471
0.807843 0.603922 0.576471
0.054902 0.670588 0.568627
0.184314 0.674510 0.572549
0.313725 0.678431 0.564706
0.443137 0.682353 0.584314
0.549020 0.682353 0.576471
0.650980 0.686275 0.576471
0.729412 0.682353 0.572549
0.807843 0.690196 0.584314
0.058824 0.749020 0.568627
0.192157 0.756863 0.572549
0.325490 0.756863 0.576471
0.443137 0.760784 0.572549
0.556863 0.764706 0.576471
0.647059 0.764706 0.580392
0.729412 0.768627 0.584314
0.819608 0.768627 0.588235
0.027451 0.031373 0.611765
0.160784 0.031373 0.619608
0.290196 0.035294 0.611765
0.415686 0.035294 0.619608
0.521569 0.043137 0.623529
0.615686 0.039216 0.619608
0.701961 0.035294 0.627451
0.784314 0.039216 0.627451
0.035294 0.156863 0.615686
0.164706 0.152941 0.619608
0.294118 0.156863 0.623529
0.419608 0.156863 0.619608
0.529412 0.160784 0.631373
0.623529 0.164706 0.631373
0.705882 0.164706 0.631373
0.788235 0.168627 0.627451
0.035294 0.282353 0.619608
0.176471 0.278431 0.627451
0.301961 0.282353 0.627451
0.427451 0.282353 0.635294
0.541176 0.286275 0.631373
0.631373 0.290196 0.627451
0.713725 0.290196 0.639216
0.796078 0.294118 0.643137
0.043137 0.400000 0.627451
0.176471 0.396078 0.631373
0.309804 0.396078 0.627451
0.431373 0.403922 0.635294
0.537255 0.403922 0.635294
0.639216 0.407843 0.635294
0.713725 0.407843 0.635294
0.796078 0.407843 0.647059
0.047059 0.509804 0.627451
0.176471 0.505882 0.627451
0.309804 0.505882 0.635294
0.435294 0.509804 0.635294
0.541176 0.509804 0.635294
0.643137 0.513725 0.647059
0.725490 0.517647 0.647059
0.803922 0.513725 0.647059
0.050980 0.596078 0.635294
0.180392 0.592157 0.639216
0.317647 0.596078 0.635294
0.439216 0.600000 0.643137
0.545098 0.600000 0.643137
0.639216 0.607843 0.643137
0.725490 0.611765 0.647059
0.807843 0.603922 0.654902
0.050980 0.674510 0.635294
0.188235 0.674510 0.635294
0.317647 0.678431 0.647059
0.439216 0.686275 0.647059
0.552941 0.682353 0.647059
0.650980 0.682353 0.654902
0.725490 0.686275 0.654902
0.807843 0.690196 0.658824
0.054902 0.749020 0.639216
0.192157 0.756863 0.647059
0.321569 0.760784 0.647059
0.447059 0.760784 0.643137
0.556863 0.760784 0.658824
0.647059 0.764706 0.654902
0.737255 0.764706 0.658824
0.815686 0.772549 0.662745
0.019608 0.019608 0.682353
0.160784 0.027451 0.678431
0.294118 0.027451 0.690196
0.411765 0.031373 0.686275
0.525490 0.035294 0.690196
0.615686 0.035294 0.694118
0.705882 0.035294 0.698039
0.788235 0.039216 0.701961
0.035294 0.152941 0.694118
0.168627 0.152941 0.694118
0.298039 0.156863 0.686275
0.423529 0.156863 0.694118
0.525490 0.164706 0.698039
0.623529 0.160784 0.694118
0.705882 0.164706 0.698039
0.792157 0.168627 0.709804
0.039216 0.274510 0.686275
0.172549 0.274510 0.694118
0.301961 0.278431 0.698039
0.423529 0.286275 0.698039
0.533333 0.282353 0.705882
0.631373 0.286275 0.705882
0.709804 0.294118 0.701961
0.796078 0.290196 0.701961
0.043137 0.396078 0.694118
0.176471 0.396078 0.698039
0.313725 0.396078 0.705882
0.435294 0.403922 0.709804
0.541176 0.403922 0.709804
0.635294 0.407843 0.709804
0.717647 0.407843 0.709804
0.800000 0.411765 0.713725
0.050980 0.501961 0.698039
0.180392 0.501961 0.705882
0.305882 0.505882 0.705882
0.435294 0.509804 0.709804
0.537255 0.513725 0.709804
0.643137 0.513725 0.717647
0.721569 0.513725 0.709804
0.800000 0.517647 0.721569
0.047059 0.592157 0.705882
0.184314 0.592157 0.705882
0.313725 0.596078 0.713725
0.439216 0.600000 0.717647
0.549020 0.603922 0.709804
0.643137 0.603922 0.725490
0.733333 0.607843 0.721569
0.803922 0.607843 0.721569
0.054902 0.674510 0.705882
0.188235 0.674510 0.717647
0.317647 0.678431 0.717647
0.435294 0.682353 0.713725
0.552941 0.682353 0.721569
0.650980 0.690196 0.721569
0.729412 0.686275 0.717647
0.811765 0.690196 0.721569
0.058824 0.749020 0.713725
0.196078 0.756863 0.717647
0.321569 0.756863 0.717647
0.443137 0.760784 0.725490
0.549020 0.764706 0.717647
0.650980 0.764706 0.717647
0.733333 0.768627 0.729412
0.815686 0.764706 0.729412
