luts/full/oat-milk.cube
TITLE "oat-milk (full)"
LUT_3D_SIZE 8
0.086275 0.070588 0.058824
0.215686 0.074510 0.058824
0.349020 0.074510 0.058824
0.466667 0.078431 0.058824
0.549020 0.078431 0.070588
0.623529 0.078431 0.082353
0.686275 0.074510 0.094118
0.756863 0.078431 0.094118
0.086275 0.207843 0.058824
0.219608 0.207843 0.062745
0.349020 0.215686 0.062745
0.470588 0.207843 0.054902
0.549020 0.215686 0.066667
0.619608 0.211765 0.090196
0.686275 0.211765 0.105882
0.764706 0.211765 0.105882
0.082353 0.345098 0.058824
0.223529 0.341176 0.058824
0.352941 0.345098 0.070588
0.470588 0.345098 0.066667
0.549020 0.345098 0.074510
0.627451 0.345098 0.094118
0.690196 0.345098 0.101961
0.760784 0.345098 0.101961
0.086275 0.462745 0.070588
0.215686 0.466667 0.070588
0.349020 0.470588 0.070588
0.466667 0.470588 0.070588
0.549020 0.470588 0.074510
0.623529 0.470588 0.094118
0.694118 0.466667 0.098039
0.764706 0.470588 0.098039
0.058824 0.568627 0.074510
0.200000 0.568627 0.078431
0.329412 0.572549 0.078431
0.454902 0.568627 0.074510
0.549020 0.576471 0.074510
0.627451 0.572549 0.090196
0.694118 0.576471 0.105882
0.772549 0.572549 0.105882
0.039216 0.666667 0.098039
0.176471 0.670588 0.094118
0.305882 0.666667 0.090196
0.427451 0.674510 0.098039
0.529412 0.666667 0.094118
0.623529 0.674510 0.101961
0.694118 0.670588 0.105882
0.772549 0.674510 0.109804
0.023529 0.745098 0.101961
0.160784 0.745098 0.101961
0.294118 0.749020 0.101961
0.411765 0.749020 0.101961
0.521569 0.749020 0.109804
0.619608 0.752941 0.109804
0.694118 0.752941 0.109804
0.772549 0.752941 0.105882
0.027451 0.823529 0.098039
0.160784 0.823529 0.101961
0.290196 0.827451 0.101961
0.415686 0.827451 0.105882
0.513725 0.827451 0.105882
0.615686 0.831373 0.105882
0.701961 0.827451 0.105882
0.768627 0.831373 0.105882
0.090196 0.074510 0.184314
0.219608 0.078431 0.188235
0.345098 0.074510 0.192157
0.462745 0.074510 0.196078
0.545098 0.078431 0.207843
0.619608 0.078431 0.223529
0.686275 0.082353 0.231373
0.756863 0.082353 0.231373
0.086275 0.203922 0.192157
0.223529 0.207843 0.196078
0.345098 0.215686 0.196078
0.435294 0.211765 0.207843
0.517647 0.211765 0.227451
0.603922 0.215686 0.231373
0.686275 0.211765 0.231373
0.764706 0.219608 0.231373
0.082353 0.341176 0.192157
0.219608 0.341176 0.192157
0.352941 0.341176 0.196078
0.439216 0.341176 0.215686
0.521569 0.345098 0.223529
0.611765 0.345098 0.227451
0.690196 0.349020 0.231373
0.768627 0.349020 0.231373
0.086275 0.462745 0.192157
0.188235 0.470588 0.215686
0.317647 0.466667 0.211765
0.447059 0.470588 0.211765
0.517647 0.470588 0.227451
0.607843 0.466667 0.239216
0.694118 0.470588 0.243137
0.764706 0.474510 0.243137
0.066667 0.572549 0.211765
0.168627 0.572549 0.227451
0.294118 0.576471 0.231373
0.419608 0.572549 0.235294
0.525490 0.572549 0.235294
0.611765 0.576471 0.239216
0.690196 0.576471 0.239216
0.768627 0.572549 0.239216
0.047059 0.662745 0.223529
0.160784 0.666667 0.235294
0.294118 0.666667 0.239216
0.411765 0.670588 0.235294
0.517647 0.670588 0.235294
0.619608 0.670588 0.243137
0.694118 0.674510 0.243137
0.772549 0.670588 0.243137
0.031373 0.749020 0.239216
0.160784 0.752941 0.239216
0.294118 0.752941 0.239216
0.411765 0.756863 0.239216
0.517647 0.756863 0.239216
0.615686 0.752941 0.243137
0.694118 0.749020 0.239216
0.772549 0.756863 0.243137
0.031373 0.823529 0.243137
0.168627 0.827451 0.239216
0.294118 0.831373 0.239216
0.419608 0.827451 0.243137
0.521569 0.831373 0.243137
0.615686 0.827451 0.239216
0.701961 0.831373 0.243137
0.772549 0.831373 0.250980
0.086275 0.074510 0.317647
0.215686 0.078431 0.321569
0.349020 0.078431 0.321569
0.466667 0.078431 0.325490
0.545098 0.078431 0.333333
0.623529 0.078431 0.352941
0.686275 0.078431 0.356863
0.760784 0.082353 0.352941
0.086275 0.211765 0.321569
0.215686 0.207843 0.317647
0.345098 0.211765 0.321569
0.439216 0.215686 0.337255
0.521569 0.211765 0.352941
0.603922 0.211765 0.364706
0.686275 0.215686 0.364706
0.764706 0.215686 0.364706
0.082353 0.345098 0.321569
0.215686 0.341176 0.325490
0.317647 0.345098 0.352941
0.407843 0.341176 0.364706
0.509804 0.345098 0.364706
0.607843 0.345098 0.360784
0.690196 0.349020 0.364706
0.764706 0.349020 0.364706
0.086275 0.466667 0.329412
0.188235 0.466667 0.345098
0.290196 0.466667 0.360784
0.411765 0.466667 0.368627
0.513725 0.466667 0.368627
0.615686 0.470588 0.368627
0.694118 0.470588 0.368627
0.772549 0.466667 0.364706
0.062745 0.572549 0.345098
0.168627 0.568627 0.360784
0.290196 0.576471 0.364706
0.415686 0.572549 0.368627
0.521569 0.572549 0.368627
0.611765 0.576471 0.364706
0.694118 0.576471 0.368627
0.776471 0.576471 0.376471
0.043137 0.662745 0.356863
0.164706 0.670588 0.364706
0.294118 0.666667 0.360784
0.411765 0.670588 0.360784
0.521569 0.670588 0.360784
0.619608 0.670588 0.376471
0.694118 0.670588 0.376471
0.772549 0.670588 0.372549
0.031373 0.745098 0.360784
0.160784 0.749020 0.364706
0.294118 0.752941 0.364706
0.419608 0.749020 0.368627
0.521569 0.752941 0.368627
0.615686 0.749020 0.372549
0.701961 0.752941 0.368627
0.772549 0.752941 0.376471
0.027451 0.827451 0.360784
0.168627 0.823529 0.360784
0.298039 0.827451 0.372549
0.419608 0.827451 0.368627
0.517647 0.831373 0.368627
0.615686 0.835294 0.376471
0.701961 0.831373 0.376471
0.776471 0.831373 0.376471
0.082353 0.074510 0.443137
0.211765 0.078431 0.443137
0.341176 0.074510 0.443137
0.462745 0.082353 0.450980
0.541176 0.078431 0.458824
0.619608 0.082353 0.478431
0.686275 0.078431 0.478431
0.760784 0.078431 0.478431
0.078431 0.207843 0.443137
0.188235 0.211765 0.462745
0.313725 0.211765 0.458824
0.443137 0.215686 0.462745
0.521569 0.211765 0.474510
0.603922 0.211765 0.478431
0.690196 0.215686 0.482353
0.768627 0.215686 0.482353
0.090196 0.341176 0.450980
0.184314 0.345098 0.462745
0.286275 0.345098 0.486275
0.403922 0.345098 0.482353
0.509804 0.345098 0.482353
0.611765 0.349020 0.482353
0.690196 0.345098 0.490196
0.764706 0.349020 0.490196
0.090196 0.466667 0.447059
0.188235 0.466667 0.462745
0.282353 0.470588 0.478431
0.415686 0.466667 0.482353
0.509804 0.470588 0.490196
0.611765 0.474510 0.494118
0.694118 0.466667 0.490196
0.768627 0.470588 0.490196
0.062745 0.572549 0.462745
0.168627 0.568627 0.478431
0.298039 0.568627 0.486275
0.415686 0.572549 0.494118
0.517647 0.576471 0.494118
0.607843 0.576471 0.490196
0.698039 0.576471 0.490196
0.768627 0.576471 0.490196
0.047059 0.666667 0.486275
0.160784 0.670588 0.490196
0.290196 0.666667 0.486275
0.411765 0.674510 0.490196
0.521569 0.674510 0.490196
0.615686 0.670588 0.494118
0.690196 0.674510 0.490196
0.768627 0.674510 0.490196
0.027451 0.749020 0.486275
0.160784 0.749020 0.486275
0.298039 0.749020 0.490196
0.419608 0.749020 0.486275
0.521569 0.752941 0.486275
0.623529 0.752941 0.494118
0.701961 0.752941 0.494118
0.772549 0.752941 0.501961
0.027451 0.823529 0.494118
0.164706 0.827451 0.486275
0.294118 0.831373 0.486275
0.415686 0.827451 0.494118
0.517647 0.831373 0.494118
0.619608 0.831373 0.501961
0.698039 0.831373 0.501961
0.776471 0.831373 0.498039
0.054902 0.074510 0.556863
0.188235 0.074510 0.552941
0.325490 0.078431 0.552941
0.447059 0.074510 0.556863
0.541176 0.082353 0.556863
0.623529 0.074510 0.580392
0.690196 0.078431 0.588235
0.768627 0.078431 0.588235
0.054902 0.211765 0.560784
0.160784 0.207843 0.576471
0.298039 0.211765 0.580392
0.415686 0.211765 0.584314
0.521569 0.211765 0.584314
0.607843 0.215686 0.588235
0.690196 0.219608 0.592157
0.768627 0.215686 0.592157
0.062745 0.341176 0.568627
0.156863 0.341176 0.584314
0.286275 0.345098 0.592157
0.411765 0.345098 0.592157
0.513725 0.349020 0.592157
0.607843 0.345098 0.588235
0.694118 0.349020 0.592157
0.764706 0.352941 0.588235
0.062745 0.466667 0.560784
0.172549 0.466667 0.592157
0.290196 0.470588 0.588235
0.415686 0.466667 0.584314
0.517647 0.470588 0.584314
0.607843 0.470588 0.588235
0.698039 0.470588 0.592157
0.768627 0.470588 0.600000
0.062745 0.572549 0.560784
0.168627 0.568627 0.588235
0.294118 0.568627 0.584314
0.415686 0.576471 0.592157
0.525490 0.576471 0.592157
0.615686 0.576471 0.596078
0.694118 0.572549 0.596078
0.776471 0.576471 0.600000
0.043137 0.666667 0.580392
0.156863 0.670588 0.584314
0.290196 0.670588 0.588235
0.407843 0.670588 0.592157
0.517647 0.670588 0.592157
0.615686 0.674510 0.600000
0.698039 0.674510 0.592157
0.768627 0.674510 0.600000
0.027451 0.749020 0.588235
0.168627 0.749020 0.588235
0.298039 0.752941 0.600000
0.423529 0.749020 0.596078
0.521569 0.752941 0.596078
0.619608 0.749020 0.600000
0.701961 0.756863 0.596078
0.776471 0.756863 0.592157
0.031373 0.827451 0.592157
0.164706 0.827451 0.596078
0.294118 0.831373 0.596078
0.415686 0.831373 0.592157
0.525490 0.831373 0.592157
0.615686 0.831373 0.596078
0.698039 0.835294 0.600000
0.776471 0.831373 0.600000
0.035294 0.070588 0.666667
0.168627 0.070588 0.666667
0.298039 0.074510 0.670588
0.423529 0.074510 0.666667
0.521569 0.078431 0.666667
0.623529 0.082353 0.674510
0.686275 0.078431 0.678431
0.764706 0.078431 0.674510
0.035294 0.211765 0.670588
0.152941 0.211765 0.674510
0.286275 0.211765 0.674510
0.403922 0.211765 0.678431
0.513725 0.211765 0.682353
0.611765 0.215686 0.682353
0.686275 0.215686 0.686275
0.764706 0.215686 0.686275
0.039216 0.341176 0.666667
0.156863 0.341176 0.678431
0.290196 0.345098 0.674510
0.415686 0.341176 0.686275
0.509804 0.345098 0.686275
0.607843 0.349020 0.686275
0.694118 0.345098 0.686275
0.760784 0.349020 0.686275
0.035294 0.466667 0.670588
0.164706 0.466667 0.686275
0.286275 0.466667 0.682353
0.411765 0.466667 0.682353
0.517647 0.466667 0.682353
0.615686 0.470588 0.690196
0.694118 0.470588 0.690196
0.772549 0.470588 0.686275
0.043137 0.568627 0.678431
0.160784 0.572549 0.682353
0.294118 0.572549 0.682353
0.411765 0.572549 0.690196
0.521569 0.572549 0.690196
0.615686 0.572549 0.686275
0.694118 0.576471 0.690196
0.772549 0.576471 0.686275
0.047059 0.670588 0.682353
0.164706 0.670588 0.686275
0.294118 0.666667 0.682353
0.415686 0.674510 0.686275
0.525490 0.674510 0.686275
0.619608 0.670588 0.690196
0.698039 0.670588 0.690196
0.776471 0.674510 0.698039
0.031373 0.745098 0.682353
0.164706 0.749020 0.686275
0.294118 0.752941 0.686275
0.419608 0.749020 0.682353
0.517647 0.752941 0.690196
0.619608 0.756863 0.690196
0.698039 0.752941 0.690196
0.780392 0.752941 0.690196
0.027451 0.827451 0.682353
0.168627 0.823529 0.682353
0.298039 0.827451 0.686275
0.419608 0.827451 0.690196
0.521569 0.831373 0.690196
0.615686 0.835294 0.698039
0.701961 0.831373 0.698039
0.772549 0.831373 0.698039
0.019608 0.078431 0.752941
0.160784 0.074510 0.756863
0.278431 0.078431 0.752941
0.411765 0.078431 0.760784
0.513725 0.082353 0.760784
0.603922 0.082353 0.756863
0.690196 0.078431 0.756863
0.764706 0.086275 0.760784
0.019608 0.207843 0.752941
0.156863 0.207843 0.760784
0.290196 0.207843 0.764706
0.407843 0.211765 0.760784
0.509804 0.215686 0.760784
0.611765 0.219608 0.760784
0.690196 0.215686 0.760784
0.760784 0.219608 0.760784
0.023529 0.337255 0.760784
0.152941 0.341176 0.760784
0.286275 0.345098 0.760784
0.411765 0.345098 0.760784
0.513725 0.345098 0.760784
0.611765 0.349020 0.760784
0.690196 0.345098 0.768627
0.764706 0.349020 0.764706
0.027451 0.466667 0.764706
0.160784 0.470588 0.760784
0.286275 0.470588 0.756863
0.411765 0.470588 0.772549
0.517647 0.466667 0.768627
0.611765 0.474510 0.768627
0.690196 0.470588 0.768627
0.768627 0.470588 0.768627
0.027451 0.568627 0.760784
0.156863 0.572549 0.764706
0.294118 0.572549 0.772549
0.411765 0.576471 0.768627
0.517647 0.576471 0.768627
0.619608 0.576471 0.768627
0.690196 0.580392 0.768627
0.768627 0.580392 0.768627
0.031373 0.666667 0.772549
0.160784 0.670588 0.768627
0.294118 0.674510 0.768627
0.419608 0.670588 0.772549
0.521569 0.674510 0.772549
0.615686 0.670588 0.768627
0.701961 0.674510 0.772549
0.772549 0.678431 0.772549
0.027451 0.749020 0.764706
0.160784 0.749020 0.764706
0.290196 0.752941 0.768627
0.415686 0.752941 0.764706
0.517647 0.756863 0.764706
0.615686 0.756863 0.772549
0.701961 0.752941 0.772549
0.776471 0.752941 0.776471
0.027451 0.823529 0.768627
0.164706 0.827451 0.764706
0.294118 0.831373 0.764706
0.415686 0.827451 0.768627
0.525490 0.827451 0.768627
0.619608 0.831373 0.776471
0.698039 0.831373 0.776471
0.776471 0.831373 0.776471
0.019608 0.074510 0.835294
0.156863 0.078431 0.835294
0.278431 0.078431 0.831373
0.407843 0.082353 0.835294
0.517647 0.082353 0.835294
0.603922 0.082353 0.839216
0.686275 0.078431 0.839216
0.764706 0.078431 0.835294
0.023529 0.207843 0.831373
0.152941 0.211765 0.827451
0.286275 0.211765 0.835294
0.403922 0.215686 0.839216
0.513725 0.211765 0.839216
0.611765 0.215686 0.843137
0.686275 0.219608 0.839216
0.764706 0.215686 0.839216
0.019608 0.341176 0.839216
0.160784 0.337255 0.839216
0.290196 0.345098 0.835294
0.415686 0.341176 0.839216
0.513725 0.345098 0.839216
0.615686 0.349020 0.839216
0.694118 0.345098 0.839216
0.768627 0.349020 0.839216
0.027451 0.466667 0.839216
0.164706 0.470588 0.839216
0.286275 0.470588 0.835294
0.415686 0.474510 0.839216
0.517647 0.466667 0.835294
0.611765 0.474510 0.843137
0.694118 0.470588 0.847059
0.772549 0.470588 0.847059
0.031373 0.568627 0.843137
0.160784 0.572549 0.835294
0.294118 0.572549 0.835294
0.411765 0.576471 0.843137
0.521569 0.572549 0.850980
0.615686 0.572549 0.847059
0.694118 0.576471 0.850980
0.772549 0.576471 0.847059
0.027451 0.670588 0.839216
0.164706 0.670588 0.839216
0.298039 0.670588 0.847059
0.423529 0.670588 0.847059
0.521569 0.674510 0.847059
0.619608 0.670588 0.850980
0.698039 0.670588 0.839216
0.776471 0.674510 0.850980
0.031373 0.749020 0.835294
0.164706 0.749020 0.847059
0.294118 0.752941 0.847059
0.419608 0.752941 0.843137
0.517647 0.752941 0.843137
0.619608 0.756863 0.843137
0.698039 0.756863 0.843137
0.776471 0.752941 0.843137
0.027451 0.827451 0.843137
0.168627 0.823529 0.843137
0.294118 0.827451 0.847059
0.419608 0.827451 0.843137
0.525490 0.827451 0.843137
0.619608 0.831373 0.850980
0.701961 0.831373 0.850980
0.780392 0.831373 0.850980
