luts/full/oat-milk.cube
TITLE "oat-milk (full)"
LUT_3D_SIZE 6
0.086275 0.070588 0.058824
0.270588 0.074510 0.062745
0.439216 0.078431 0.054902
0.568627 0.078431 0.074510
0.662745 0.078431 0.098039
0.756863 0.078431 0.094118
0.086275 0.262745 0.058824
0.266667 0.262745 0.058824
0.447059 0.266667 0.066667
0.568627 0.270588 0.086275
0.658824 0.266667 0.105882
0.764706 0.266667 0.105882
0.086275 0.443137 0.062745
0.270588 0.439216 0.062745
0.447059 0.443137 0.070588
0.572549 0.447059 0.086275
0.662745 0.443137 0.098039
0.764706 0.447059 0.098039
0.062745 0.592157 0.082353
0.250980 0.592157 0.086275
0.419608 0.596078 0.082353
0.568627 0.600000 0.078431
0.666667 0.596078 0.101961
0.768627 0.600000 0.109804
0.035294 0.717647 0.101961
0.215686 0.717647 0.101961
0.396078 0.721569 0.101961
0.549020 0.717647 0.105882
0.666667 0.721569 0.113725
0.772549 0.721569 0.113725
0.027451 0.823529 0.098039
0.215686 0.827451 0.101961
0.396078 0.827451 0.109804
0.545098 0.831373 0.109804
0.666667 0.827451 0.113725
0.768627 0.831373 0.105882
0.082353 0.074510 0.247059
0.274510 0.078431 0.243137
0.435294 0.078431 0.243137
0.564706 0.078431 0.270588
0.654902 0.078431 0.282353
0.756863 0.082353 0.282353
0.086275 0.266667 0.243137
0.270588 0.266667 0.250980
0.411765 0.266667 0.278431
0.541176 0.266667 0.290196
0.658824 0.270588 0.286275
0.764706 0.270588 0.286275
0.090196 0.443137 0.250980
0.227451 0.443137 0.274510
0.415686 0.443137 0.274510
0.537255 0.447059 0.290196
0.662745 0.447059 0.286275
0.764706 0.447059 0.294118
0.058824 0.592157 0.270588
0.215686 0.596078 0.290196
0.384314 0.596078 0.282353
0.545098 0.592157 0.290196
0.666667 0.600000 0.298039
0.772549 0.600000 0.290196
0.027451 0.713725 0.286275
0.215686 0.721569 0.290196
0.392157 0.721569 0.298039
0.545098 0.721569 0.298039
0.670588 0.721569 0.294118
0.772549 0.725490 0.294118
0.031373 0.819608 0.294118
0.215686 0.831373 0.290196
0.396078 0.831373 0.298039
0.541176 0.835294 0.298039
0.670588 0.831373 0.294118
0.780392 0.831373 0.294118
0.078431 0.074510 0.415686
0.266667 0.078431 0.427451
0.447059 0.078431 0.427451
0.564706 0.078431 0.439216
0.658824 0.078431 0.462745
0.760784 0.082353 0.462745
0.078431 0.266667 0.427451
0.231373 0.262745 0.447059
0.403922 0.266667 0.447059
0.537255 0.266667 0.458824
0.654902 0.270588 0.454902
0.764706 0.266667 0.462745
0.082353 0.443137 0.419608
0.235294 0.447059 0.447059
0.392157 0.443137 0.462745
0.537255 0.443137 0.466667
0.662745 0.443137 0.462745
0.772549 0.447059 0.470588
0.058824 0.592157 0.447059
0.215686 0.592157 0.466667
0.388235 0.600000 0.466667
0.541176 0.600000 0.462745
0.658824 0.600000 0.466667
0.772549 0.596078 0.466667
0.035294 0.717647 0.466667
0.211765 0.717647 0.466667
0.392157 0.721569 0.466667
0.545098 0.721569 0.466667
0.670588 0.721569 0.462745
0.768627 0.721569 0.470588
0.027451 0.827451 0.470588
0.219608 0.823529 0.466667
0.396078 0.827451 0.466667
0.541176 0.831373 0.474510
0.662745 0.831373 0.470588
0.784314 0.831373 0.474510
0.050980 0.078431 0.588235
0.239216 0.074510 0.584314
0.419608 0.078431 0.584314
0.564706 0.082353 0.584314
0.658824 0.082353 0.607843
0.764706 0.082353 0.615686
0.054902 0.262745 0.584314
0.207843 0.266667 0.603922
0.388235 0.266667 0.611765
0.537255 0.266667 0.607843
0.654902 0.270588 0.615686
0.764706 0.270588 0.607843
0.054902 0.443137 0.588235
0.211765 0.443137 0.615686
0.392157 0.443137 0.611765
0.537255 0.447059 0.611765
0.662745 0.447059 0.607843
0.768627 0.447059 0.607843
0.058824 0.596078 0.592157
0.215686 0.596078 0.611765
0.388235 0.600000 0.611765
0.545098 0.596078 0.615686
0.666667 0.600000 0.619608
0.772549 0.600000 0.619608
0.031373 0.721569 0.611765
0.211765 0.721569 0.611765
0.400000 0.717647 0.619608
0.545098 0.721569 0.619608
0.670588 0.721569 0.623529
0.768627 0.725490 0.615686
0.035294 0.827451 0.611765
0.219608 0.823529 0.619608
0.396078 0.831373 0.619608
0.541176 0.835294 0.619608
0.670588 0.831373 0.615686
0.776471 0.831373 0.615686
0.019608 0.074510 0.717647
0.215686 0.074510 0.729412
0.392157 0.078431 0.729412
0.537255 0.082353 0.725490
0.658824 0.082353 0.733333
0.768627 0.082353 0.733333
0.027451 0.262745 0.729412
0.207843 0.266667 0.729412
0.380392 0.270588 0.729412
0.541176 0.270588 0.725490
0.662745 0.266667 0.729412
0.764706 0.270588 0.733333
0.027451 0.443137 0.729412
0.211765 0.443137 0.729412
0.384314 0.447059 0.737255
0.537255 0.447059 0.737255
0.662745 0.447059 0.733333
0.772549 0.450980 0.737255
0.035294 0.596078 0.729412
0.215686 0.596078 0.733333
0.388235 0.600000 0.733333
0.541176 0.600000 0.741176
0.658824 0.603922 0.737255
0.772549 0.600000 0.737255
0.035294 0.717647 0.737255
0.215686 0.721569 0.737255
0.392157 0.721569 0.737255
0.541176 0.725490 0.733333
0.670588 0.721569 0.741176
0.772549 0.725490 0.741176
0.027451 0.831373 0.737255
0.223529 0.823529 0.737255
0.396078 0.831373 0.737255
0.549020 0.827451 0.741176
0.666667 0.831373 0.741176
0.784314 0.831373 0.745098
0.019608 0.074510 0.835294
0.207843 0.074510 0.835294
0.380392 0.078431 0.831373
0.533333 0.078431 0.839216
0.658824 0.078431 0.835294
0.764706 0.078431 0.835294
0.023529 0.262745 0.831373
0.207843 0.266667 0.835294
0.388235 0.270588 0.835294
0.541176 0.270588 0.843137
0.666667 0.266667 0.839216
0.764706 0.270588 0.839216
0.027451 0.447059 0.839216
0.211765 0.443137 0.839216
0.388235 0.447059 0.839216
0.545098 0.447059 0.835294
0.662745 0.447059 0.843137
0.768627 0.447059 0.843137
0.027451 0.592157 0.839216
0.215686 0.596078 0.843137
0.392157 0.600000 0.850980
0.541176 0.600000 0.850980
0.666667 0.600000 0.847059
0.772549 0.600000 0.847059
0.031373 0.713725 0.843137
0.215686 0.721569 0.847059
0.396078 0.725490 0.843137
0.541176 0.725490 0.850980
0.670588 0.721569 0.847059
0.780392 0.721569 0.847059
0.027451 0.827451 0.843137
0.223529 0.827451 0.847059
0.396078 0.831373 0.847059
0.549020 0.831373 0.843137
0.666667 0.835294 0.847059
0.780392 0.831373 0.850980
