luts/full/oat-milk.cube
TITLE "oat-milk (full)"
LUT_3D_SIZE 36
0.086275 0.070588 0.058824
0.105882 0.074510 0.058824
0.133333 0.074510 0.058824
0.164706 0.074510 0.062745
0.192157 0.078431 0.062745
0.215686 0.074510 0.058824
0.243137 0.074510 0.058824
0.270588 0.074510 0.062745
0.298039 0.078431 0.062745
0.321569 0.074510 0.058824
0.349020 0.074510 0.058824
0.376471 0.074510 0.062745
0.396078 0.074510 0.058824
0.411765 0.074510 0.054902
0.439216 0.078431 0.054902
0.466667 0.078431 0.058824
0.482353 0.074510 0.062745
0.494118 0.078431 0.058824
0.521569 0.078431 0.066667
0.533333 0.078431 0.070588
0.549020 0.078431 0.070588
0.568627 0.078431 0.074510
0.580392 0.078431 0.078431
0.596078 0.078431 0.082353
0.607843 0.078431 0.086275
0.623529 0.078431 0.082353
0.635294 0.078431 0.090196
0.639216 0.074510 0.090196
0.662745 0.078431 0.098039
0.670588 0.078431 0.090196
0.686275 0.074510 0.094118
0.698039 0.078431 0.090196
0.705882 0.078431 0.094118
0.725490 0.078431 0.090196
0.741176 0.078431 0.090196
0.756863 0.078431 0.094118
0.090196 0.098039 0.058824
0.117647 0.098039 0.062745
0.141176 0.101961 0.062745
0.164706 0.098039 0.058824
0.192157 0.101961 0.058824
0.219608 0.101961 0.062745
0.243137 0.098039 0.058824
0.270588 0.098039 0.058824
0.298039 0.101961 0.058824
0.321569 0.105882 0.062745
0.345098 0.101961 0.058824
0.372549 0.101961 0.058824
0.396078 0.098039 0.054902
0.415686 0.101961 0.058824
0.439216 0.105882 0.058824
0.462745 0.105882 0.054902
0.482353 0.109804 0.054902
0.501961 0.105882 0.062745
0.517647 0.105882 0.066667
0.533333 0.101961 0.070588
0.545098 0.105882 0.066667
0.564706 0.105882 0.070588
0.584314 0.105882 0.082353
0.592157 0.101961 0.082353
0.600000 0.105882 0.086275
0.619608 0.105882 0.082353
0.631373 0.105882 0.086275
0.647059 0.105882 0.090196
0.658824 0.105882 0.094118
0.674510 0.105882 0.090196
0.686275 0.105882 0.098039
0.701961 0.105882 0.094118
0.713725 0.105882 0.098039
0.729412 0.105882 0.094118
0.741176 0.109804 0.090196
0.756863 0.109804 0.094118
0.086275 0.125490 0.058824
0.113725 0.125490 0.058824
0.141176 0.125490 0.058824
0.164706 0.129412 0.062745
0.192157 0.133333 0.062745
0.215686 0.129412 0.058824
0.243137 0.129412 0.058824
0.270588 0.129412 0.062745
0.298039 0.129412 0.062745
0.321569 0.129412 0.058824
0.349020 0.129412 0.058824
0.376471 0.129412 0.062745
0.396078 0.129412 0.058824
0.423529 0.129412 0.058824
0.439216 0.129412 0.054902
0.462745 0.133333 0.058824
0.486275 0.133333 0.054902
0.494118 0.133333 0.058824
0.517647 0.137255 0.066667
0.533333 0.133333 0.074510
0.545098 0.137255 0.070588
0.568627 0.133333 0.074510
0.580392 0.133333 0.078431
0.596078 0.133333 0.074510
0.607843 0.133333 0.078431
0.619608 0.137255 0.082353
0.635294 0.133333 0.090196
0.643137 0.129412 0.090196
0.662745 0.133333 0.098039
0.670588 0.133333 0.090196
0.686275 0.129412 0.094118
0.701961 0.129412 0.090196
0.713725 0.129412 0.094118
0.733333 0.129412 0.094118
0.745098 0.137255 0.094118
0.764706 0.137255 0.098039
0.086275 0.152941 0.058824
0.113725 0.156863 0.062745
0.149020 0.152941 0.062745
0.172549 0.149020 0.058824
0.192157 0.152941 0.058824
0.219608 0.156863 0.062745
0.243137 0.160784 0.062745
0.266667 0.156863 0.058824
0.298039 0.152941 0.058824
0.321569 0.156863 0.062745
0.345098 0.156863 0.058824
0.372549 0.156863 0.058824
0.396078 0.160784 0.062745
0.419608 0.156863 0.058824
0.447059 0.156863 0.058824
0.462745 0.156863 0.054902
0.486275 0.160784 0.054902
0.501961 0.160784 0.062745
0.517647 0.156863 0.066667
0.537255 0.156863 0.070588
0.545098 0.160784 0.066667
0.564706 0.156863 0.070588
0.584314 0.160784 0.082353
0.592157 0.160784 0.074510
0.603922 0.160784 0.078431
0.619608 0.156863 0.082353
0.631373 0.160784 0.086275
0.639216 0.160784 0.090196
0.658824 0.160784 0.094118
0.670588 0.160784 0.094118
0.686275 0.160784 0.098039
0.701961 0.160784 0.094118
0.721569 0.160784 0.090196
0.729412 0.160784 0.094118
0.749020 0.160784 0.098039
0.760784 0.160784 0.105882
0.090196 0.184314 0.062745
0.113725 0.180392 0.058824
0.141176 0.180392 0.058824
0.172549 0.180392 0.062745
0.200000 0.180392 0.062745
0.219608 0.188235 0.062745
0.243137 0.184314 0.058824
0.270588 0.184314 0.062745
0.298039 0.184314 0.062745
0.321569 0.180392 0.058824
0.349020 0.184314 0.062745
0.380392 0.184314 0.062745
0.396078 0.184314 0.058824
0.423529 0.184314 0.058824
0.447059 0.180392 0.054902
0.466667 0.184314 0.058824
0.486275 0.184314 0.054902
0.498039 0.188235 0.058824
0.517647 0.188235 0.066667
0.533333 0.188235 0.074510
0.545098 0.192157 0.070588
0.564706 0.188235 0.074510
0.580392 0.188235 0.078431
0.592157 0.188235 0.074510
0.607843 0.188235 0.078431
0.619608 0.188235 0.086275
0.635294 0.188235 0.090196
0.647059 0.188235 0.094118
0.662745 0.188235 0.098039
0.670588 0.184314 0.090196
0.686275 0.184314 0.094118
0.698039 0.184314 0.098039
0.721569 0.188235 0.101961
0.737255 0.188235 0.105882
0.752941 0.188235 0.101961
0.764706 0.188235 0.105882
0.086275 0.207843 0.058824
0.113725 0.211765 0.062745
0.141176 0.211765 0.062745
0.164706 0.207843 0.058824
0.192157 0.207843 0.058824
0.219608 0.207843 0.062745
0.243137 0.215686 0.062745
0.266667 0.211765 0.058824
0.294118 0.211765 0.062745
0.321569 0.211765 0.062745
0.349020 0.215686 0.062745
0.372549 0.211765 0.058824
0.396078 0.215686 0.062745
0.419608 0.211765 0.058824
0.447059 0.211765 0.058824
0.470588 0.207843 0.054902
0.490196 0.211765 0.058824
0.509804 0.211765 0.062745
0.517647 0.211765 0.066667
0.529412 0.215686 0.070588
0.549020 0.215686 0.066667
0.568627 0.215686 0.078431
0.584314 0.215686 0.082353
0.592157 0.211765 0.082353
0.603922 0.211765 0.086275
0.619608 0.211765 0.090196
0.631373 0.211765 0.094118
0.643137 0.215686 0.098039
0.658824 0.211765 0.105882
0.670588 0.215686 0.101961
0.686275 0.211765 0.105882
0.701961 0.211765 0.101961
0.721569 0.211765 0.098039
0.733333 0.215686 0.101961
0.749020 0.215686 0.098039
0.764706 0.211765 0.105882
0.082353 0.235294 0.058824
0.109804 0.235294 0.058824
0.137255 0.239216 0.058824
0.164706 0.239216 0.062745
0.192157 0.239216 0.062745
0.223529 0.231373 0.058824
0.243137 0.235294 0.062745
0.270588 0.239216 0.062745
0.301961 0.239216 0.062745
0.317647 0.239216 0.058824
0.345098 0.239216 0.062745
0.380392 0.239216 0.062745
0.396078 0.239216 0.058824
0.419608 0.243137 0.058824
0.443137 0.239216 0.058824
0.470588 0.239216 0.058824
0.486275 0.239216 0.062745
0.501961 0.235294 0.066667
0.525490 0.239216 0.078431
0.537255 0.239216 0.082353
0.545098 0.243137 0.078431
0.564706 0.243137 0.082353
0.580392 0.239216 0.086275
0.592157 0.243137 0.082353
0.603922 0.243137 0.086275
0.619608 0.243137 0.094118
0.631373 0.243137 0.098039
0.647059 0.243137 0.101961
0.658824 0.243137 0.105882
0.670588 0.239216 0.098039
0.686275 0.243137 0.105882
0.701961 0.243137 0.105882
0.721569 0.243137 0.101961
0.737255 0.243137 0.105882
0.752941 0.243137 0.101961
0.764706 0.243137 0.105882
0.086275 0.262745 0.058824
0.113725 0.262745 0.062745
0.137255 0.258824 0.058824
0.164706 0.262745 0.058824
0.196078 0.262745 0.062745
0.223529 0.262745 0.062745
0.250980 0.266667 0.062745
0.266667 0.262745 0.058824
0.294118 0.266667 0.062745
0.321569 0.266667 0.062745
0.349020 0.266667 0.062745
0.372549 0.262745 0.058824
0.396078 0.270588 0.062745
0.419608 0.266667 0.058824
0.447059 0.266667 0.066667
0.474510 0.266667 0.070588
0.490196 0.266667 0.066667
0.501961 0.266667 0.070588
0.525490 0.262745 0.074510
0.537255 0.262745 0.078431
0.552941 0.262745 0.074510
0.568627 0.270588 0.086275
0.580392 0.270588 0.090196
0.592157 0.266667 0.082353
0.603922 0.266667 0.086275
0.619608 0.266667 0.090196
0.631373 0.266667 0.094118
0.643137 0.266667 0.098039
0.658824 0.266667 0.105882
0.670588 0.270588 0.101961
0.686275 0.266667 0.105882
0.705882 0.266667 0.101961
0.713725 0.270588 0.098039
0.733333 0.266667 0.101961
0.749020 0.266667 0.101961
0.764706 0.266667 0.105882
0.082353 0.290196 0.058824
0.109804 0.290196 0.058824
0.137255 0.290196 0.062745
0.164706 0.294118 0.062745
0.192157 0.294118 0.062745
0.215686 0.290196 0.058824
0.243137 0.290196 0.062745
0.278431 0.290196 0.062745
0.301961 0.294118 0.062745
0.317647 0.294118 0.058824
0.345098 0.294118 0.062745
0.372549 0.294118 0.062745
0.396078 0.290196 0.066667
0.419608 0.294118 0.070588
0.447059 0.294118 0.070588
0.470588 0.294118 0.066667
0.486275 0.290196 0.062745
0.505882 0.290196 0.066667
0.525490 0.294118 0.078431
0.541176 0.290196 0.082353
0.552941 0.294118 0.078431
0.572549 0.294118 0.082353
0.580392 0.294118 0.086275
0.592157 0.298039 0.082353
0.603922 0.298039 0.090196
0.619608 0.298039 0.094118
0.631373 0.298039 0.098039
0.647059 0.294118 0.101961
0.658824 0.298039 0.105882
0.674510 0.298039 0.101961
0.686275 0.298039 0.101961
0.705882 0.298039 0.105882
0.721569 0.298039 0.101961
0.737255 0.294118 0.105882
0.749020 0.298039 0.101961
0.764706 0.298039 0.105882
0.082353 0.313725 0.054902
0.109804 0.313725 0.058824
0.137255 0.313725 0.058824
0.168627 0.313725 0.058824
0.196078 0.317647 0.062745
0.219608 0.313725 0.058824
0.247059 0.313725 0.058824
0.274510 0.313725 0.058824
0.301961 0.317647 0.062745
0.317647 0.317647 0.058824
0.345098 0.317647 0.066667
0.376471 0.317647 0.070588
0.392157 0.317647 0.066667
0.419608 0.317647 0.066667
0.447059 0.317647 0.066667
0.470588 0.313725 0.062745
0.486275 0.313725 0.062745
0.505882 0.313725 0.066667
0.525490 0.317647 0.074510
0.537255 0.317647 0.078431
0.552941 0.317647 0.074510
0.572549 0.313725 0.082353
0.588235 0.313725 0.086275
0.600000 0.313725 0.090196
0.603922 0.317647 0.094118
0.619608 0.317647 0.090196
0.631373 0.321569 0.094118
0.643137 0.321569 0.101961
0.658824 0.321569 0.105882
0.670588 0.321569 0.101961
0.686275 0.321569 0.105882
0.705882 0.321569 0.101961
0.721569 0.317647 0.105882
0.733333 0.321569 0.101961
0.749020 0.321569 0.101961
0.768627 0.321569 0.105882
0.082353 0.345098 0.058824
0.109804 0.345098 0.058824
0.137255 0.345098 0.062745
0.160784 0.341176 0.058824
0.196078 0.341176 0.058824
0.223529 0.341176 0.058824
0.250980 0.341176 0.062745
0.278431 0.345098 0.062745
0.301961 0.337255 0.066667
0.325490 0.341176 0.070588
0.352941 0.345098 0.070588
0.376471 0.341176 0.066667
0.396078 0.345098 0.066667
0.415686 0.345098 0.062745
0.447059 0.341176 0.066667
0.470588 0.345098 0.066667
0.486275 0.345098 0.062745
0.505882 0.345098 0.066667
0.521569 0.341176 0.074510
0.545098 0.345098 0.082353
0.549020 0.345098 0.074510
0.572549 0.345098 0.082353
0.588235 0.345098 0.086275
0.600000 0.345098 0.090196
0.611765 0.341176 0.082353
0.627451 0.345098 0.094118
0.635294 0.345098 0.094118
0.643137 0.345098 0.098039
0.654902 0.345098 0.101961
0.670588 0.345098 0.098039
0.690196 0.345098 0.101961
0.701961 0.349020 0.101961
0.717647 0.345098 0.105882
0.733333 0.345098 0.101961
0.752941 0.345098 0.098039
0.760784 0.345098 0.101961
0.082353 0.364706 0.054902
0.109804 0.368627 0.058824
0.141176 0.368627 0.058824
0.168627 0.368627 0.058824
0.196078 0.372549 0.062745
0.219608 0.368627 0.058824
0.247059 0.368627 0.066667
0.274510 0.368627 0.070588
0.301961 0.368627 0.070588
0.325490 0.364706 0.066667
0.352941 0.368627 0.066667
0.376471 0.372549 0.070588
0.392157 0.372549 0.066667
0.419608 0.372549 0.066667
0.447059 0.372549 0.066667
0.470588 0.368627 0.066667
0.490196 0.368627 0.062745
0.505882 0.376471 0.070588
0.529412 0.368627 0.074510
0.537255 0.372549 0.078431
0.556863 0.372549 0.074510
0.572549 0.368627 0.082353
0.584314 0.372549 0.086275
0.600000 0.368627 0.082353
0.611765 0.372549 0.086275
0.627451 0.368627 0.090196
0.639216 0.372549 0.094118
0.650980 0.372549 0.101961
0.662745 0.372549 0.105882
0.670588 0.376471 0.101961
0.690196 0.376471 0.105882
0.705882 0.376471 0.101961
0.717647 0.376471 0.098039
0.733333 0.376471 0.105882
0.749020 0.376471 0.101961
0.768627 0.372549 0.105882
0.078431 0.392157 0.054902
0.105882 0.392157 0.054902
0.133333 0.396078 0.058824
0.160784 0.396078 0.058824
0.184314 0.392157 0.062745
0.215686 0.392157 0.062745
0.243137 0.392157 0.066667
0.274510 0.392157 0.066667
0.301961 0.392157 0.066667
0.321569 0.392157 0.062745
0.349020 0.392157 0.066667
0.376471 0.396078 0.066667
0.392157 0.392157 0.062745
0.423529 0.396078 0.066667
0.450980 0.396078 0.066667
0.466667 0.396078 0.062745
0.490196 0.392157 0.066667
0.505882 0.396078 0.074510
0.521569 0.396078 0.074510
0.541176 0.396078 0.078431
0.549020 0.396078 0.082353
0.572549 0.392157 0.078431
0.584314 0.392157 0.082353
0.600000 0.392157 0.086275
0.611765 0.392157 0.094118
0.623529 0.396078 0.098039
0.639216 0.396078 0.094118
0.650980 0.396078 0.098039
0.666667 0.396078 0.101961
0.674510 0.400000 0.105882
0.690196 0.400000 0.105882
0.705882 0.400000 0.101961
0.717647 0.400000 0.105882
0.733333 0.400000 0.101961
0.752941 0.396078 0.105882
0.768627 0.396078 0.101961
0.086275 0.411765 0.058824
0.109804 0.415686 0.062745
0.137255 0.415686 0.062745
0.164706 0.415686 0.070588
0.188235 0.411765 0.070588
0.215686 0.415686 0.062745
0.243137 0.415686 0.062745
0.270588 0.415686 0.062745
0.298039 0.419608 0.066667
0.321569 0.415686 0.062745
0.349020 0.415686 0.062745
0.376471 0.415686 0.066667
0.396078 0.415686 0.070588
0.415686 0.419608 0.070588
0.450980 0.419608 0.070588
0.466667 0.415686 0.066667
0.486275 0.415686 0.066667
0.505882 0.419608 0.074510
0.525490 0.419608 0.070588
0.541176 0.419608 0.074510
0.552941 0.419608 0.078431
0.568627 0.415686 0.086275
0.584314 0.415686 0.082353
0.596078 0.419608 0.086275
0.611765 0.415686 0.090196
0.623529 0.419608 0.094118
0.643137 0.419608 0.090196
0.650980 0.419608 0.098039
0.662745 0.419608 0.101961
0.678431 0.419608 0.105882
0.690196 0.423529 0.101961
0.701961 0.423529 0.105882
0.717647 0.423529 0.101961
0.737255 0.423529 0.098039
0.752941 0.419608 0.105882
0.764706 0.423529 0.101961
0.086275 0.443137 0.062745
0.113725 0.443137 0.070588
0.129412 0.443137 0.070588
0.156863 0.443137 0.070588
0.192157 0.443137 0.062745
0.219608 0.443137 0.062745
0.247059 0.443137 0.066667
0.270588 0.439216 0.062745
0.298039 0.443137 0.062745
0.321569 0.447059 0.066667
0.356863 0.443137 0.066667
0.380392 0.439216 0.062745
0.400000 0.443137 0.062745
0.419608 0.443137 0.066667
0.447059 0.443137 0.070588
0.474510 0.447059 0.070588
0.490196 0.443137 0.066667
0.501961 0.447059 0.070588
0.529412 0.447059 0.074510
0.541176 0.447059 0.078431
0.552941 0.443137 0.078431
0.572549 0.447059 0.086275
0.584314 0.447059 0.082353
0.603922 0.447059 0.086275
0.611765 0.447059 0.094118
0.631373 0.447059 0.098039
0.635294 0.443137 0.090196
0.647059 0.447059 0.094118
0.662745 0.443137 0.098039
0.674510 0.443137 0.101961
0.694118 0.443137 0.098039
0.709804 0.443137 0.105882
0.721569 0.447059 0.101961
0.729412 0.447059 0.098039
0.749020 0.447059 0.101961
0.764706 0.447059 0.098039
0.086275 0.462745 0.070588
0.113725 0.466667 0.070588
0.137255 0.462745 0.066667
0.160784 0.466667 0.066667
0.188235 0.466667 0.070588
0.215686 0.466667 0.070588
0.243137 0.470588 0.070588
0.274510 0.462745 0.066667
0.301961 0.462745 0.070588
0.321569 0.466667 0.070588
0.349020 0.470588 0.070588
0.372549 0.466667 0.066667
0.400000 0.466667 0.070588
0.423529 0.462745 0.066667
0.447059 0.466667 0.066667
0.466667 0.470588 0.070588
0.490196 0.466667 0.066667
0.501961 0.470588 0.070588
0.525490 0.470588 0.078431
0.541176 0.470588 0.082353
0.549020 0.470588 0.074510
0.576471 0.466667 0.086275
0.588235 0.470588 0.090196
0.603922 0.470588 0.086275
0.615686 0.470588 0.090196
0.623529 0.470588 0.094118
0.639216 0.466667 0.094118
0.647059 0.466667 0.098039
0.666667 0.466667 0.098039
0.674510 0.466667 0.101961
0.694118 0.466667 0.098039
0.709804 0.466667 0.101961
0.721569 0.470588 0.098039
0.733333 0.470588 0.101961
0.749020 0.470588 0.101961
0.764706 0.470588 0.098039
0.082353 0.482353 0.062745
0.109804 0.482353 0.062745
0.141176 0.486275 0.062745
0.160784 0.490196 0.066667
0.188235 0.490196 0.066667
0.219608 0.482353 0.062745
0.247059 0.482353 0.066667
0.274510 0.486275 0.066667
0.301961 0.486275 0.066667
0.317647 0.486275 0.062745
0.349020 0.486275 0.066667
0.380392 0.486275 0.066667
0.400000 0.486275 0.062745
0.427451 0.486275 0.062745
0.454902 0.486275 0.066667
0.470588 0.486275 0.062745
0.494118 0.490196 0.070588
0.501961 0.490196 0.074510
0.525490 0.486275 0.070588
0.537255 0.490196 0.078431
0.556863 0.486275 0.082353
0.572549 0.486275 0.078431
0.584314 0.486275 0.082353
0.600000 0.486275 0.086275
0.611765 0.486275 0.090196
0.627451 0.486275 0.098039
0.639216 0.490196 0.094118
0.650980 0.490196 0.098039
0.666667 0.490196 0.101961
0.678431 0.490196 0.105882
0.694118 0.490196 0.101961
0.709804 0.490196 0.101961
0.721569 0.490196 0.105882
0.741176 0.490196 0.101961
0.749020 0.490196 0.105882
0.768627 0.490196 0.101961
0.078431 0.505882 0.066667
0.105882 0.509804 0.070588
0.133333 0.509804 0.070588
0.156863 0.505882 0.066667
0.180392 0.509804 0.066667
0.207843 0.509804 0.070588
0.235294 0.513725 0.070588
0.270588 0.509804 0.070588
0.294118 0.505882 0.066667
0.313725 0.509804 0.070588
0.341176 0.513725 0.070588
0.364706 0.509804 0.066667
0.392157 0.509804 0.070588
0.419608 0.509804 0.070588
0.443137 0.505882 0.066667
0.466667 0.509804 0.066667
0.482353 0.509804 0.070588
0.505882 0.513725 0.074510
0.521569 0.513725 0.078431
0.537255 0.513725 0.074510
0.549020 0.513725 0.078431
0.568627 0.509804 0.082353
0.584314 0.509804 0.082353
0.596078 0.513725 0.086275
0.611765 0.509804 0.090196
0.623529 0.513725 0.094118
0.639216 0.513725 0.090196
0.650980 0.513725 0.094118
0.666667 0.509804 0.101961
0.678431 0.513725 0.105882
0.694118 0.513725 0.101961
0.705882 0.513725 0.105882
0.725490 0.513725 0.101961
0.741176 0.513725 0.098039
0.756863 0.509804 0.101961
0.768627 0.513725 0.101961
0.074510 0.533333 0.074510
0.101961 0.533333 0.074510
0.125490 0.529412 0.070588
0.156863 0.525490 0.074510
0.188235 0.529412 0.074510
0.207843 0.533333 0.074510
0.235294 0.533333 0.074510
0.258824 0.529412 0.074510
0.286275 0.533333 0.074510
0.313725 0.533333 0.074510
0.345098 0.533333 0.078431
0.364706 0.529412 0.074510
0.388235 0.533333 0.074510
0.411765 0.529412 0.070588
0.439216 0.533333 0.070588
0.466667 0.533333 0.074510
0.486275 0.533333 0.078431
0.505882 0.537255 0.078431
0.521569 0.537255 0.074510
0.541176 0.533333 0.082353
0.552941 0.537255 0.078431
0.568627 0.533333 0.082353
0.588235 0.537255 0.090196
0.596078 0.537255 0.082353
0.611765 0.533333 0.086275
0.623529 0.537255 0.094118
0.643137 0.533333 0.098039
0.650980 0.533333 0.101961
0.662745 0.537255 0.098039
0.678431 0.537255 0.101961
0.698039 0.537255 0.098039
0.705882 0.537255 0.101961
0.725490 0.537255 0.101961
0.741176 0.533333 0.105882
0.760784 0.533333 0.101961
0.768627 0.537255 0.098039
0.070588 0.549020 0.074510
0.098039 0.549020 0.074510
0.125490 0.552941 0.078431
0.152941 0.552941 0.078431
0.176471 0.549020 0.074510
0.203922 0.549020 0.074510
0.227451 0.552941 0.078431
0.254902 0.556863 0.078431
0.290196 0.552941 0.078431
0.305882 0.552941 0.078431
0.333333 0.552941 0.078431
0.360784 0.556863 0.078431
0.384314 0.552941 0.074510
0.411765 0.552941 0.078431
0.439216 0.552941 0.078431
0.458824 0.552941 0.074510
0.482353 0.549020 0.078431
0.501961 0.552941 0.082353
0.521569 0.552941 0.078431
0.541176 0.556863 0.078431
0.552941 0.556863 0.082353
0.568627 0.556863 0.078431
0.588235 0.556863 0.082353
0.596078 0.556863 0.090196
0.615686 0.556863 0.094118
0.623529 0.556863 0.098039
0.643137 0.556863 0.094118
0.647059 0.552941 0.094118
0.670588 0.556863 0.101961
0.678431 0.552941 0.101961
0.694118 0.552941 0.101961
0.705882 0.556863 0.098039
0.721569 0.552941 0.101961
0.737255 0.552941 0.098039
0.756863 0.552941 0.101961
0.764706 0.552941 0.098039
0.058824 0.568627 0.074510
0.086275 0.568627 0.078431
0.117647 0.572549 0.078431
0.145098 0.572549 0.078431
0.172549 0.564706 0.074510
0.200000 0.568627 0.078431
0.231373 0.568627 0.078431
0.250980 0.572549 0.078431
0.278431 0.572549 0.082353
0.298039 0.572549 0.078431
0.329412 0.572549 0.078431
0.356863 0.572549 0.078431
0.376471 0.572549 0.078431
0.403922 0.572549 0.078431
0.431373 0.572549 0.078431
0.454902 0.568627 0.074510
0.470588 0.568627 0.082353
0.494118 0.572549 0.082353
0.517647 0.568627 0.078431
0.533333 0.576471 0.078431
0.549020 0.576471 0.074510
0.572549 0.572549 0.082353
0.588235 0.576471 0.090196
0.600000 0.572549 0.082353
0.611765 0.572549 0.086275
0.627451 0.572549 0.090196
0.639216 0.572549 0.094118
0.650980 0.576471 0.101961
0.666667 0.572549 0.105882
0.678431 0.576471 0.101961
0.694118 0.576471 0.105882
0.713725 0.572549 0.101961
0.721569 0.576471 0.098039
0.741176 0.576471 0.105882
0.756863 0.576471 0.101961
0.772549 0.572549 0.105882
0.062745 0.592157 0.082353
0.090196 0.592157 0.082353
0.117647 0.592157 0.082353
0.141176 0.588235 0.082353
0.168627 0.592157 0.082353
0.196078 0.592157 0.082353
0.223529 0.592157 0.086275
0.250980 0.592157 0.086275
0.270588 0.592157 0.082353
0.298039 0.596078 0.082353
0.325490 0.596078 0.086275
0.352941 0.596078 0.086275
0.376471 0.592157 0.082353
0.400000 0.596078 0.082353
0.419608 0.596078 0.082353
0.450980 0.596078 0.082353
0.466667 0.596078 0.078431
0.494118 0.596078 0.078431
0.509804 0.596078 0.082353
0.541176 0.596078 0.086275
0.549020 0.600000 0.082353
0.568627 0.600000 0.078431
0.588235 0.600000 0.086275
0.596078 0.596078 0.086275
0.611765 0.596078 0.094118
0.623529 0.600000 0.090196
0.639216 0.596078 0.094118
0.650980 0.600000 0.098039
0.666667 0.596078 0.101961
0.678431 0.600000 0.098039
0.694118 0.596078 0.105882
0.705882 0.600000 0.101961
0.725490 0.600000 0.105882
0.741176 0.600000 0.101961
0.756863 0.596078 0.105882
0.768627 0.600000 0.109804
0.050980 0.611765 0.082353
0.078431 0.611765 0.082353
0.105882 0.611765 0.086275
0.137255 0.615686 0.086275
0.164706 0.615686 0.086275
0.192157 0.607843 0.086275
0.219608 0.607843 0.086275
0.247059 0.611765 0.086275
0.270588 0.615686 0.086275
0.286275 0.615686 0.086275
0.313725 0.615686 0.086275
0.349020 0.615686 0.086275
0.368627 0.611765 0.082353
0.396078 0.615686 0.086275
0.423529 0.615686 0.086275
0.447059 0.611765 0.082353
0.466667 0.615686 0.082353
0.486275 0.615686 0.090196
0.513725 0.615686 0.090196
0.529412 0.615686 0.086275
0.545098 0.615686 0.082353
0.568627 0.619608 0.086275
0.584314 0.619608 0.090196
0.603922 0.619608 0.086275
0.611765 0.619608 0.090196
0.623529 0.619608 0.094118
0.643137 0.619608 0.098039
0.647059 0.615686 0.098039
0.670588 0.619608 0.101961
0.674510 0.615686 0.101961
0.694118 0.615686 0.098039
0.709804 0.615686 0.101961
0.721569 0.615686 0.105882
0.737255 0.615686 0.109804
0.760784 0.619608 0.113725
0.776471 0.619608 0.109804
0.047059 0.627451 0.082353
0.074510 0.627451 0.086275
0.105882 0.631373 0.086275
0.133333 0.631373 0.086275
0.160784 0.623529 0.086275
0.188235 0.627451 0.086275
0.215686 0.627451 0.086275
0.247059 0.627451 0.086275
0.274510 0.627451 0.090196
0.282353 0.631373 0.086275
0.317647 0.631373 0.086275
0.345098 0.631373 0.090196
0.364706 0.631373 0.086275
0.392157 0.631373 0.086275
0.419608 0.631373 0.086275
0.443137 0.631373 0.082353
0.458824 0.627451 0.082353
0.482353 0.631373 0.090196
0.505882 0.627451 0.086275
0.525490 0.631373 0.086275
0.545098 0.631373 0.086275
0.572549 0.635294 0.086275
0.580392 0.635294 0.090196
0.600000 0.635294 0.086275
0.611765 0.635294 0.090196
0.627451 0.635294 0.098039
0.639216 0.635294 0.094118
0.654902 0.635294 0.098039
0.666667 0.635294 0.101961
0.678431 0.631373 0.101961
0.690196 0.631373 0.105882
0.705882 0.631373 0.109804
0.721569 0.631373 0.105882
0.745098 0.635294 0.109804
0.756863 0.635294 0.113725
0.772549 0.635294 0.109804
0.039216 0.647059 0.086275
0.074510 0.647059 0.086275
0.101961 0.647059 0.086275
0.129412 0.647059 0.090196
0.152941 0.643137 0.086275
0.180392 0.647059 0.086275
0.207843 0.647059 0.086275
0.235294 0.647059 0.090196
0.262745 0.650980 0.090196
0.286275 0.647059 0.086275
0.309804 0.650980 0.090196
0.337255 0.650980 0.090196
0.352941 0.650980 0.086275
0.380392 0.650980 0.086275
0.407843 0.654902 0.090196
0.431373 0.647059 0.094118
0.450980 0.647059 0.090196
0.478431 0.647059 0.090196
0.498039 0.654902 0.094118
0.517647 0.654902 0.090196
0.541176 0.650980 0.086275
0.560784 0.650980 0.094118
0.584314 0.647059 0.090196
