luts/full/popsicle.cube
TITLE "popsicle (full)"
LUT_3D_SIZE 36
0.047059 0.047059 0.047059
0.054902 0.043137 0.043137
0.086275 0.043137 0.043137
0.113725 0.043137 0.043137
0.145098 0.043137 0.043137
0.176471 0.043137 0.043137
0.207843 0.039216 0.039216
0.243137 0.039216 0.039216
0.266667 0.039216 0.039216
0.301961 0.039216 0.039216
0.337255 0.035294 0.035294
0.372549 0.035294 0.035294
0.396078 0.035294 0.035294
0.431373 0.035294 0.035294
0.466667 0.031373 0.031373
0.498039 0.031373 0.031373
0.529412 0.031373 0.031373
0.560784 0.031373 0.027451
0.603922 0.035294 0.027451
0.631373 0.031373 0.023529
0.666667 0.035294 0.023529
0.694118 0.039216 0.023529
0.725490 0.035294 0.019608
0.760784 0.039216 0.019608
0.788235 0.039216 0.019608
0.831373 0.035294 0.015686
0.858824 0.035294 0.015686
0.890196 0.031373 0.011765
0.933333 0.031373 0.011765
0.964706 0.027451 0.007843
0.996078 0.027451 0.007843
1.000000 0.023529 0.003922
1.000000 0.023529 0.003922
1.000000 0.019608 0.000000
1.000000 0.019608 0.000000
1.000000 0.019608 0.000000
0.043137 0.058824 0.043137
0.058824 0.050980 0.043137
0.086275 0.050980 0.043137
0.117647 0.050980 0.043137
0.145098 0.050980 0.043137
0.172549 0.054902 0.039216
0.203922 0.054902 0.039216
0.243137 0.050980 0.039216
0.270588 0.050980 0.039216
0.301961 0.050980 0.035294
0.333333 0.054902 0.035294
0.368627 0.047059 0.035294
0.400000 0.047059 0.031373
0.431373 0.050980 0.031373
0.462745 0.047059 0.031373
0.498039 0.047059 0.027451
0.525490 0.043137 0.027451
0.560784 0.050980 0.027451
0.603922 0.050980 0.023529
0.631373 0.054902 0.023529
0.662745 0.054902 0.019608
0.694118 0.058824 0.019608
0.733333 0.062745 0.019608
0.760784 0.054902 0.015686
0.792157 0.054902 0.015686
0.823529 0.054902 0.011765
0.854902 0.058824 0.011765
0.898039 0.058824 0.007843
0.929412 0.054902 0.007843
0.964706 0.054902 0.003922
0.992157 0.050980 0.003922
1.000000 0.050980 0.003922
1.000000 0.043137 0.000000
1.000000 0.047059 0.000000
1.000000 0.043137 0.000000
1.000000 0.047059 0.000000
0.043137 0.082353 0.043137
0.054902 0.082353 0.043137
0.086275 0.086275 0.039216
0.109804 0.078431 0.039216
0.149020 0.078431 0.039216
0.176471 0.078431 0.039216
0.211765 0.082353 0.035294
0.243137 0.086275 0.035294
0.266667 0.082353 0.035294
0.298039 0.082353 0.031373
0.329412 0.086275 0.031373
0.364706 0.082353 0.031373
0.392157 0.074510 0.031373
0.423529 0.074510 0.027451
0.462745 0.074510 0.027451
0.498039 0.074510 0.023529
0.529412 0.078431 0.023529
0.556863 0.082353 0.023529
0.592157 0.082353 0.019608
0.627451 0.086275 0.019608
0.658824 0.082353 0.019608
0.686275 0.078431 0.015686
0.721569 0.086275 0.015686
0.752941 0.090196 0.011765
0.792157 0.090196 0.011765
0.827451 0.090196 0.007843
0.862745 0.086275 0.007843
0.886275 0.082353 0.007843
0.921569 0.086275 0.003922
0.960784 0.078431 0.000000
0.988235 0.078431 0.000000
1.000000 0.078431 0.000000
1.000000 0.078431 0.000000
1.000000 0.082353 0.000000
1.000000 0.078431 0.000000
1.000000 0.074510 0.000000
0.039216 0.113725 0.039216
0.043137 0.109804 0.039216
0.074510 0.109804 0.039216
0.113725 0.109804 0.039216
0.141176 0.109804 0.035294
0.176471 0.113725 0.035294
0.207843 0.113725 0.035294
0.243137 0.113725 0.031373
0.266667 0.109804 0.031373
0.298039 0.105882 0.031373
0.333333 0.105882 0.027451
0.356863 0.109804 0.027451
0.388235 0.109804 0.027451
0.435294 0.109804 0.023529
0.462745 0.109804 0.023529
0.494118 0.109804 0.023529
0.521569 0.101961 0.019608
0.552941 0.109804 0.019608
0.596078 0.105882 0.015686
0.623529 0.109804 0.015686
0.654902 0.113725 0.015686
0.682353 0.113725 0.011765
0.729412 0.117647 0.007843
0.756863 0.117647 0.007843
0.788235 0.117647 0.007843
0.819608 0.117647 0.003922
0.847059 0.117647 0.003922
0.882353 0.113725 0.000000
0.921569 0.113725 0.000000
0.952941 0.113725 0.000000
0.984314 0.109804 0.000000
1.000000 0.113725 0.000000
1.000000 0.105882 0.000000
1.000000 0.109804 0.000000
1.000000 0.105882 0.000000
1.000000 0.105882 0.000000
0.035294 0.141176 0.035294
0.039216 0.137255 0.035294
0.074510 0.145098 0.035294
0.113725 0.141176 0.035294
0.141176 0.145098 0.031373
0.168627 0.145098 0.031373
0.203922 0.141176 0.031373
0.239216 0.141176 0.031373
0.266667 0.141176 0.027451
0.294118 0.137255 0.027451
0.325490 0.133333 0.027451
0.360784 0.141176 0.023529
0.396078 0.137255 0.023529
0.431373 0.137255 0.019608
0.458824 0.137255 0.019608
0.490196 0.137255 0.019608
0.517647 0.137255 0.015686
0.549020 0.133333 0.015686
0.592157 0.133333 0.015686
0.619608 0.141176 0.011765
0.654902 0.145098 0.007843
0.694118 0.145098 0.007843
0.725490 0.149020 0.003922
0.752941 0.149020 0.003922
0.784314 0.145098 0.003922
0.815686 0.145098 0.000000
0.843137 0.145098 0.000000
0.878431 0.145098 0.000000
0.917647 0.141176 0.000000
0.952941 0.145098 0.000000
0.984314 0.149020 0.000000
1.000000 0.141176 0.000000
1.000000 0.137255 0.000000
1.000000 0.133333 0.000000
1.000000 0.137255 0.000000
1.000000 0.133333 0.000000
0.035294 0.172549 0.035294
0.050980 0.172549 0.031373
0.082353 0.172549 0.031373
0.109804 0.172549 0.031373
0.137255 0.172549 0.031373
0.172549 0.168627 0.031373
0.203922 0.168627 0.027451
0.231373 0.164706 0.027451
0.258824 0.168627 0.027451
0.294118 0.172549 0.023529
0.325490 0.172549 0.023529
0.360784 0.168627 0.019608
0.388235 0.164706 0.019608
0.419608 0.164706 0.019608
0.454902 0.164706 0.015686
0.486275 0.160784 0.015686
0.517647 0.164706 0.011765
0.545098 0.164706 0.011765
0.588235 0.168627 0.007843
0.619608 0.176471 0.007843
0.647059 0.172549 0.007843
0.682353 0.168627 0.003922
0.717647 0.176471 0.003922
0.749020 0.176471 0.000000
0.780392 0.176471 0.000000
0.815686 0.176471 0.000000
0.850980 0.176471 0.000000
0.882353 0.176471 0.000000
0.917647 0.180392 0.000000
0.945098 0.172549 0.000000
0.984314 0.172549 0.000000
1.000000 0.172549 0.000000
1.000000 0.168627 0.000000
1.000000 0.168627 0.000000
1.000000 0.168627 0.000000
1.000000 0.164706 0.000000
0.031373 0.203922 0.031373
0.043137 0.200000 0.031373
0.074510 0.203922 0.027451
0.101961 0.203922 0.027451
0.133333 0.196078 0.027451
0.168627 0.200000 0.027451
0.200000 0.200000 0.023529
0.239216 0.203922 0.023529
0.270588 0.200000 0.023529
0.294118 0.196078 0.019608
0.325490 0.196078 0.019608
0.352941 0.200000 0.019608
0.384314 0.200000 0.015686
0.415686 0.196078 0.015686
0.450980 0.196078 0.011765
0.482353 0.196078 0.011765
0.513725 0.196078 0.007843
0.541176 0.196078 0.007843
0.584314 0.196078 0.007843
0.615686 0.203922 0.003922
0.647059 0.200000 0.003922
0.674510 0.203922 0.000000
0.709804 0.207843 0.000000
0.745098 0.203922 0.000000
0.776471 0.203922 0.000000
0.811765 0.207843 0.000000
0.839216 0.207843 0.000000
0.878431 0.207843 0.000000
0.913725 0.203922 0.000000
0.945098 0.203922 0.000000
0.980392 0.200000 0.000000
1.000000 0.200000 0.000000
1.000000 0.200000 0.000000
1.000000 0.192157 0.000000
1.000000 0.200000 0.000000
1.000000 0.196078 0.000000
0.027451 0.235294 0.027451
0.043137 0.235294 0.027451
0.070588 0.235294 0.023529
0.101961 0.235294 0.023529
0.133333 0.231373 0.023529
0.168627 0.231373 0.023529
0.200000 0.231373 0.023529
0.231373 0.231373 0.019608
0.266667 0.231373 0.019608
0.294118 0.231373 0.019608
0.325490 0.227451 0.015686
0.349020 0.227451 0.015686
0.380392 0.227451 0.011765
0.423529 0.227451 0.011765
0.450980 0.227451 0.007843
0.486275 0.227451 0.007843
0.517647 0.231373 0.003922
0.537255 0.227451 0.003922
0.580392 0.223529 0.003922
0.611765 0.223529 0.000000
0.643137 0.231373 0.000000
0.674510 0.231373 0.000000
0.713725 0.235294 0.000000
0.745098 0.239216 0.000000
0.776471 0.235294 0.000000
0.807843 0.239216 0.000000
0.835294 0.239216 0.000000
0.870588 0.235294 0.000000
0.909804 0.235294 0.000000
0.941176 0.231373 0.000000
0.968627 0.231373 0.000000
1.000000 0.223529 0.000000
1.000000 0.231373 0.000000
1.000000 0.227451 0.000000
1.000000 0.227451 0.000000
1.000000 0.227451 0.000000
0.023529 0.258824 0.023529
0.043137 0.258824 0.023529
0.070588 0.258824 0.023529
0.105882 0.262745 0.019608
0.133333 0.262745 0.019608
0.160784 0.258824 0.019608
0.200000 0.254902 0.019608
0.227451 0.254902 0.019608
0.254902 0.254902 0.015686
0.286275 0.258824 0.015686
0.321569 0.258824 0.011765
0.352941 0.254902 0.011765
0.392157 0.258824 0.007843
0.415686 0.254902 0.007843
0.443137 0.258824 0.007843
0.482353 0.250980 0.003922
0.513725 0.250980 0.003922
0.545098 0.254902 0.000000
0.576471 0.258824 0.000000
0.607843 0.254902 0.000000
0.635294 0.254902 0.000000
0.682353 0.270588 0.000000
0.709804 0.266667 0.000000
0.737255 0.266667 0.000000
0.772549 0.270588 0.000000
0.811765 0.266667 0.000000
0.843137 0.266667 0.000000
0.874510 0.262745 0.000000
0.901961 0.266667 0.000000
0.933333 0.262745 0.000000
0.964706 0.262745 0.000000
1.000000 0.262745 0.000000
1.000000 0.258824 0.000000
1.000000 0.258824 0.000000
1.000000 0.262745 0.000000
1.000000 0.254902 0.000000
0.019608 0.290196 0.019608
0.043137 0.294118 0.019608
0.066667 0.290196 0.019608
0.098039 0.294118 0.015686
0.133333 0.286275 0.015686
0.164706 0.286275 0.015686
0.196078 0.290196 0.015686
0.227451 0.290196 0.015686
0.258824 0.286275 0.011765
0.286275 0.282353 0.011765
0.321569 0.286275 0.011765
0.349020 0.290196 0.007843
0.380392 0.290196 0.007843
0.411765 0.286275 0.003922
0.447059 0.286275 0.003922
0.478431 0.286275 0.000000
0.509804 0.282353 0.000000
0.533333 0.278431 0.000000
0.572549 0.282353 0.000000
0.607843 0.286275 0.000000
0.643137 0.290196 0.000000
0.670588 0.294118 0.000000
0.705882 0.301961 0.000000
0.733333 0.298039 0.000000
0.768627 0.294118 0.000000
0.807843 0.301961 0.000000
0.827451 0.294118 0.000000
0.866667 0.294118 0.000000
0.901961 0.298039 0.000000
0.941176 0.294118 0.000000
0.972549 0.294118 0.000000
1.000000 0.294118 0.000000
1.000000 0.294118 0.000000
1.000000 0.290196 0.000000
1.000000 0.286275 0.000000
1.000000 0.286275 0.000000
0.015686 0.317647 0.015686
0.039216 0.317647 0.015686
0.070588 0.321569 0.015686
0.098039 0.321569 0.011765
0.129412 0.321569 0.011765
0.160784 0.317647 0.011765
0.188235 0.313725 0.011765
0.223529 0.313725 0.011765
0.258824 0.321569 0.007843
0.286275 0.317647 0.007843
0.317647 0.317647 0.007843
0.352941 0.317647 0.003922
0.384314 0.317647 0.003922
0.411765 0.313725 0.000000
0.439216 0.309804 0.000000
0.470588 0.313725 0.000000
0.501961 0.313725 0.000000
0.541176 0.317647 0.000000
0.572549 0.317647 0.000000
0.603922 0.317647 0.000000
0.639216 0.325490 0.000000
0.674510 0.321569 0.000000
0.701961 0.321569 0.000000
0.729412 0.325490 0.000000
0.764706 0.325490 0.000000
0.796078 0.325490 0.000000
0.839216 0.329412 0.000000
0.870588 0.325490 0.000000
0.898039 0.329412 0.000000
0.929412 0.325490 0.000000
0.956863 0.321569 0.000000
0.996078 0.321569 0.000000
1.000000 0.317647 0.000000
1.000000 0.317647 0.000000
1.000000 0.321569 0.000000
1.000000 0.317647 0.000000
0.011765 0.349020 0.011765
0.035294 0.349020 0.011765
0.066667 0.345098 0.011765
0.094118 0.349020 0.011765
0.121569 0.349020 0.007843
0.156863 0.352941 0.007843
0.188235 0.352941 0.007843
0.219608 0.345098 0.007843
0.250980 0.349020 0.003922
0.286275 0.349020 0.003922
0.313725 0.349020 0.003922
0.345098 0.345098 0.003922
0.380392 0.345098 0.000000
0.407843 0.341176 0.000000
0.439216 0.349020 0.000000
0.470588 0.345098 0.000000
0.509804 0.341176 0.000000
0.537255 0.345098 0.000000
0.568627 0.349020 0.000000
0.600000 0.349020 0.000000
0.635294 0.352941 0.000000
0.670588 0.352941 0.000000
0.698039 0.345098 0.000000
0.725490 0.352941 0.000000
0.764706 0.360784 0.000000
0.796078 0.356863 0.000000
0.835294 0.356863 0.000000
0.866667 0.356863 0.000000
0.894118 0.356863 0.000000
0.929412 0.356863 0.000000
0.952941 0.352941 0.000000
0.984314 0.352941 0.000000
1.000000 0.349020 0.000000
1.000000 0.349020 0.000000
1.000000 0.352941 0.000000
1.000000 0.349020 0.000000
0.007843 0.380392 0.007843
0.031373 0.380392 0.007843
0.058824 0.376471 0.007843
0.090196 0.376471 0.007843
0.129412 0.376471 0.003922
0.156863 0.380392 0.003922
0.188235 0.380392 0.003922
0.215686 0.380392 0.000000
0.247059 0.380392 0.000000
0.286275 0.376471 0.000000
0.313725 0.372549 0.000000
0.341176 0.372549 0.000000
0.368627 0.372549 0.000000
0.407843 0.376471 0.000000
0.439216 0.376471 0.000000
0.470588 0.376471 0.000000
0.501961 0.380392 0.000000
0.525490 0.372549 0.000000
0.572549 0.376471 0.000000
0.600000 0.372549 0.000000
0.631373 0.376471 0.000000
0.662745 0.380392 0.000000
0.698039 0.384314 0.000000
0.725490 0.392157 0.000000
0.756863 0.392157 0.000000
0.796078 0.388235 0.000000
0.823529 0.388235 0.000000
0.858824 0.384314 0.000000
0.898039 0.384314 0.000000
0.929412 0.380392 0.000000
0.956863 0.380392 0.000000
0.996078 0.388235 0.000000
1.000000 0.384314 0.000000
1.000000 0.380392 0.000000
1.000000 0.380392 0.000000
1.000000 0.376471 0.000000
0.003922 0.407843 0.003922
0.023529 0.407843 0.003922
0.066667 0.407843 0.003922
0.098039 0.411765 0.000000
0.125490 0.411765 0.000000
0.152941 0.415686 0.000000
0.180392 0.407843 0.000000
0.215686 0.403922 0.000000
0.247059 0.403922 0.000000
0.278431 0.407843 0.000000
0.309804 0.403922 0.000000
0.349020 0.407843 0.000000
0.380392 0.407843 0.000000
0.411765 0.407843 0.000000
0.435294 0.403922 0.000000
0.462745 0.403922 0.000000
0.494118 0.403922 0.000000
0.521569 0.407843 0.000000
0.564706 0.400000 0.000000
0.596078 0.403922 0.000000
0.631373 0.415686 0.000000
0.666667 0.411765 0.000000
0.694118 0.407843 0.000000
0.721569 0.415686 0.000000
0.756863 0.419608 0.000000
0.788235 0.415686 0.000000
0.819608 0.415686 0.000000
0.854902 0.419608 0.000000
0.886275 0.415686 0.000000
0.929412 0.419608 0.000000
0.952941 0.415686 0.000000
0.988235 0.411765 0.000000
1.000000 0.411765 0.000000
1.000000 0.407843 0.000000
1.000000 0.407843 0.000000
1.000000 0.411765 0.000000
0.000000 0.443137 0.000000
0.027451 0.439216 0.000000
0.058824 0.443137 0.000000
0.094118 0.439216 0.000000
0.121569 0.439216 0.000000
0.149020 0.439216 0.000000
0.176471 0.439216 0.000000
0.215686 0.435294 0.000000
0.243137 0.431373 0.000000
0.278431 0.439216 0.000000
0.309804 0.439216 0.000000
0.345098 0.435294 0.000000
0.376471 0.435294 0.000000
0.407843 0.435294 0.000000
0.435294 0.439216 0.000000
0.458824 0.431373 0.000000
0.490196 0.431373 0.000000
0.517647 0.431373 0.000000
0.564706 0.435294 0.000000
0.596078 0.435294 0.000000
0.627451 0.443137 0.000000
0.662745 0.443137 0.000000
0.694118 0.443137 0.000000
0.717647 0.443137 0.000000
0.752941 0.447059 0.000000
0.784314 0.447059 0.000000
0.811765 0.447059 0.000000
0.858824 0.447059 0.000000
0.886275 0.450980 0.000000
0.925490 0.447059 0.000000
0.945098 0.443137 0.000000
0.980392 0.443137 0.000000
1.000000 0.439216 0.000000
1.000000 0.439216 0.000000
1.000000 0.435294 0.000000
1.000000 0.439216 0.000000
0.000000 0.474510 0.000000
0.023529 0.470588 0.000000
0.054902 0.470588 0.000000
0.078431 0.470588 0.000000
0.117647 0.462745 0.000000
0.149020 0.462745 0.000000
0.176471 0.466667 0.000000
0.207843 0.470588 0.000000
0.243137 0.470588 0.000000
0.274510 0.470588 0.000000
0.305882 0.462745 0.000000
0.333333 0.466667 0.000000
0.364706 0.466667 0.000000
0.400000 0.462745 0.000000
0.431373 0.462745 0.000000
0.462745 0.462745 0.000000
0.501961 0.466667 0.000000
0.529412 0.466667 0.000000
0.560784 0.466667 0.000000
0.588235 0.466667 0.000000
0.627451 0.466667 0.000000
0.654902 0.466667 0.000000
0.686275 0.470588 0.000000
0.713725 0.474510 0.000000
0.749020 0.474510 0.000000
0.788235 0.482353 0.000000
0.815686 0.478431 0.000000
0.850980 0.474510 0.000000
0.878431 0.474510 0.000000
0.921569 0.474510 0.000000
0.949020 0.470588 0.000000
0.980392 0.470588 0.000000
1.000000 0.474510 0.000000
1.000000 0.470588 0.000000
1.000000 0.470588 0.000000
1.000000 0.470588 0.000000
0.000000 0.501961 0.000000
0.015686 0.501961 0.000000
0.043137 0.501961 0.000000
0.086275 0.498039 0.000000
0.109804 0.498039 0.000000
0.145098 0.501961 0.000000
0.176471 0.505882 0.000000
0.211765 0.498039 0.000000
0.239216 0.494118 0.000000
0.270588 0.498039 0.000000
0.301961 0.494118 0.000000
0.329412 0.498039 0.000000
0.368627 0.494118 0.000000
0.400000 0.494118 0.000000
0.431373 0.498039 0.000000
0.458824 0.494118 0.000000
0.490196 0.494118 0.000000
0.521569 0.494118 0.000000
0.556863 0.490196 0.000000
0.588235 0.494118 0.000000
0.619608 0.498039 0.000000
0.654902 0.498039 0.000000
0.690196 0.498039 0.000000
0.709804 0.501961 0.000000
0.752941 0.509804 0.000000
0.780392 0.505882 0.000000
0.811765 0.509804 0.000000
0.847059 0.509804 0.000000
0.882353 0.501961 0.000000
0.913725 0.505882 0.000000
0.941176 0.501961 0.000000
0.972549 0.498039 0.000000
1.000000 0.501961 0.000000
1.000000 0.501961 0.000000
1.000000 0.498039 0.000000
1.000000 0.501961 0.000000
0.000000 0.525490 0.000000
0.015686 0.525490 0.000000
0.047059 0.525490 0.000000
0.074510 0.521569 0.000000
0.105882 0.525490 0.000000
0.145098 0.521569 0.000000
0.180392 0.525490 0.000000
0.203922 0.525490 0.000000
0.235294 0.521569 0.000000
0.266667 0.521569 0.000000
0.298039 0.525490 0.000000
0.333333 0.525490 0.000000
0.360784 0.517647 0.000000
0.396078 0.521569 0.000000
0.431373 0.521569 0.000000
0.462745 0.517647 0.000000
0.494118 0.517647 0.000000
0.521569 0.517647 0.000000
0.552941 0.521569 0.000000
0.580392 0.521569 0.000000
0.611765 0.517647 0.000000
0.647059 0.521569 0.000000
0.686275 0.529412 0.000000
0.709804 0.533333 0.000000
0.745098 0.533333 0.000000
0.780392 0.533333 0.000000
0.811765 0.537255 0.000000
0.843137 0.529412 0.000000
0.870588 0.529412 0.000000
0.901961 0.529412 0.000000
0.937255 0.537255 0.000000
0.976471 0.529412 0.000000
1.000000 0.537255 0.000000
1.000000 0.533333 0.000000
1.000000 0.525490 0.000000
1.000000 0.521569 0.000000
0.000000 0.560784 0.000000
0.011765 0.564706 0.000000
0.043137 0.560784 0.000000
0.070588 0.556863 0.000000
0.105882 0.556863 0.000000
0.137255 0.556863 0.000000
0.168627 0.552941 0.000000
0.196078 0.556863 0.000000
0.231373 0.556863 0.000000
0.262745 0.560784 0.000000
0.298039 0.560784 0.000000
0.333333 0.560784 0.000000
0.360784 0.556863 0.000000
0.392157 0.552941 0.000000
0.427451 0.549020 0.000000
0.458824 0.552941 0.000000
0.490196 0.552941 0.000000
0.517647 0.549020 0.000000
0.549020 0.552941 0.000000
0.576471 0.552941 0.000000
0.611765 0.560784 0.000000
0.647059 0.556863 0.000000
0.678431 0.560784 0.000000
0.705882 0.568627 0.000000
0.741176 0.568627 0.000000
0.776471 0.564706 0.000000
0.807843 0.568627 0.000000
0.839216 0.564706 0.000000
0.870588 0.564706 0.000000
0.901961 0.564706 0.000000
0.941176 0.564706 0.000000
0.972549 0.560784 0.000000
1.000000 0.564706 0.000000
1.000000 0.564706 0.000000
1.000000 0.556863 0.000000
1.000000 0.560784 0.000000
0.000000 0.600000 0.000000
0.003922 0.596078 0.000000
0.035294 0.596078 0.000000
0.066667 0.596078 0.000000
0.101961 0.592157 0.000000
0.133333 0.592157 0.000000
0.164706 0.596078 0.000000
0.200000 0.588235 0.000000
0.227451 0.584314 0.000000
0.262745 0.592157 0.000000
0.294118 0.592157 0.000000
0.321569 0.588235 0.000000
0.356863 0.592157 0.000000
0.388235 0.592157 0.000000
0.419608 0.588235 0.000000
0.450980 0.588235 0.000000
0.478431 0.584314 0.000000
0.509804 0.584314 0.000000
0.549020 0.588235 0.000000
0.584314 0.584314 0.000000
0.615686 0.592157 0.000000
0.643137 0.592157 0.000000
0.674510 0.596078 0.000000
0.705882 0.592157 0.000000
0.741176 0.592157 0.000000
0.768627 0.596078 0.000000
0.803922 0.600000 0.000000
0.835294 0.600000 0.000000
0.874510 0.596078 0.000000
0.905882 0.596078 0.000000
0.933333 0.596078 0.000000
0.964706 0.592157 0.000000
1.000000 0.588235 0.000000
1.000000 0.588235 0.000000
1.000000 0.588235 0.000000
1.000000 0.596078 0.000000
0.000000 0.631373 0.000000
0.007843 0.631373 0.000000
0.039216 0.627451 0.000000
0.066667 0.623529 0.000000
0.098039 0.631373 0.000000
0.125490 0.627451 0.000000
0.164706 0.623529 0.000000
0.196078 0.627451 0.000000
0.227451 0.627451 0.000000
0.258824 0.627451 0.000000
0.290196 0.627451 0.000000
0.325490 0.623529 0.000000
0.352941 0.623529 0.000000
0.384314 0.615686 0.000000
0.411765 0.615686 0.000000
0.450980 0.615686 0.000000
0.486275 0.615686 0.000000
0.513725 0.615686 0.000000
0.545098 0.623529 0.000000
0.576471 0.623529 0.000000
0.603922 0.611765 0.000000
0.639216 0.615686 0.000000
0.674510 0.619608 0.000000
0.701961 0.619608 0.000000
0.741176 0.623529 0.000000
0.772549 0.627451 0.000000
0.803922 0.627451 0.000000
0.831373 0.623529 0.000000
0.866667 0.623529 0.000000
0.898039 0.623529 0.000000
0.925490 0.623529 0.000000
0.960784 0.619608 0.000000
0.996078 0.619608 0.000000
1.000000 0.619608 0.000000
1.000000 0.619608 0.000000
1.000000 0.619608 0.000000
0.000000 0.654902 0.000000
0.000000 0.658824 0.000000
0.035294 0.658824 0.000000
0.062745 0.662745 0.000000
0.098039 0.662745 0.000000
0.129412 0.654902 0.000000
0.164706 0.658824 0.000000
0.192157 0.654902 0.000000
0.223529 0.654902 0.000000
0.254902 0.658824 0.000000
0.286275 0.658824 0.000000
0.321569 0.650980 0.000000
0.349020 0.647059 0.000000
0.380392 0.650980 0.000000
0.411765 0.658824 0.000000
0.450980 0.650980 0.000000
0.482353 0.650980 0.000000
0.509804 0.654902 0.000000
0.541176 0.650980 0.000000
0.572549 0.650980 0.000000
0.600000 0.647059 0.000000
0.639216 0.647059 0.000000
0.674510 0.650980 0.000000
0.701961 0.650980 0.000000
0.733333 0.658824 0.000000
0.768627 0.658824 0.000000
0.800000 0.658824 0.000000
0.827451 0.654902 0.000000
0.866667 0.658824 0.000000
0.890196 0.654902 0.000000
0.921569 0.654902 0.000000
0.964706 0.654902 0.000000
0.996078 0.654902 0.000000
1.000000 0.654902 0.000000
1.000000 0.654902 0.000000
1.000000 0.650980 0.000000
0.000000 0.698039 0.000000
0.000000 0.694118 0.000000
0.019608 0.690196 0.000000
0.054902 0.698039 0.000000
0.094118 0.694118 0.000000
0.125490 0.694118 0.000000
0.152941 0.694118 0.000000
0.192157 0.690196 0.000000
0.223529 0.690196 0.000000
0.250980 0.682353 0.000000
0.282353 0.686275 0.000000
0.309804 0.686275 0.000000
0.349020 0.686275 0.000000
0.380392 0.690196 0.000000
0.415686 0.690196 0.000000
0.447059 0.690196 0.000000
0.474510 0.682353 0.000000
0.501961 0.682353 0.000000
0.537255 0.682353 0.000000
0.576471 0.678431 0.000000
0.607843 0.682353 0.000000
0.635294 0.686275 0.000000
0.666667 0.686275 0.000000
0.694118 0.682353 0.000000
0.733333 0.682353 0.000000
0.760784 0.686275 0.000000
0.792157 0.690196 0.000000
0.823529 0.686275 0.000000
0.862745 0.682353 0.000000
0.894118 0.690196 0.000000
0.925490 0.686275 0.000000
0.956863 0.682353 0.000000
0.984314 0.682353 0.000000
1.000000 0.678431 0.000000
1.000000 0.678431 0.000000
1.000000 0.678431 0.000000
0.000000 0.721569 0.000000
0.000000 0.725490 0.000000
0.027451 0.725490 0.000000
0.054902 0.729412 0.000000
0.086275 0.725490 0.000000
0.113725 0.721569 0.000000
0.145098 0.721569 0.000000
0.184314 0.713725 0.000000
0.215686 0.713725 0.000000
0.247059 0.713725 0.000000
0.282353 0.725490 0.000000
0.317647 0.713725 0.000000
0.349020 0.721569 0.000000
0.376471 0.713725 0.000000
0.403922 0.709804 0.000000
0.435294 0.713725 0.000000
0.470588 0.713725 0.000000
0.501961 0.705882 0.000000
0.545098 0.713725 0.000000
0.576471 0.713725 0.000000
0.603922 0.709804 0.000000
0.635294 0.705882 0.000000
0.666667 0.705882 0.000000
0.698039 0.705882 0.000000
0.729412 0.705882 0.000000
0.756863 0.713725 0.000000
0.792157 0.713725 0.000000
0.831373 0.717647 0.000000
0.862745 0.713725 0.000000
0.890196 0.709804 0.000000
0.917647 0.713725 0.000000
0.949020 0.713725 0.000000
0.988235 0.709804 0.000000
1.000000 0.709804 0.000000
1.000000 0.705882 0.000000
1.000000 0.705882 0.000000
0.000000 0.760784 0.000000
0.000000 0.760784 0.000000
0.019608 0.752941 0.000000
0.047059 0.752941 0.000000
0.082353 0.752941 0.000000
0.117647 0.749020 0.000000
0.152941 0.749020 0.000000
0.176471 0.752941 0.000000
0.211765 0.756863 0.000000
0.250980 0.745098 0.000000
0.278431 0.749020 0.000000
0.309804 0.749020 0.000000
0.341176 0.749020 0.000000
0.372549 0.749020 0.000000
0.407843 0.745098 0.000000
0.439216 0.749020 0.000000
0.474510 0.749020 0.000000
0.498039 0.745098 0.000000
0.529412 0.749020 0.000000
0.572549 0.741176 0.000000
0.600000 0.741176 0.000000
0.631373 0.745098 0.000000
0.662745 0.741176 0.000000
