luts/full/popsicle.cube
TITLE "popsicle (full)"
LUT_3D_SIZE 8
0.047059 0.047059 0.047059
0.176471 0.043137 0.043137
0.337255 0.035294 0.035294
0.498039 0.031373 0.031373
0.666667 0.035294 0.023529
0.831373 0.035294 0.015686
0.996078 0.027451 0.007843
1.000000 0.019608 0.000000
0.035294 0.172549 0.035294
0.172549 0.168627 0.031373
0.325490 0.172549 0.023529
0.486275 0.160784 0.015686
0.647059 0.172549 0.007843
0.815686 0.176471 0.000000
0.984314 0.172549 0.000000
1.000000 0.164706 0.000000
0.015686 0.317647 0.015686
0.160784 0.317647 0.011765
0.317647 0.317647 0.007843
0.470588 0.313725 0.000000
0.639216 0.325490 0.000000
0.796078 0.325490 0.000000
0.956863 0.321569 0.000000
1.000000 0.317647 0.000000
0.000000 0.474510 0.000000
0.149020 0.462745 0.000000
0.305882 0.462745 0.000000
0.462745 0.462745 0.000000
0.627451 0.466667 0.000000
0.788235 0.482353 0.000000
0.949020 0.470588 0.000000
1.000000 0.470588 0.000000
0.000000 0.631373 0.000000
0.125490 0.627451 0.000000
0.290196 0.627451 0.000000
0.450980 0.615686 0.000000
0.603922 0.611765 0.000000
0.772549 0.627451 0.000000
0.925490 0.623529 0.000000
1.000000 0.619608 0.000000
0.000000 0.796078 0.000000
0.109804 0.788235 0.000000
0.270588 0.784314 0.000000
0.439216 0.784314 0.000000
0.596078 0.772549 0.000000
0.752941 0.772549 0.000000
0.913725 0.772549 0.000000
1.000000 0.768627 0.000000
0.000000 0.937255 0.000000
0.094118 0.937255 0.000000
0.247059 0.929412 0.000000
0.419608 0.933333 0.000000
0.572549 0.925490 0.000000
0.745098 0.921569 0.000000
0.901961 0.917647 0.000000
1.000000 0.913725 0.000000
0.000000 1.000000 0.000000
0.070588 1.000000 0.000000
0.231373 1.000000 0.000000
0.400000 1.000000 0.000000
0.560784 1.000000 0.000000
0.721569 1.000000 0.000000
0.894118 1.000000 0.000000
1.000000 1.000000 0.000000
0.043137 0.043137 0.180392
0.172549 0.039216 0.172549
0.333333 0.035294 0.176471
0.498039 0.027451 0.180392
0.662745 0.035294 0.172549
0.823529 0.035294 0.168627
0.992157 0.023529 0.164706
1.000000 0.019608 0.164706
0.031373 0.172549 0.168627
0.172549 0.172549 0.172549
0.325490 0.164706 0.172549
0.482353 0.172549 0.164706
0.647059 0.184314 0.164706
0.807843 0.180392 0.156863
0.972549 0.172549 0.152941
1.000000 0.168627 0.145098
0.015686 0.321569 0.164706
0.160784 0.313725 0.164706
0.317647 0.313725 0.156863
0.478431 0.325490 0.164706
0.635294 0.329412 0.145098
0.796078 0.333333 0.149020
0.956863 0.321569 0.141176
1.000000 0.317647 0.133333
0.000000 0.470588 0.145098
0.152941 0.478431 0.156863
0.305882 0.466667 0.145098
0.458824 0.466667 0.149020
0.619608 0.478431 0.141176
0.780392 0.478431 0.133333
0.937255 0.470588 0.121569
1.000000 0.470588 0.113725
0.000000 0.627451 0.137255
0.137255 0.639216 0.137255
0.290196 0.627451 0.133333
0.454902 0.631373 0.129412
0.611765 0.623529 0.125490
0.764706 0.627451 0.121569
0.925490 0.619608 0.105882
1.000000 0.619608 0.101961
0.000000 0.792157 0.113725
0.117647 0.788235 0.125490
0.274510 0.784314 0.113725
0.435294 0.776471 0.117647
0.592157 0.776471 0.105882
0.749020 0.772549 0.109804
0.905882 0.764706 0.094118
1.000000 0.772549 0.086275
0.000000 0.937255 0.086275
0.101961 0.933333 0.101961
0.254902 0.925490 0.094118
0.419608 0.921569 0.090196
0.576471 0.921569 0.086275
0.733333 0.921569 0.078431
0.898039 0.917647 0.078431
1.000000 0.913725 0.074510
0.000000 1.000000 0.070588
0.074510 1.000000 0.074510
0.235294 1.000000 0.074510
0.400000 1.000000 0.066667
0.560784 1.000000 0.066667
0.729412 1.000000 0.070588
0.882353 1.000000 0.058824
1.000000 1.000000 0.062745
0.043137 0.043137 0.341176
0.176471 0.039216 0.325490
0.341176 0.035294 0.337255
0.498039 0.027451 0.333333
0.662745 0.031373 0.333333
0.831373 0.031373 0.341176
0.992157 0.023529 0.329412
1.000000 0.019608 0.337255
0.027451 0.168627 0.325490
0.160784 0.164706 0.321569
0.325490 0.168627 0.321569
0.486275 0.172549 0.325490
0.639216 0.176471 0.321569
0.815686 0.176471 0.321569
0.960784 0.172549 0.317647
1.000000 0.164706 0.313725
0.011765 0.317647 0.321569
0.164706 0.325490 0.317647
0.317647 0.325490 0.317647
0.466667 0.337255 0.321569
0.627451 0.333333 0.309804
0.788235 0.329412 0.313725
0.945098 0.321569 0.298039
1.000000 0.317647 0.298039
0.000000 0.470588 0.309804
0.152941 0.470588 0.313725
0.301961 0.482353 0.301961
0.466667 0.482353 0.309804
0.611765 0.478431 0.294118
0.776471 0.474510 0.294118
0.937255 0.474510 0.290196
1.000000 0.466667 0.278431
0.000000 0.627451 0.290196
0.129412 0.631373 0.294118
0.294118 0.635294 0.298039
0.450980 0.631373 0.294118
0.603922 0.623529 0.290196
0.760784 0.623529 0.278431
0.917647 0.623529 0.274510
1.000000 0.615686 0.274510
0.000000 0.788235 0.278431
0.121569 0.780392 0.278431
0.278431 0.776471 0.278431
0.443137 0.772549 0.282353
0.596078 0.772549 0.270588
0.752941 0.772549 0.274510
0.913725 0.772549 0.258824
1.000000 0.760784 0.254902
0.000000 0.933333 0.254902
0.090196 0.933333 0.258824
0.258824 0.925490 0.262745
0.423529 0.917647 0.258824
0.576471 0.921569 0.254902
0.745098 0.917647 0.250980
0.890196 0.913725 0.250980
1.000000 0.905882 0.235294
0.000000 1.000000 0.235294
0.078431 1.000000 0.239216
0.247059 1.000000 0.247059
0.407843 1.000000 0.239216
0.572549 1.000000 0.239216
0.725490 1.000000 0.227451
0.890196 1.000000 0.231373
1.000000 1.000000 0.231373
0.039216 0.039216 0.501961
0.180392 0.035294 0.505882
0.337255 0.031373 0.494118
0.498039 0.027451 0.501961
0.658824 0.031373 0.494118
0.823529 0.031373 0.501961
0.988235 0.019608 0.501961
1.000000 0.019608 0.498039
0.023529 0.172549 0.486275
0.172549 0.176471 0.482353
0.325490 0.172549 0.482353
0.482353 0.172549 0.482353
0.643137 0.176471 0.482353
0.811765 0.180392 0.482353
0.972549 0.172549 0.482353
1.000000 0.164706 0.482353
0.007843 0.313725 0.482353
0.160784 0.321569 0.478431
0.309804 0.333333 0.466667
0.474510 0.333333 0.474510
0.619608 0.329412 0.462745
0.788235 0.325490 0.470588
0.945098 0.325490 0.470588
1.000000 0.317647 0.462745
0.000000 0.466667 0.466667
0.149020 0.474510 0.470588
0.305882 0.482353 0.454902
0.466667 0.486275 0.466667
0.619608 0.478431 0.466667
0.768627 0.474510 0.454902
0.929412 0.478431 0.458824
1.000000 0.470588 0.447059
0.000000 0.623529 0.458824
0.137255 0.635294 0.450980
0.294118 0.631373 0.454902
0.454902 0.627451 0.458824
0.607843 0.627451 0.450980
0.760784 0.623529 0.454902
0.921569 0.619608 0.439216
1.000000 0.611765 0.439216
0.000000 0.788235 0.443137
0.117647 0.784314 0.447059
0.278431 0.780392 0.439216
0.439216 0.768627 0.443137
0.596078 0.772549 0.439216
0.745098 0.768627 0.439216
0.901961 0.764706 0.435294
1.000000 0.768627 0.427451
0.000000 0.941176 0.423529
0.098039 0.929412 0.427451
0.262745 0.921569 0.427451
0.427451 0.917647 0.427451
0.584314 0.917647 0.427451
0.737255 0.913725 0.415686
0.898039 0.913725 0.419608
1.000000 0.913725 0.419608
0.000000 1.000000 0.411765
0.070588 1.000000 0.400000
0.243137 1.000000 0.411765
0.407843 1.000000 0.415686
0.564706 1.000000 0.407843
0.733333 1.000000 0.415686
0.882353 1.000000 0.400000
1.000000 1.000000 0.411765
0.039216 0.054902 0.670588
0.180392 0.043137 0.658824
0.333333 0.039216 0.662745
0.501961 0.035294 0.662745
0.658824 0.027451 0.658824
0.831373 0.027451 0.666667
0.988235 0.019608 0.662745
1.000000 0.019608 0.670588
0.019608 0.180392 0.654902
0.168627 0.188235 0.650980
0.329412 0.188235 0.654902
0.478431 0.184314 0.639216
0.643137 0.180392 0.647059
0.800000 0.176471 0.639216
0.964706 0.172549 0.647059
1.000000 0.164706 0.643137
0.000000 0.329412 0.650980
0.156863 0.337255 0.635294
0.317647 0.337255 0.631373
0.466667 0.329412 0.627451
0.631373 0.329412 0.627451
0.788235 0.325490 0.627451
0.945098 0.321569 0.623529
1.000000 0.313725 0.623529
0.000000 0.474510 0.635294
0.141176 0.486275 0.627451
0.305882 0.486275 0.619608
0.454902 0.478431 0.615686
0.615686 0.478431 0.611765
0.772549 0.474510 0.611765
0.925490 0.470588 0.611765
1.000000 0.474510 0.611765
0.000000 0.627451 0.623529
0.137255 0.635294 0.611765
0.294118 0.631373 0.615686
0.450980 0.627451 0.600000
0.607843 0.627451 0.607843
0.752941 0.623529 0.603922
0.909804 0.615686 0.596078
1.000000 0.619608 0.603922
0.000000 0.784314 0.611765
0.117647 0.776471 0.596078
0.274510 0.776471 0.600000
0.443137 0.768627 0.596078
0.592157 0.772549 0.592157
0.756863 0.772549 0.600000
0.898039 0.768627 0.584314
1.000000 0.764706 0.588235
0.000000 0.937255 0.588235
0.090196 0.925490 0.584314
0.258824 0.925490 0.588235
0.427451 0.921569 0.584314
0.580392 0.909804 0.584314
0.741176 0.917647 0.584314
0.890196 0.909804 0.580392
1.000000 0.913725 0.576471
0.000000 1.000000 0.576471
0.078431 1.000000 0.572549
0.235294 1.000000 0.572549
0.419608 1.000000 0.572549
0.576471 1.000000 0.572549
0.733333 1.000000 0.576471
0.886275 1.000000 0.568627
1.000000 1.000000 0.572549
0.035294 0.054902 0.847059
0.180392 0.050980 0.839216
0.345098 0.043137 0.835294
0.501961 0.039216 0.831373
0.666667 0.031373 0.827451
0.827451 0.023529 0.827451
0.996078 0.019608 0.835294
1.000000 0.019608 0.827451
0.015686 0.192157 0.827451
0.168627 0.184314 0.815686
0.325490 0.184314 0.815686
0.486275 0.180392 0.807843
0.643137 0.180392 0.811765
0.807843 0.172549 0.800000
0.968627 0.168627 0.807843
1.000000 0.156863 0.807843
0.000000 0.337255 0.815686
0.149020 0.337255 0.803922
0.313725 0.337255 0.796078
0.466667 0.329412 0.792157
0.623529 0.329412 0.784314
0.784314 0.325490 0.784314
0.941176 0.321569 0.788235
1.000000 0.317647 0.792157
0.000000 0.490196 0.800000
0.137255 0.482353 0.788235
0.305882 0.478431 0.784314
0.462745 0.478431 0.772549
0.619608 0.478431 0.772549
0.772549 0.482353 0.772549
0.925490 0.470588 0.772549
1.000000 0.466667 0.768627
0.000000 0.639216 0.784314
0.117647 0.635294 0.768627
0.286275 0.631373 0.764706
0.454902 0.627451 0.768627
0.603922 0.623529 0.756863
0.764706 0.623529 0.764706
0.905882 0.619608 0.752941
1.000000 0.615686 0.752941
0.000000 0.788235 0.768627
0.117647 0.780392 0.764706
0.278431 0.772549 0.752941
0.443137 0.776471 0.760784
0.596078 0.772549 0.745098
0.749020 0.768627 0.749020
0.901961 0.764706 0.752941
1.000000 0.768627 0.749020
0.000000 0.933333 0.760784
0.098039 0.925490 0.749020
0.250980 0.921569 0.745098
0.431373 0.921569 0.741176
0.588235 0.909804 0.741176
0.741176 0.909804 0.741176
0.894118 0.909804 0.737255
1.000000 0.909804 0.741176
0.000000 1.000000 0.741176
0.074510 1.000000 0.733333
0.239216 1.000000 0.733333
0.407843 1.000000 0.733333
0.576471 1.000000 0.729412
0.733333 1.000000 0.737255
0.886275 1.000000 0.729412
1.000000 1.000000 0.733333
0.031373 0.050980 1.000000
0.180392 0.047059 1.000000
0.345098 0.039216 1.000000
0.501961 0.035294 0.996078
0.670588 0.027451 0.996078
0.831373 0.019608 0.992157
0.984314 0.019608 0.984314
1.000000 0.019608 0.992157
0.011765 0.184314 0.996078
0.164706 0.184314 0.980392
0.329412 0.180392 0.984314
0.482353 0.172549 0.968627
0.654902 0.172549 0.976471
0.811765 0.172549 0.964706
0.960784 0.168627 0.960784
1.000000 0.164706 0.960784
0.000000 0.341176 0.984314
0.149020 0.333333 0.960784
0.317647 0.333333 0.952941
0.478431 0.329412 0.956863
0.635294 0.325490 0.945098
0.788235 0.325490 0.945098
0.945098 0.317647 0.941176
1.000000 0.309804 0.945098
0.000000 0.490196 0.960784
0.137255 0.490196 0.956863
0.298039 0.486275 0.937255
0.458824 0.478431 0.933333
0.619608 0.478431 0.937255
0.768627 0.478431 0.925490
0.921569 0.470588 0.925490
1.000000 0.470588 0.925490
0.000000 0.639216 0.949020
0.125490 0.639216 0.933333
0.282353 0.627451 0.929412
0.447059 0.627451 0.913725
0.603922 0.623529 0.913725
0.756863 0.619608 0.913725
0.905882 0.615686 0.905882
1.000000 0.615686 0.913725
0.000000 0.784314 0.933333
0.105882 0.784314 0.913725
0.270588 0.776471 0.913725
0.435294 0.776471 0.909804
0.588235 0.768627 0.898039
0.745098 0.768627 0.901961
0.901961 0.768627 0.898039
1.000000 0.764706 0.901961
0.000000 0.933333 0.909804
0.090196 0.925490 0.905882
0.254902 0.921569 0.905882
0.423529 0.917647 0.894118
0.584314 0.913725 0.898039
0.741176 0.909804 0.886275
0.894118 0.913725 0.894118
1.000000 0.909804 0.894118
0.000000 1.000000 0.905882
0.070588 1.000000 0.894118
0.239216 1.000000 0.894118
0.415686 1.000000 0.886275
0.568627 1.000000 0.890196
0.737255 1.000000 0.890196
0.886275 1.000000 0.886275
1.000000 1.000000 0.882353
0.027451 0.047059 1.000000
0.176471 0.043137 1.000000
0.337255 0.035294 1.000000
0.513725 0.027451 1.000000
0.674510 0.023529 1.000000
0.847059 0.019608 1.000000
1.000000 0.019608 1.000000
1.000000 0.019608 1.000000
0.007843 0.184314 1.000000
0.160784 0.184314 1.000000
0.325490 0.180392 1.000000
0.486275 0.176471 1.000000
0.647059 0.168627 1.000000
0.815686 0.168627 1.000000
0.968627 0.160784 1.000000
1.000000 0.160784 1.000000
0.000000 0.337255 1.000000
0.149020 0.337255 1.000000
0.309804 0.329412 1.000000
0.474510 0.329412 1.000000
0.635294 0.325490 1.000000
0.788235 0.321569 1.000000
0.945098 0.313725 1.000000
1.000000 0.313725 1.000000
0.000000 0.486275 1.000000
0.137255 0.486275 1.000000
0.290196 0.478431 1.000000
0.462745 0.478431 1.000000
0.615686 0.470588 1.000000
0.776471 0.474510 1.000000
0.925490 0.474510 1.000000
1.000000 0.466667 1.000000
0.000000 0.639216 1.000000
0.113725 0.635294 1.000000
0.278431 0.631373 1.000000
0.443137 0.627451 1.000000
0.600000 0.623529 1.000000
0.756863 0.619608 1.000000
0.909804 0.619608 1.000000
1.000000 0.619608 1.000000
0.000000 0.788235 1.000000
0.101961 0.780392 1.000000
0.262745 0.780392 1.000000
0.435294 0.772549 1.000000
0.596078 0.768627 1.000000
0.749020 0.764706 1.000000
0.905882 0.768627 1.000000
1.000000 0.764706 1.000000
0.000000 0.933333 1.000000
0.078431 0.929412 1.000000
0.247059 0.925490 1.000000
0.415686 0.921569 1.000000
0.576471 0.917647 1.000000
0.741176 0.909804 1.000000
0.890196 0.913725 1.000000
1.000000 0.901961 1.000000
0.000000 1.000000 1.000000
0.070588 1.000000 1.000000
0.247059 1.000000 1.000000
0.415686 1.000000 1.000000
0.576471 1.000000 1.000000
0.729412 1.000000 1.000000
0.886275 1.000000 1.000000
1.000000 1.000000 1.000000
