luts/full/popsicle.cube
TITLE "popsicle (full)"
LUT_3D_SIZE 6
0.047059 0.047059 0.047059
0.243137 0.039216 0.039216
0.466667 0.031373 0.031373
0.694118 0.039216 0.023529
0.933333 0.031373 0.011765
1.000000 0.019608 0.000000
0.027451 0.235294 0.027451
0.231373 0.231373 0.019608
0.450980 0.227451 0.007843
0.674510 0.231373 0.000000
0.909804 0.235294 0.000000
1.000000 0.227451 0.000000
0.000000 0.443137 0.000000
0.215686 0.435294 0.000000
0.435294 0.439216 0.000000
0.662745 0.443137 0.000000
0.886275 0.450980 0.000000
1.000000 0.439216 0.000000
0.000000 0.654902 0.000000
0.192157 0.654902 0.000000
0.411765 0.658824 0.000000
0.639216 0.647059 0.000000
0.866667 0.658824 0.000000
1.000000 0.650980 0.000000
0.000000 0.882353 0.000000
0.160784 0.878431 0.000000
0.392157 0.870588 0.000000
0.615686 0.870588 0.000000
0.847059 0.858824 0.000000
1.000000 0.862745 0.000000
0.000000 1.000000 0.000000
0.141176 1.000000 0.000000
0.368627 1.000000 0.000000
0.600000 1.000000 0.000000
0.823529 1.000000 0.000000
1.000000 1.000000 0.000000
0.043137 0.043137 0.243137
0.247059 0.039216 0.247059
0.462745 0.031373 0.239216
0.694118 0.035294 0.239216
0.925490 0.027451 0.231373
1.000000 0.019608 0.231373
0.023529 0.231373 0.235294
0.231373 0.231373 0.231373
0.443137 0.239216 0.223529
0.670588 0.243137 0.223529
0.894118 0.235294 0.207843
1.000000 0.227451 0.207843
0.000000 0.435294 0.219608
0.215686 0.454902 0.215686
0.435294 0.439216 0.215686
0.650980 0.450980 0.203922
0.874510 0.447059 0.196078
1.000000 0.439216 0.192157
0.000000 0.658824 0.192157
0.192157 0.662745 0.192157
0.415686 0.658824 0.192157
0.639216 0.658824 0.188235
0.866667 0.658824 0.188235
1.000000 0.650980 0.164706
0.000000 0.886275 0.164706
0.176471 0.870588 0.180392
0.392157 0.866667 0.168627
0.615686 0.862745 0.160784
0.843137 0.854902 0.160784
1.000000 0.858824 0.141176
0.000000 1.000000 0.137255
0.145098 1.000000 0.149020
0.376471 1.000000 0.141176
0.607843 1.000000 0.145098
0.827451 1.000000 0.133333
1.000000 1.000000 0.121569
0.039216 0.039216 0.474510
0.243137 0.035294 0.466667
0.466667 0.027451 0.466667
0.690196 0.031373 0.458824
0.921569 0.023529 0.466667
1.000000 0.019608 0.458824
0.019608 0.235294 0.458824
0.227451 0.239216 0.443137
0.447059 0.239216 0.447059
0.670588 0.239216 0.439216
0.901961 0.235294 0.447059
1.000000 0.223529 0.435294
0.000000 0.439216 0.435294
0.219608 0.447059 0.439216
0.439216 0.458824 0.439216
0.647059 0.450980 0.427451
0.870588 0.443137 0.427451
1.000000 0.443137 0.419608
0.000000 0.662745 0.419608
0.192157 0.662745 0.415686
0.415686 0.654902 0.415686
0.639216 0.654902 0.419608
0.854902 0.654902 0.411765
1.000000 0.658824 0.400000
0.000000 0.878431 0.396078
0.168627 0.874510 0.400000
0.400000 0.866667 0.400000
0.623529 0.862745 0.400000
0.835294 0.858824 0.388235
1.000000 0.850980 0.384314
0.000000 1.000000 0.380392
0.149020 1.000000 0.380392
0.384314 1.000000 0.384314
0.603922 1.000000 0.376471
0.819608 1.000000 0.376471
1.000000 1.000000 0.380392
0.039216 0.054902 0.701961
0.247059 0.047059 0.701961
0.470588 0.039216 0.694118
0.690196 0.031373 0.686275
0.925490 0.023529 0.690196
1.000000 0.019608 0.694118
0.011765 0.243137 0.682353
0.231373 0.247059 0.678431
0.447059 0.243137 0.666667
0.670588 0.239216 0.670588
0.894118 0.231373 0.670588
1.000000 0.223529 0.674510
0.000000 0.447059 0.666667
0.215686 0.458824 0.662745
0.431373 0.454902 0.650980
0.654902 0.447059 0.654902
0.866667 0.450980 0.647059
1.000000 0.435294 0.650980
0.000000 0.654902 0.654902
0.196078 0.662745 0.643137
0.423529 0.658824 0.643137
0.635294 0.654902 0.635294
0.843137 0.654902 0.627451
1.000000 0.650980 0.639216
0.000000 0.882353 0.635294
0.164706 0.870588 0.623529
0.403922 0.858824 0.627451
0.619608 0.858824 0.619608
0.839216 0.854902 0.627451
1.000000 0.854902 0.615686
0.000000 1.000000 0.611765
0.149020 1.000000 0.603922
0.384314 1.000000 0.615686
0.603922 1.000000 0.607843
0.823529 1.000000 0.611765
1.000000 1.000000 0.607843
0.035294 0.054902 0.945098
0.247059 0.047059 0.933333
0.466667 0.035294 0.929412
0.701961 0.027451 0.929412
0.925490 0.019608 0.921569
1.000000 0.019608 0.933333
0.003922 0.247059 0.925490
0.227451 0.247059 0.905882
0.454902 0.239216 0.905882
0.674510 0.239216 0.898039
0.890196 0.235294 0.886275
1.000000 0.223529 0.894118
0.000000 0.454902 0.901961
0.200000 0.450980 0.878431
0.431373 0.447059 0.878431
0.654902 0.450980 0.866667
0.874510 0.443137 0.870588
1.000000 0.443137 0.874510
0.000000 0.666667 0.878431
0.188235 0.662745 0.870588
0.415686 0.658824 0.858824
0.635294 0.658824 0.847059
0.843137 0.650980 0.843137
1.000000 0.654902 0.847059
0.000000 0.878431 0.854902
0.172549 0.866667 0.850980
0.396078 0.862745 0.839216
0.623529 0.854902 0.843137
0.839216 0.858824 0.839216
1.000000 0.854902 0.831373
0.000000 1.000000 0.835294
0.141176 1.000000 0.839216
0.380392 1.000000 0.831373
0.615686 1.000000 0.835294
0.827451 1.000000 0.827451
1.000000 1.000000 0.831373
0.027451 0.047059 1.000000
0.247059 0.039216 1.000000
0.478431 0.031373 1.000000
0.705882 0.019608 1.000000
0.929412 0.019608 1.000000
1.000000 0.019608 1.000000
0.000000 0.250980 1.000000
0.215686 0.243137 1.000000
0.450980 0.235294 1.000000
0.678431 0.235294 1.000000
0.905882 0.227451 1.000000
1.000000 0.219608 1.000000
0.000000 0.458824 1.000000
0.200000 0.447059 1.000000
0.435294 0.454902 1.000000
0.658824 0.443137 1.000000
0.874510 0.443137 1.000000
1.000000 0.439216 1.000000
0.000000 0.670588 1.000000
0.176471 0.658824 1.000000
0.407843 0.658824 1.000000
0.639216 0.650980 1.000000
0.850980 0.650980 1.000000
1.000000 0.650980 1.000000
0.000000 0.874510 1.000000
0.160784 0.870588 1.000000
0.400000 0.862745 1.000000
0.619608 0.858824 1.000000
0.831373 0.854902 1.000000
1.000000 0.854902 1.000000
0.000000 1.000000 1.000000
0.141176 1.000000 1.000000
0.384314 1.000000 1.000000
0.607843 1.000000 1.000000
0.831373 1.000000 1.000000
1.000000 1.000000 1.000000
