luts/full/super-8.cube
TITLE "super-8 (full)"
LUT_3D_SIZE 8
0.039216 0.015686 0.031373
0.200000 0.011765 0.027451
0.360784 0.007843 0.023529
0.505882 0.003922 0.015686
0.631373 0.003922 0.011765
0.737255 0.007843 0.007843
0.819608 0.007843 0.003922
0.905882 0.003922 0.000000
0.027451 0.156863 0.019608
0.188235 0.156863 0.015686
0.345098 0.152941 0.007843
0.490196 0.145098 0.003922
0.615686 0.145098 0.000000
0.721569 0.152941 0.000000
0.803922 0.152941 0.000000
0.886275 0.149020 0.000000
0.015686 0.294118 0.007843
0.180392 0.290196 0.003922
0.333333 0.286275 0.000000
0.478431 0.282353 0.000000
0.603922 0.282353 0.000000
0.705882 0.286275 0.000000
0.788235 0.286275 0.000000
0.870588 0.286275 0.000000
0.000000 0.415686 0.000000
0.164706 0.411765 0.000000
0.321569 0.407843 0.000000
0.466667 0.403922 0.000000
0.592157 0.403922 0.000000
0.694118 0.411765 0.000000
0.772549 0.411765 0.000000
0.854902 0.407843 0.000000
0.000000 0.525490 0.000000
0.152941 0.517647 0.000000
0.313725 0.513725 0.000000
0.454902 0.509804 0.000000
0.580392 0.505882 0.000000
0.682353 0.513725 0.000000
0.760784 0.513725 0.000000
0.843137 0.509804 0.000000
0.000000 0.619608 0.000000
0.141176 0.615686 0.000000
0.301961 0.607843 0.000000
0.447059 0.603922 0.000000
0.568627 0.600000 0.000000
0.670588 0.603922 0.000000
0.752941 0.603922 0.000000
0.831373 0.600000 0.000000
0.000000 0.690196 0.000000
0.133333 0.686275 0.000000
0.290196 0.678431 0.000000
0.439216 0.674510 0.000000
0.560784 0.670588 0.000000
0.662745 0.666667 0.000000
0.745098 0.670588 0.000000
0.823529 0.666667 0.000000
0.000000 0.764706 0.000000
0.121569 0.760784 0.000000
0.282353 0.752941 0.000000
0.427451 0.749020 0.000000
0.552941 0.745098 0.000000
0.654902 0.741176 0.000000
0.737255 0.741176 0.000000
0.815686 0.737255 0.000000
0.039216 0.015686 0.168627
0.200000 0.011765 0.164706
0.356863 0.007843 0.164706
0.505882 0.003922 0.160784
0.631373 0.003922 0.156863
0.737255 0.007843 0.152941
0.819608 0.007843 0.149020
0.901961 0.003922 0.145098
0.027451 0.156863 0.156863
0.188235 0.152941 0.152941
0.345098 0.149020 0.149020
0.486275 0.149020 0.145098
0.611765 0.152941 0.141176
0.713725 0.156863 0.137255
0.796078 0.152941 0.133333
0.878431 0.149020 0.129412
0.015686 0.290196 0.145098
0.180392 0.286275 0.145098
0.333333 0.286275 0.141176
0.474510 0.286275 0.133333
0.600000 0.290196 0.129412
0.701961 0.290196 0.121569
0.780392 0.286275 0.117647
0.862745 0.286275 0.113725
0.000000 0.415686 0.133333
0.168627 0.415686 0.133333
0.321569 0.411765 0.129412
0.462745 0.407843 0.121569
0.588235 0.411765 0.117647
0.686275 0.411765 0.109804
0.768627 0.411765 0.105882
0.850980 0.407843 0.101961
0.000000 0.521569 0.121569
0.156863 0.521569 0.121569
0.309804 0.517647 0.117647
0.454902 0.513725 0.113725
0.576471 0.513725 0.105882
0.678431 0.513725 0.101961
0.756863 0.513725 0.094118
0.839216 0.509804 0.090196
0.000000 0.615686 0.109804
0.145098 0.619608 0.105882
0.301961 0.615686 0.101961
0.443137 0.611765 0.098039
0.568627 0.607843 0.094118
0.666667 0.603922 0.090196
0.749020 0.603922 0.086275
0.827451 0.600000 0.078431
0.000000 0.690196 0.101961
0.133333 0.686275 0.098039
0.294118 0.682353 0.094118
0.439216 0.678431 0.090196
0.560784 0.674510 0.086275
0.662745 0.670588 0.082353
0.741176 0.666667 0.078431
0.819608 0.666667 0.070588
0.000000 0.764706 0.090196
0.125490 0.756863 0.090196
0.282353 0.752941 0.082353
0.427451 0.749020 0.078431
0.552941 0.745098 0.074510
0.654902 0.741176 0.074510
0.733333 0.737255 0.070588
0.811765 0.737255 0.062745
0.035294 0.015686 0.305882
0.200000 0.011765 0.301961
0.356863 0.007843 0.298039
0.505882 0.000000 0.298039
0.631373 0.000000 0.294118
0.733333 0.003922 0.290196
0.815686 0.003922 0.290196
0.901961 0.000000 0.286275
0.023529 0.156863 0.294118
0.188235 0.152941 0.290196
0.341176 0.149020 0.286275
0.486275 0.152941 0.282353
0.607843 0.152941 0.278431
0.713725 0.152941 0.274510
0.796078 0.149020 0.274510
0.878431 0.149020 0.270588
0.011765 0.290196 0.282353
0.176471 0.286275 0.278431
0.329412 0.286275 0.274510
0.470588 0.294118 0.270588
0.592157 0.294118 0.266667
0.694118 0.290196 0.262745
0.776471 0.286275 0.258824
0.858824 0.282353 0.258824
0.000000 0.415686 0.270588
0.164706 0.411765 0.266667
0.321569 0.415686 0.262745
0.462745 0.415686 0.258824
0.584314 0.415686 0.254902
0.682353 0.411765 0.250980
0.764706 0.407843 0.247059
0.847059 0.407843 0.243137
0.000000 0.521569 0.258824
0.152941 0.521569 0.254902
0.309804 0.521569 0.254902
0.454902 0.517647 0.250980
0.572549 0.517647 0.247059
0.674510 0.513725 0.243137
0.752941 0.509804 0.239216
0.835294 0.509804 0.235294
0.000000 0.615686 0.250980
0.145098 0.619608 0.247059
0.301961 0.611765 0.243137
0.443137 0.607843 0.239216
0.564706 0.607843 0.239216
0.666667 0.603922 0.231373
0.745098 0.600000 0.227451
0.823529 0.600000 0.223529
0.000000 0.686275 0.239216
0.133333 0.682353 0.239216
0.294118 0.678431 0.235294
0.439216 0.674510 0.231373
0.560784 0.670588 0.227451
0.658824 0.670588 0.227451
0.737255 0.666667 0.223529
0.819608 0.662745 0.215686
0.000000 0.760784 0.231373
0.125490 0.752941 0.227451
0.286275 0.749020 0.227451
0.431373 0.745098 0.223529
0.552941 0.741176 0.219608
0.654902 0.737255 0.215686
0.733333 0.737255 0.215686
0.811765 0.733333 0.211765
0.035294 0.011765 0.431373
0.200000 0.007843 0.427451
0.356863 0.003922 0.423529
0.501961 0.000000 0.423529
0.627451 0.000000 0.419608
0.733333 0.003922 0.419608
0.815686 0.003922 0.415686
0.898039 0.000000 0.415686
0.023529 0.156863 0.419608
0.188235 0.156863 0.411765
0.341176 0.152941 0.407843
0.486275 0.152941 0.403922
0.607843 0.152941 0.403922
0.709804 0.152941 0.400000
0.792157 0.149020 0.400000
0.874510 0.145098 0.396078
0.011765 0.290196 0.407843
0.176471 0.290196 0.400000
0.329412 0.294118 0.396078
0.470588 0.294118 0.392157
0.592157 0.290196 0.388235
0.694118 0.290196 0.388235
0.776471 0.286275 0.384314
0.854902 0.282353 0.384314
0.000000 0.411765 0.396078
0.164706 0.411765 0.388235
0.321569 0.415686 0.384314
0.458824 0.415686 0.380392
0.580392 0.415686 0.380392
0.682353 0.411765 0.376471
0.760784 0.407843 0.372549
0.839216 0.407843 0.372549
0.000000 0.521569 0.384314
0.152941 0.521569 0.380392
0.309804 0.521569 0.376471
0.450980 0.517647 0.372549
0.572549 0.513725 0.372549
0.670588 0.513725 0.368627
0.752941 0.509804 0.364706
0.831373 0.509804 0.360784
0.000000 0.615686 0.376471
0.141176 0.615686 0.368627
0.301961 0.611765 0.368627
0.443137 0.607843 0.364706
0.564706 0.603922 0.364706
0.662745 0.603922 0.360784
0.741176 0.600000 0.356863
0.823529 0.600000 0.352941
0.000000 0.686275 0.364706
0.133333 0.682353 0.364706
0.294118 0.678431 0.360784
0.439216 0.674510 0.360784
0.560784 0.670588 0.356863
0.658824 0.666667 0.352941
0.737255 0.666667 0.349020
0.815686 0.662745 0.345098
0.000000 0.760784 0.356863
0.125490 0.752941 0.352941
0.286275 0.745098 0.352941
0.431373 0.741176 0.352941
0.552941 0.741176 0.349020
0.650980 0.737255 0.345098
0.729412 0.733333 0.345098
0.807843 0.733333 0.337255
0.035294 0.011765 0.537255
0.200000 0.007843 0.533333
0.356863 0.003922 0.529412
0.501961 0.000000 0.525490
0.627451 0.000000 0.525490
0.733333 0.003922 0.521569
0.815686 0.003922 0.521569
0.898039 0.000000 0.521569
0.019608 0.156863 0.521569
0.184314 0.160784 0.513725
0.341176 0.156863 0.509804
0.482353 0.152941 0.505882
0.607843 0.152941 0.505882
0.709804 0.152941 0.501961
0.792157 0.149020 0.501961
0.874510 0.145098 0.501961
0.007843 0.290196 0.509804
0.172549 0.294118 0.501961
0.329412 0.298039 0.494118
0.470588 0.294118 0.490196
0.592157 0.290196 0.490196
0.694118 0.286275 0.490196
0.772549 0.286275 0.486275
0.854902 0.282353 0.486275
0.000000 0.411765 0.498039
0.164706 0.415686 0.490196
0.317647 0.419608 0.486275
0.458824 0.415686 0.482353
0.580392 0.411765 0.478431
0.678431 0.411765 0.478431
0.760784 0.407843 0.474510
0.839216 0.407843 0.474510
0.000000 0.517647 0.486275
0.152941 0.521569 0.482353
0.309804 0.521569 0.478431
0.450980 0.517647 0.474510
0.572549 0.513725 0.470588
0.670588 0.513725 0.470588
0.749020 0.509804 0.466667
0.827451 0.509804 0.462745
0.000000 0.615686 0.478431
0.141176 0.615686 0.470588
0.301961 0.611765 0.470588
0.443137 0.607843 0.466667
0.564706 0.603922 0.462745
0.662745 0.600000 0.462745
0.741176 0.600000 0.458824
0.819608 0.596078 0.454902
0.000000 0.686275 0.470588
0.133333 0.682353 0.466667
0.294118 0.674510 0.462745
0.439216 0.670588 0.458824
0.560784 0.670588 0.458824
0.658824 0.666667 0.454902
0.737255 0.666667 0.454902
0.811765 0.662745 0.450980
0.000000 0.760784 0.462745
0.121569 0.752941 0.458824
0.286275 0.745098 0.454902
0.431373 0.741176 0.454902
0.552941 0.737255 0.450980
0.650980 0.737255 0.447059
0.729412 0.733333 0.447059
0.807843 0.733333 0.443137
0.031373 0.015686 0.631373
0.200000 0.011765 0.623529
0.356863 0.003922 0.619608
0.501961 0.000000 0.615686
0.627451 0.000000 0.611765
0.729412 0.000000 0.611765
0.811765 0.000000 0.611765
0.898039 0.000000 0.611765
0.019608 0.156863 0.615686
0.184314 0.160784 0.603922
0.341176 0.156863 0.600000
0.486275 0.152941 0.596078
0.607843 0.149020 0.592157
0.709804 0.152941 0.592157
0.792157 0.149020 0.592157
0.874510 0.145098 0.592157
0.003922 0.294118 0.600000
0.172549 0.298039 0.592157
0.329412 0.298039 0.584314
0.470588 0.294118 0.580392
0.592157 0.290196 0.576471
0.694118 0.286275 0.576471
0.772549 0.286275 0.576471
0.854902 0.282353 0.572549
0.000000 0.415686 0.588235
0.160784 0.419608 0.580392
0.317647 0.419608 0.572549
0.458824 0.415686 0.568627
0.580392 0.411765 0.564706
0.678431 0.411765 0.564706
0.756863 0.407843 0.564706
0.839216 0.403922 0.560784
0.000000 0.517647 0.576471
0.149020 0.521569 0.568627
0.309804 0.521569 0.564706
0.450980 0.517647 0.560784
0.568627 0.513725 0.556863
0.670588 0.513725 0.556863
0.749020 0.509804 0.552941
0.827451 0.505882 0.552941
0.000000 0.611765 0.568627
0.141176 0.615686 0.560784
0.301961 0.611765 0.556863
0.443137 0.607843 0.552941
0.564706 0.603922 0.552941
0.662745 0.600000 0.549020
0.741176 0.600000 0.545098
0.819608 0.596078 0.545098
0.000000 0.682353 0.560784
0.133333 0.682353 0.552941
0.294118 0.674510 0.549020
0.439216 0.670588 0.549020
0.560784 0.666667 0.545098
0.658824 0.666667 0.545098
0.733333 0.662745 0.541176
0.811765 0.662745 0.537255
0.000000 0.756863 0.552941
0.121569 0.752941 0.549020
0.286275 0.745098 0.545098
0.431373 0.741176 0.541176
0.552941 0.737255 0.541176
0.650980 0.733333 0.537255
0.729412 0.733333 0.537255
0.807843 0.729412 0.533333
0.031373 0.019608 0.701961
0.200000 0.011765 0.694118
0.356863 0.007843 0.690196
0.505882 0.003922 0.686275
0.627451 0.000000 0.682353
0.729412 0.000000 0.678431
0.811765 0.000000 0.678431
0.898039 0.000000 0.678431
0.015686 0.160784 0.682353
0.184314 0.164706 0.674510
0.341176 0.160784 0.666667
0.486275 0.156863 0.662745
0.607843 0.152941 0.662745
0.709804 0.149020 0.658824
0.792157 0.149020 0.658824
0.874510 0.145098 0.658824
0.000000 0.298039 0.670588
0.168627 0.301961 0.658824
0.325490 0.298039 0.650980
0.470588 0.294118 0.647059
0.592157 0.290196 0.643137
0.690196 0.286275 0.643137
0.772549 0.282353 0.643137
0.854902 0.282353 0.643137
0.000000 0.419608 0.654902
0.156863 0.423529 0.647059
0.317647 0.419608 0.639216
0.458824 0.415686 0.635294
0.580392 0.411765 0.631373
0.678431 0.407843 0.631373
0.756863 0.407843 0.627451
0.839216 0.403922 0.627451
0.000000 0.521569 0.643137
0.149020 0.525490 0.635294
0.305882 0.521569 0.631373
0.450980 0.517647 0.627451
0.568627 0.513725 0.623529
0.670588 0.509804 0.619608
0.745098 0.509804 0.619608
0.827451 0.505882 0.619608
0.000000 0.611765 0.635294
0.141176 0.615686 0.627451
0.298039 0.607843 0.623529
0.443137 0.603922 0.619608
0.564706 0.603922 0.615686
0.662745 0.600000 0.611765
0.737255 0.600000 0.611765
0.815686 0.596078 0.611765
0.000000 0.682353 0.627451
0.129412 0.678431 0.623529
0.294118 0.674510 0.615686
0.439216 0.670588 0.611765
0.556863 0.666667 0.611765
0.654902 0.666667 0.607843
0.733333 0.662745 0.607843
0.811765 0.662745 0.603922
0.000000 0.756863 0.619608
0.121569 0.749020 0.615686
0.282353 0.745098 0.611765
0.431373 0.741176 0.607843
0.552941 0.737255 0.603922
0.650980 0.733333 0.603922
0.729412 0.733333 0.600000
0.803922 0.729412 0.600000
0.031373 0.019608 0.768627
0.200000 0.015686 0.764706
0.356863 0.011765 0.760784
0.505882 0.007843 0.756863
0.627451 0.003922 0.752941
0.729412 0.000000 0.749020
0.811765 0.000000 0.749020
0.898039 0.000000 0.749020
0.015686 0.164706 0.752941
0.184314 0.164706 0.741176
0.341176 0.160784 0.737255
0.486275 0.156863 0.733333
0.607843 0.152941 0.729412
0.709804 0.149020 0.725490
0.788235 0.145098 0.725490
0.870588 0.141176 0.725490
0.000000 0.301961 0.737255
0.168627 0.298039 0.729412
0.325490 0.294118 0.717647
0.470588 0.290196 0.713725
0.592157 0.290196 0.713725
0.690196 0.286275 0.709804
0.772549 0.282353 0.709804
0.850980 0.278431 0.709804
0.000000 0.423529 0.725490
0.156863 0.423529 0.713725
0.313725 0.419608 0.705882
0.458824 0.415686 0.701961
0.580392 0.411765 0.698039
0.678431 0.407843 0.694118
0.756863 0.407843 0.694118
0.835294 0.403922 0.694118
0.000000 0.525490 0.713725
0.145098 0.525490 0.705882
0.305882 0.517647 0.698039
0.450980 0.517647 0.690196
0.568627 0.513725 0.686275
0.666667 0.509804 0.686275
0.745098 0.509804 0.686275
0.823529 0.505882 0.682353
0.000000 0.615686 0.701961
0.137255 0.615686 0.694118
0.298039 0.607843 0.690196
0.443137 0.603922 0.682353
0.564706 0.603922 0.682353
0.662745 0.600000 0.678431
0.737255 0.600000 0.678431
0.815686 0.596078 0.674510
0.000000 0.682353 0.694118
0.129412 0.678431 0.690196
0.290196 0.674510 0.682353
0.435294 0.670588 0.678431
0.556863 0.666667 0.674510
0.654902 0.666667 0.674510
0.733333 0.662745 0.670588
0.811765 0.662745 0.670588
0.000000 0.756863 0.690196
0.121569 0.749020 0.682353
0.282353 0.745098 0.678431
0.431373 0.741176 0.674510
0.552941 0.737255 0.670588
0.650980 0.733333 0.666667
0.729412 0.733333 0.666667
0.803922 0.729412 0.666667
