luts/full/super-8.cube
TITLE "super-8 (full)"
LUT_3D_SIZE 6
0.039216 0.015686 0.031373
0.266667 0.011765 0.023529
0.478431 0.003922 0.019608
0.654902 0.007843 0.011765
0.788235 0.003922 0.003922
0.905882 0.003922 0.000000
0.023529 0.211765 0.015686
0.250980 0.207843 0.007843
0.458824 0.200000 0.000000
0.635294 0.203922 0.000000
0.764706 0.203922 0.000000
0.882353 0.203922 0.000000
0.003922 0.392157 0.000000
0.235294 0.384314 0.000000
0.443137 0.380392 0.000000
0.615686 0.384314 0.000000
0.745098 0.384314 0.000000
0.858824 0.384314 0.000000
0.000000 0.545098 0.000000
0.219608 0.537255 0.000000
0.427451 0.533333 0.000000
0.600000 0.529412 0.000000
0.729412 0.533333 0.000000
0.839216 0.533333 0.000000
0.000000 0.658824 0.000000
0.203922 0.654902 0.000000
0.415686 0.647059 0.000000
0.588235 0.643137 0.000000
0.713725 0.643137 0.000000
0.827451 0.643137 0.000000
0.000000 0.764706 0.000000
0.188235 0.756863 0.000000
0.403922 0.749020 0.000000
0.576471 0.745098 0.000000
0.705882 0.741176 0.000000
0.815686 0.737255 0.000000
0.039216 0.015686 0.227451
0.266667 0.011765 0.219608
0.478431 0.003922 0.219608
0.654902 0.003922 0.211765
0.784314 0.003922 0.207843
0.901961 0.003922 0.203922
0.023529 0.211765 0.211765
0.247059 0.203922 0.203922
0.454902 0.207843 0.200000
0.627451 0.211765 0.192157
0.756863 0.207843 0.188235
0.870588 0.203922 0.184314
0.003922 0.388235 0.196078
0.235294 0.388235 0.188235
0.439216 0.388235 0.184314
0.607843 0.392157 0.176471
0.737255 0.388235 0.168627
0.850980 0.384314 0.164706
0.000000 0.541176 0.176471
0.219608 0.541176 0.172549
0.427451 0.537255 0.168627
0.596078 0.537255 0.160784
0.721569 0.533333 0.156863
0.835294 0.529412 0.149020
0.000000 0.658824 0.164706
0.203922 0.658824 0.160784
0.415686 0.650980 0.152941
0.584314 0.647059 0.149020
0.709804 0.643137 0.145098
0.823529 0.639216 0.137255
0.000000 0.764706 0.149020
0.192157 0.752941 0.149020
0.403922 0.745098 0.141176
0.576471 0.741176 0.137255
0.701961 0.737255 0.133333
0.811765 0.733333 0.125490
0.035294 0.011765 0.407843
0.266667 0.007843 0.403922
0.474510 0.000000 0.400000
0.650980 0.003922 0.396078
0.784314 0.000000 0.396078
0.901961 0.000000 0.392157
0.019608 0.207843 0.392157
0.247059 0.207843 0.384314
0.454902 0.207843 0.376471
0.623529 0.207843 0.372549
0.752941 0.203922 0.372549
0.866667 0.200000 0.368627
0.000000 0.388235 0.376471
0.231373 0.388235 0.368627
0.435294 0.392157 0.364706
0.603922 0.388235 0.356863
0.733333 0.384314 0.352941
0.843137 0.380392 0.349020
0.000000 0.541176 0.360784
0.215686 0.545098 0.352941
0.423529 0.541176 0.349020
0.592157 0.537255 0.345098
0.717647 0.533333 0.341176
0.827451 0.529412 0.337255
0.000000 0.654902 0.349020
0.203922 0.654902 0.341176
0.415686 0.650980 0.341176
0.584314 0.647059 0.337255
0.709804 0.643137 0.329412
0.819608 0.639216 0.325490
0.000000 0.760784 0.333333
0.192157 0.749020 0.333333
0.403922 0.745098 0.329412
0.572549 0.737255 0.325490
0.701961 0.737255 0.321569
0.807843 0.733333 0.317647
0.035294 0.011765 0.560784
0.266667 0.003922 0.552941
0.478431 0.000000 0.549020
0.650980 0.000000 0.545098
0.784314 0.000000 0.545098
0.898039 0.000000 0.545098
0.015686 0.207843 0.541176
0.247059 0.215686 0.529412
0.450980 0.207843 0.521569
0.623529 0.207843 0.521569
0.752941 0.203922 0.517647
0.866667 0.200000 0.517647
0.000000 0.388235 0.521569
0.231373 0.392157 0.513725
0.435294 0.392157 0.505882
0.603922 0.388235 0.501961
0.729412 0.384314 0.498039
0.843137 0.380392 0.498039
0.000000 0.537255 0.505882
0.215686 0.545098 0.498039
0.423529 0.537255 0.494118
0.592157 0.533333 0.490196
0.717647 0.533333 0.486275
0.823529 0.529412 0.482353
0.000000 0.654902 0.494118
0.203922 0.654902 0.490196
0.415686 0.647059 0.486275
0.584314 0.643137 0.482353
0.705882 0.639216 0.478431
0.815686 0.639216 0.474510
0.000000 0.760784 0.482353
0.192157 0.749020 0.478431
0.403922 0.741176 0.474510
0.572549 0.737255 0.474510
0.698039 0.733333 0.470588
0.807843 0.733333 0.466667
0.031373 0.019608 0.670588
0.266667 0.011765 0.666667
0.478431 0.003922 0.658824
0.647059 0.000000 0.654902
0.780392 0.000000 0.654902
0.898039 0.000000 0.650980
0.011765 0.215686 0.650980
0.243137 0.215686 0.635294
0.450980 0.211765 0.631373
0.623529 0.207843 0.627451
0.752941 0.203922 0.627451
0.866667 0.200000 0.623529
0.000000 0.396078 0.631373
0.227451 0.396078 0.619608
0.435294 0.392157 0.611765
0.603922 0.388235 0.607843
0.729412 0.384314 0.603922
0.839216 0.380392 0.603922
0.000000 0.541176 0.615686
0.215686 0.541176 0.603922
0.423529 0.537255 0.600000
0.588235 0.533333 0.596078
0.713725 0.529412 0.592157
0.823529 0.529412 0.588235
0.000000 0.654902 0.603922
0.203922 0.654902 0.596078
0.415686 0.647059 0.588235
0.580392 0.643137 0.588235
0.705882 0.639216 0.584314
0.811765 0.639216 0.580392
0.000000 0.756863 0.592157
0.188235 0.749020 0.584314
0.403922 0.741176 0.580392
0.572549 0.737255 0.580392
0.698039 0.733333 0.576471
0.803922 0.729412 0.572549
0.031373 0.019608 0.768627
0.266667 0.015686 0.764706
0.478431 0.007843 0.756863
0.650980 0.003922 0.752941
0.780392 0.000000 0.749020
0.898039 0.000000 0.749020
0.007843 0.219608 0.749020
0.243137 0.215686 0.733333
0.450980 0.211765 0.725490
0.623529 0.203922 0.721569
0.749020 0.200000 0.717647
0.862745 0.196078 0.717647
0.000000 0.400000 0.729412
0.223529 0.396078 0.713725
0.435294 0.392157 0.705882
0.603922 0.388235 0.701961
0.729412 0.384314 0.698039
0.839216 0.380392 0.698039
0.000000 0.545098 0.709804
0.211765 0.541176 0.698039
0.423529 0.537255 0.690196
0.588235 0.533333 0.686275
0.713725 0.529412 0.682353
0.823529 0.525490 0.682353
0.000000 0.658824 0.698039
0.200000 0.650980 0.690196
0.411765 0.647059 0.682353
0.580392 0.643137 0.678431
0.705882 0.639216 0.674510
0.811765 0.635294 0.670588
0.000000 0.756863 0.690196
0.188235 0.749020 0.678431
0.403922 0.741176 0.674510
0.572549 0.737255 0.670588
0.698039 0.733333 0.666667
0.803922 0.729412 0.666667
