luts/full/super-8.cube
TITLE "super-8 (full)"
LUT_3D_SIZE 36
0.039216 0.015686 0.031373
0.066667 0.015686 0.031373
0.101961 0.015686 0.027451
0.133333 0.015686 0.027451
0.168627 0.015686 0.027451
0.200000 0.011765 0.027451
0.231373 0.011765 0.027451
0.266667 0.011765 0.023529
0.298039 0.011765 0.023529
0.329412 0.011765 0.023529
0.360784 0.007843 0.023529
0.392157 0.007843 0.019608
0.419608 0.007843 0.019608
0.447059 0.007843 0.019608
0.478431 0.003922 0.019608
0.505882 0.003922 0.015686
0.533333 0.003922 0.015686
0.560784 0.003922 0.015686
0.588235 0.003922 0.015686
0.611765 0.003922 0.011765
0.631373 0.003922 0.011765
0.654902 0.007843 0.011765
0.678431 0.007843 0.011765
0.698039 0.003922 0.007843
0.713725 0.003922 0.007843
0.737255 0.007843 0.007843
0.756863 0.007843 0.007843
0.768627 0.007843 0.007843
0.788235 0.003922 0.003922
0.807843 0.003922 0.003922
0.819608 0.007843 0.003922
0.839216 0.007843 0.003922
0.858824 0.007843 0.003922
0.870588 0.007843 0.000000
0.886275 0.003922 0.000000
0.905882 0.003922 0.000000
0.035294 0.043137 0.027451
0.066667 0.039216 0.027451
0.101961 0.039216 0.027451
0.129412 0.039216 0.027451
0.164706 0.039216 0.023529
0.200000 0.039216 0.023529
0.231373 0.035294 0.023529
0.266667 0.035294 0.023529
0.294118 0.035294 0.023529
0.325490 0.035294 0.019608
0.356863 0.035294 0.019608
0.388235 0.031373 0.019608
0.419608 0.031373 0.019608
0.447059 0.031373 0.015686
0.478431 0.031373 0.015686
0.501961 0.027451 0.015686
0.529412 0.027451 0.015686
0.556863 0.027451 0.011765
0.584314 0.031373 0.011765
0.607843 0.027451 0.011765
0.631373 0.027451 0.011765
0.650980 0.031373 0.007843
0.674510 0.031373 0.007843
0.694118 0.031373 0.007843
0.713725 0.027451 0.007843
0.733333 0.031373 0.003922
0.752941 0.031373 0.003922
0.768627 0.031373 0.003922
0.784314 0.031373 0.003922
0.803922 0.031373 0.003922
0.815686 0.031373 0.000000
0.835294 0.031373 0.000000
0.854902 0.031373 0.000000
0.870588 0.031373 0.000000
0.882353 0.031373 0.000000
0.901961 0.027451 0.000000
0.035294 0.070588 0.027451
0.062745 0.070588 0.027451
0.098039 0.066667 0.023529
0.129412 0.066667 0.023529
0.164706 0.066667 0.023529
0.196078 0.066667 0.023529
0.227451 0.066667 0.019608
0.262745 0.062745 0.019608
0.294118 0.062745 0.019608
0.321569 0.062745 0.019608
0.352941 0.062745 0.015686
0.384314 0.062745 0.015686
0.415686 0.058824 0.015686
0.443137 0.058824 0.015686
0.474510 0.058824 0.011765
0.501961 0.058824 0.011765
0.529412 0.054902 0.011765
0.552941 0.054902 0.011765
0.580392 0.058824 0.007843
0.603922 0.058824 0.007843
0.627451 0.058824 0.007843
0.650980 0.058824 0.003922
0.670588 0.058824 0.003922
0.690196 0.058824 0.003922
0.709804 0.058824 0.003922
0.729412 0.062745 0.000000
0.749020 0.058824 0.000000
0.764706 0.058824 0.000000
0.780392 0.058824 0.000000
0.800000 0.058824 0.000000
0.815686 0.062745 0.000000
0.831373 0.062745 0.000000
0.850980 0.058824 0.000000
0.866667 0.058824 0.000000
0.878431 0.058824 0.000000
0.898039 0.058824 0.000000
0.031373 0.098039 0.023529
0.062745 0.098039 0.023529
0.098039 0.098039 0.023529
0.125490 0.094118 0.023529
0.160784 0.094118 0.019608
0.196078 0.094118 0.019608
0.223529 0.094118 0.019608
0.258824 0.094118 0.019608
0.290196 0.090196 0.015686
0.321569 0.090196 0.015686
0.352941 0.090196 0.015686
0.384314 0.090196 0.015686
0.411765 0.090196 0.011765
0.439216 0.086275 0.011765
0.470588 0.086275 0.011765
0.498039 0.086275 0.007843
0.525490 0.086275 0.007843
0.552941 0.082353 0.007843
0.580392 0.086275 0.007843
0.600000 0.086275 0.003922
0.623529 0.086275 0.003922
0.647059 0.090196 0.003922
0.670588 0.086275 0.000000
0.686275 0.086275 0.000000
0.705882 0.086275 0.000000
0.729412 0.090196 0.000000
0.745098 0.090196 0.000000
0.760784 0.090196 0.000000
0.780392 0.086275 0.000000
0.796078 0.086275 0.000000
0.811765 0.090196 0.000000
0.827451 0.090196 0.000000
0.847059 0.090196 0.000000
0.862745 0.090196 0.000000
0.874510 0.086275 0.000000
0.894118 0.086275 0.000000
0.031373 0.125490 0.023529
0.058824 0.125490 0.019608
0.094118 0.125490 0.019608
0.125490 0.125490 0.019608
0.156863 0.125490 0.019608
0.192157 0.121569 0.019608
0.223529 0.121569 0.015686
0.258824 0.121569 0.015686
0.286275 0.121569 0.015686
0.317647 0.121569 0.011765
0.349020 0.117647 0.011765
0.380392 0.117647 0.011765
0.411765 0.117647 0.011765
0.439216 0.117647 0.007843
0.466667 0.113725 0.007843
0.494118 0.113725 0.007843
0.521569 0.113725 0.003922
0.549020 0.113725 0.003922
0.576471 0.117647 0.003922
0.600000 0.113725 0.003922
0.619608 0.113725 0.000000
0.643137 0.117647 0.000000
0.666667 0.117647 0.000000
0.682353 0.117647 0.000000
0.701961 0.113725 0.000000
0.725490 0.117647 0.000000
0.745098 0.117647 0.000000
0.756863 0.117647 0.000000
0.776471 0.117647 0.000000
0.792157 0.117647 0.000000
0.807843 0.117647 0.000000
0.827451 0.117647 0.000000
0.843137 0.117647 0.000000
0.858824 0.117647 0.000000
0.870588 0.117647 0.000000
0.890196 0.117647 0.000000
0.027451 0.156863 0.019608
0.058824 0.156863 0.019608
0.090196 0.156863 0.019608
0.121569 0.156863 0.015686
0.156863 0.156863 0.015686
0.188235 0.156863 0.015686
0.219608 0.152941 0.015686
0.254902 0.152941 0.011765
0.286275 0.152941 0.011765
0.313725 0.152941 0.011765
0.345098 0.152941 0.007843
0.376471 0.149020 0.007843
0.407843 0.149020 0.007843
0.435294 0.149020 0.007843
0.466667 0.149020 0.003922
0.490196 0.145098 0.003922
0.517647 0.145098 0.003922
0.545098 0.145098 0.000000
0.572549 0.149020 0.000000
0.596078 0.149020 0.000000
0.615686 0.145098 0.000000
0.639216 0.149020 0.000000
0.662745 0.149020 0.000000
0.682353 0.149020 0.000000
0.698039 0.149020 0.000000
0.721569 0.152941 0.000000
0.741176 0.149020 0.000000
0.752941 0.149020 0.000000
0.772549 0.149020 0.000000
0.792157 0.149020 0.000000
0.803922 0.152941 0.000000
0.823529 0.152941 0.000000
0.839216 0.149020 0.000000
0.854902 0.149020 0.000000
0.866667 0.149020 0.000000
0.886275 0.149020 0.000000
0.027451 0.184314 0.015686
0.054902 0.184314 0.015686
0.090196 0.180392 0.015686
0.121569 0.180392 0.015686
0.152941 0.180392 0.015686
0.188235 0.180392 0.011765
0.219608 0.180392 0.011765
0.250980 0.176471 0.011765
0.282353 0.176471 0.007843
0.313725 0.176471 0.007843
0.345098 0.176471 0.007843
0.376471 0.176471 0.007843
0.403922 0.172549 0.003922
0.431373 0.172549 0.003922
0.462745 0.172549 0.003922
0.490196 0.172549 0.000000
0.517647 0.172549 0.000000
0.545098 0.168627 0.000000
0.568627 0.172549 0.000000
0.592157 0.172549 0.000000
0.615686 0.172549 0.000000
0.635294 0.176471 0.000000
0.658824 0.172549 0.000000
0.678431 0.172549 0.000000
0.698039 0.172549 0.000000
0.717647 0.176471 0.000000
0.737255 0.176471 0.000000
0.749020 0.176471 0.000000
0.768627 0.172549 0.000000
0.788235 0.172549 0.000000
0.800000 0.176471 0.000000
0.819608 0.176471 0.000000
0.839216 0.176471 0.000000
0.850980 0.176471 0.000000
0.866667 0.172549 0.000000
0.882353 0.172549 0.000000
0.023529 0.211765 0.015686
0.054902 0.211765 0.011765
0.086275 0.211765 0.011765
0.117647 0.207843 0.011765
0.152941 0.207843 0.011765
0.184314 0.207843 0.011765
0.215686 0.207843 0.011765
0.250980 0.207843 0.007843
0.282353 0.203922 0.007843
0.309804 0.203922 0.007843
0.341176 0.203922 0.003922
0.372549 0.203922 0.003922
0.403922 0.203922 0.003922
0.427451 0.200000 0.000000
0.458824 0.200000 0.000000
0.486275 0.200000 0.000000
0.513725 0.200000 0.000000
0.541176 0.200000 0.000000
0.568627 0.200000 0.000000
0.588235 0.200000 0.000000
0.611765 0.200000 0.000000
0.635294 0.203922 0.000000
0.654902 0.203922 0.000000
0.674510 0.203922 0.000000
0.694118 0.200000 0.000000
0.713725 0.203922 0.000000
0.733333 0.203922 0.000000
0.749020 0.203922 0.000000
0.764706 0.203922 0.000000
0.784314 0.203922 0.000000
0.796078 0.203922 0.000000
0.815686 0.203922 0.000000
0.835294 0.203922 0.000000
0.847059 0.203922 0.000000
0.862745 0.203922 0.000000
0.882353 0.203922 0.000000
0.019608 0.239216 0.011765
0.050980 0.239216 0.011765
0.086275 0.239216 0.011765
0.113725 0.239216 0.007843
0.149020 0.235294 0.007843
0.184314 0.235294 0.007843
0.211765 0.235294 0.007843
0.247059 0.235294 0.007843
0.278431 0.235294 0.003922
0.309804 0.235294 0.003922
0.337255 0.231373 0.003922
0.368627 0.231373 0.000000
0.400000 0.231373 0.000000
0.427451 0.231373 0.000000
0.458824 0.231373 0.000000
0.482353 0.227451 0.000000
0.509804 0.227451 0.000000
0.537255 0.227451 0.000000
0.564706 0.231373 0.000000
0.588235 0.231373 0.000000
0.607843 0.227451 0.000000
0.631373 0.231373 0.000000
0.654902 0.231373 0.000000
0.670588 0.231373 0.000000
0.690196 0.231373 0.000000
0.713725 0.235294 0.000000
0.729412 0.231373 0.000000
0.745098 0.231373 0.000000
0.760784 0.231373 0.000000
0.780392 0.231373 0.000000
0.792157 0.235294 0.000000
0.811765 0.235294 0.000000
0.831373 0.231373 0.000000
0.843137 0.231373 0.000000
0.858824 0.231373 0.000000
0.878431 0.231373 0.000000
0.019608 0.262745 0.007843
0.047059 0.262745 0.007843
0.082353 0.262745 0.007843
0.113725 0.262745 0.007843
0.149020 0.262745 0.007843
0.180392 0.258824 0.003922
0.211765 0.258824 0.003922
0.247059 0.258824 0.003922
0.274510 0.258824 0.003922
0.305882 0.258824 0.000000
0.337255 0.258824 0.000000
0.368627 0.254902 0.000000
0.396078 0.254902 0.000000
0.423529 0.254902 0.000000
0.454902 0.254902 0.000000
0.482353 0.254902 0.000000
0.509804 0.250980 0.000000
0.533333 0.250980 0.000000
0.560784 0.254902 0.000000
0.584314 0.254902 0.000000
0.607843 0.254902 0.000000
0.627451 0.254902 0.000000
0.650980 0.254902 0.000000
0.670588 0.254902 0.000000
0.686275 0.254902 0.000000
0.709804 0.258824 0.000000
0.729412 0.258824 0.000000
0.741176 0.254902 0.000000
0.760784 0.254902 0.000000
0.776471 0.254902 0.000000
0.792157 0.258824 0.000000
0.807843 0.258824 0.000000
0.827451 0.258824 0.000000
0.843137 0.258824 0.000000
0.854902 0.254902 0.000000
0.874510 0.254902 0.000000
0.015686 0.294118 0.007843
0.047059 0.294118 0.003922
0.078431 0.290196 0.003922
0.109804 0.290196 0.003922
0.145098 0.290196 0.003922
0.180392 0.290196 0.003922
0.207843 0.290196 0.000000
0.243137 0.286275 0.000000
0.274510 0.286275 0.000000
0.301961 0.286275 0.000000
0.333333 0.286275 0.000000
0.364706 0.286275 0.000000
0.396078 0.282353 0.000000
0.423529 0.282353 0.000000
0.450980 0.282353 0.000000
0.478431 0.282353 0.000000
0.505882 0.282353 0.000000
0.533333 0.278431 0.000000
0.556863 0.282353 0.000000
0.580392 0.282353 0.000000
0.603922 0.282353 0.000000
0.623529 0.286275 0.000000
0.647059 0.286275 0.000000
0.666667 0.282353 0.000000
0.682353 0.282353 0.000000
0.705882 0.286275 0.000000
0.725490 0.286275 0.000000
0.737255 0.286275 0.000000
0.756863 0.286275 0.000000
0.776471 0.282353 0.000000
0.788235 0.286275 0.000000
0.807843 0.286275 0.000000
0.823529 0.286275 0.000000
0.839216 0.286275 0.000000
0.850980 0.286275 0.000000
0.870588 0.286275 0.000000
0.011765 0.317647 0.003922
0.043137 0.317647 0.003922
0.078431 0.317647 0.003922
0.105882 0.313725 0.000000
0.141176 0.313725 0.000000
0.176471 0.313725 0.000000
0.207843 0.313725 0.000000
0.243137 0.313725 0.000000
0.270588 0.309804 0.000000
0.301961 0.309804 0.000000
0.333333 0.309804 0.000000
0.360784 0.309804 0.000000
0.392157 0.309804 0.000000
0.419608 0.305882 0.000000
0.450980 0.305882 0.000000
0.478431 0.305882 0.000000
0.501961 0.305882 0.000000
0.529412 0.305882 0.000000
0.556863 0.309804 0.000000
0.576471 0.305882 0.000000
0.600000 0.305882 0.000000
0.623529 0.309804 0.000000
0.647059 0.309804 0.000000
0.662745 0.309804 0.000000
0.682353 0.309804 0.000000
0.701961 0.309804 0.000000
0.721569 0.309804 0.000000
0.737255 0.309804 0.000000
0.752941 0.309804 0.000000
0.772549 0.309804 0.000000
0.784314 0.313725 0.000000
0.803922 0.313725 0.000000
0.823529 0.309804 0.000000
0.835294 0.309804 0.000000
0.850980 0.309804 0.000000
0.866667 0.309804 0.000000
0.011765 0.341176 0.000000
0.039216 0.341176 0.000000
0.074510 0.341176 0.000000
0.105882 0.341176 0.000000
0.141176 0.337255 0.000000
0.172549 0.337255 0.000000
0.203922 0.337255 0.000000
0.239216 0.337255 0.000000
0.270588 0.337255 0.000000
0.298039 0.333333 0.000000
0.329412 0.333333 0.000000
0.360784 0.333333 0.000000
0.392157 0.333333 0.000000
0.415686 0.333333 0.000000
0.447059 0.333333 0.000000
0.474510 0.329412 0.000000
0.501961 0.329412 0.000000
0.525490 0.329412 0.000000
0.552941 0.333333 0.000000
0.576471 0.333333 0.000000
0.600000 0.329412 0.000000
0.619608 0.333333 0.000000
0.643137 0.333333 0.000000
0.658824 0.333333 0.000000
0.678431 0.333333 0.000000
0.701961 0.337255 0.000000
0.717647 0.337255 0.000000
0.733333 0.333333 0.000000
0.749020 0.333333 0.000000
0.768627 0.333333 0.000000
0.780392 0.337255 0.000000
0.800000 0.337255 0.000000
0.819608 0.337255 0.000000
0.831373 0.337255 0.000000
0.847059 0.333333 0.000000
0.866667 0.333333 0.000000
0.007843 0.368627 0.000000
0.039216 0.364706 0.000000
0.070588 0.364706 0.000000
0.101961 0.364706 0.000000
0.137255 0.364706 0.000000
0.172549 0.364706 0.000000
0.203922 0.360784 0.000000
0.235294 0.360784 0.000000
0.266667 0.360784 0.000000
0.298039 0.360784 0.000000
0.329412 0.356863 0.000000
0.356863 0.356863 0.000000
0.388235 0.356863 0.000000
0.415686 0.356863 0.000000
0.447059 0.356863 0.000000
0.470588 0.356863 0.000000
0.498039 0.352941 0.000000
0.525490 0.352941 0.000000
0.549020 0.356863 0.000000
0.572549 0.356863 0.000000
0.596078 0.356863 0.000000
0.615686 0.360784 0.000000
0.639216 0.356863 0.000000
0.658824 0.356863 0.000000
0.674510 0.356863 0.000000
0.698039 0.360784 0.000000
0.717647 0.360784 0.000000
0.729412 0.360784 0.000000
0.749020 0.360784 0.000000
0.764706 0.356863 0.000000
0.780392 0.360784 0.000000
0.796078 0.360784 0.000000
0.815686 0.360784 0.000000
0.831373 0.360784 0.000000
0.843137 0.360784 0.000000
0.862745 0.360784 0.000000
0.003922 0.392157 0.000000
0.035294 0.392157 0.000000
0.070588 0.388235 0.000000
0.098039 0.388235 0.000000
0.133333 0.388235 0.000000
0.168627 0.388235 0.000000
0.200000 0.388235 0.000000
0.235294 0.384314 0.000000
0.262745 0.384314 0.000000
0.294118 0.384314 0.000000
0.325490 0.384314 0.000000
0.356863 0.384314 0.000000
0.384314 0.380392 0.000000
0.411765 0.380392 0.000000
0.443137 0.380392 0.000000
0.470588 0.380392 0.000000
0.494118 0.380392 0.000000
0.521569 0.376471 0.000000
0.549020 0.380392 0.000000
0.572549 0.380392 0.000000
0.592157 0.380392 0.000000
0.615686 0.384314 0.000000
0.635294 0.384314 0.000000
0.654902 0.384314 0.000000
0.674510 0.380392 0.000000
0.694118 0.384314 0.000000
0.713725 0.384314 0.000000
0.725490 0.384314 0.000000
0.745098 0.384314 0.000000
0.764706 0.384314 0.000000
0.776471 0.388235 0.000000
0.796078 0.384314 0.000000
0.811765 0.384314 0.000000
0.827451 0.384314 0.000000
0.839216 0.384314 0.000000
0.858824 0.384314 0.000000
0.000000 0.415686 0.000000
0.031373 0.415686 0.000000
0.066667 0.415686 0.000000
0.098039 0.415686 0.000000
0.133333 0.411765 0.000000
0.164706 0.411765 0.000000
0.196078 0.411765 0.000000
0.231373 0.411765 0.000000
0.262745 0.407843 0.000000
0.294118 0.407843 0.000000
0.321569 0.407843 0.000000
0.352941 0.407843 0.000000
0.384314 0.407843 0.000000
0.411765 0.403922 0.000000
0.439216 0.403922 0.000000
0.466667 0.403922 0.000000
0.494118 0.403922 0.000000
0.521569 0.403922 0.000000
0.545098 0.407843 0.000000
0.568627 0.403922 0.000000
0.592157 0.403922 0.000000
0.611765 0.407843 0.000000
0.635294 0.407843 0.000000
0.650980 0.407843 0.000000
0.670588 0.407843 0.000000
0.694118 0.411765 0.000000
0.709804 0.407843 0.000000
0.725490 0.407843 0.000000
0.741176 0.407843 0.000000
0.760784 0.407843 0.000000
0.772549 0.411765 0.000000
0.792157 0.411765 0.000000
0.811765 0.411765 0.000000
0.823529 0.407843 0.000000
0.839216 0.407843 0.000000
0.854902 0.407843 0.000000
0.000000 0.435294 0.000000
0.031373 0.435294 0.000000
0.062745 0.435294 0.000000
0.094118 0.435294 0.000000
0.129412 0.435294 0.000000
0.164706 0.431373 0.000000
0.196078 0.431373 0.000000
0.231373 0.431373 0.000000
0.258824 0.431373 0.000000
0.290196 0.427451 0.000000
0.321569 0.427451 0.000000
0.352941 0.427451 0.000000
0.380392 0.427451 0.000000
0.407843 0.427451 0.000000
0.439216 0.423529 0.000000
0.466667 0.423529 0.000000
0.490196 0.423529 0.000000
0.517647 0.423529 0.000000
0.545098 0.427451 0.000000
0.564706 0.427451 0.000000
0.588235 0.423529 0.000000
0.611765 0.427451 0.000000
0.631373 0.427451 0.000000
0.650980 0.427451 0.000000
0.666667 0.427451 0.000000
0.690196 0.431373 0.000000
0.709804 0.431373 0.000000
0.721569 0.427451 0.000000
0.741176 0.427451 0.000000
0.756863 0.427451 0.000000
0.772549 0.431373 0.000000
0.788235 0.431373 0.000000
0.807843 0.431373 0.000000
0.819608 0.431373 0.000000
0.835294 0.431373 0.000000
0.854902 0.427451 0.000000
0.000000 0.462745 0.000000
0.027451 0.462745 0.000000
0.062745 0.458824 0.000000
0.090196 0.458824 0.000000
0.125490 0.458824 0.000000
0.160784 0.458824 0.000000
0.192157 0.454902 0.000000
0.227451 0.454902 0.000000
0.258824 0.454902 0.000000
0.286275 0.454902 0.000000
0.317647 0.450980 0.000000
0.349020 0.450980 0.000000
0.380392 0.450980 0.000000
0.403922 0.450980 0.000000
0.435294 0.450980 0.000000
0.462745 0.450980 0.000000
0.490196 0.447059 0.000000
0.513725 0.447059 0.000000
0.541176 0.450980 0.000000
0.564706 0.450980 0.000000
0.584314 0.450980 0.000000
0.607843 0.454902 0.000000
0.631373 0.450980 0.000000
0.647059 0.450980 0.000000
0.666667 0.450980 0.000000
0.686275 0.454902 0.000000
0.705882 0.454902 0.000000
0.717647 0.454902 0.000000
0.737255 0.454902 0.000000
0.756863 0.450980 0.000000
0.768627 0.454902 0.000000
0.788235 0.454902 0.000000
0.803922 0.454902 0.000000
0.819608 0.454902 0.000000
0.831373 0.454902 0.000000
0.850980 0.454902 0.000000
0.000000 0.482353 0.000000
0.023529 0.482353 0.000000
0.058824 0.482353 0.000000
0.090196 0.478431 0.000000
0.125490 0.478431 0.000000
0.160784 0.478431 0.000000
0.188235 0.478431 0.000000
0.223529 0.474510 0.000000
0.254902 0.474510 0.000000
0.286275 0.474510 0.000000
0.317647 0.474510 0.000000
0.345098 0.474510 0.000000
0.376471 0.470588 0.000000
0.403922 0.470588 0.000000
0.435294 0.470588 0.000000
0.458824 0.470588 0.000000
0.486275 0.470588 0.000000
0.513725 0.466667 0.000000
0.537255 0.470588 0.000000
0.560784 0.470588 0.000000
0.584314 0.470588 0.000000
0.603922 0.474510 0.000000
0.627451 0.474510 0.000000
0.647059 0.474510 0.000000
0.662745 0.470588 0.000000
0.686275 0.474510 0.000000
0.701961 0.474510 0.000000
0.717647 0.474510 0.000000
0.733333 0.474510 0.000000
0.752941 0.474510 0.000000
0.764706 0.478431 0.000000
0.784314 0.474510 0.000000
0.803922 0.474510 0.000000
0.815686 0.474510 0.000000
0.831373 0.474510 0.000000
0.847059 0.474510 0.000000
0.000000 0.501961 0.000000
0.019608 0.501961 0.000000
0.054902 0.501961 0.000000
0.086275 0.501961 0.000000
0.121569 0.498039 0.000000
0.156863 0.498039 0.000000
0.188235 0.498039 0.000000
0.223529 0.498039 0.000000
0.254902 0.494118 0.000000
0.282353 0.494118 0.000000
0.313725 0.494118 0.000000
0.345098 0.494118 0.000000
0.376471 0.494118 0.000000
0.400000 0.490196 0.000000
0.431373 0.490196 0.000000
0.458824 0.490196 0.000000
0.486275 0.490196 0.000000
0.509804 0.490196 0.000000
0.537255 0.490196 0.000000
0.560784 0.490196 0.000000
0.580392 0.490196 0.000000
0.603922 0.494118 0.000000
0.623529 0.494118 0.000000
0.643137 0.494118 0.000000
0.662745 0.494118 0.000000
0.682353 0.494118 0.000000
0.701961 0.494118 0.000000
0.713725 0.494118 0.000000
0.733333 0.494118 0.000000
0.749020 0.494118 0.000000
0.764706 0.498039 0.000000
0.780392 0.498039 0.000000
0.800000 0.498039 0.000000
0.811765 0.494118 0.000000
0.827451 0.494118 0.000000
0.847059 0.494118 0.000000
0.000000 0.525490 0.000000
0.019608 0.521569 0.000000
0.054902 0.521569 0.000000
0.086275 0.521569 0.000000
0.117647 0.521569 0.000000
0.152941 0.517647 0.000000
0.184314 0.517647 0.000000
0.219608 0.517647 0.000000
0.250980 0.517647 0.000000
0.282353 0.513725 0.000000
0.313725 0.513725 0.000000
0.341176 0.513725 0.000000
0.372549 0.513725 0.000000
0.400000 0.513725 0.000000
0.431373 0.509804 0.000000
0.454902 0.509804 0.000000
0.482353 0.509804 0.000000
0.509804 0.509804 0.000000
0.537255 0.509804 0.000000
0.556863 0.505882 0.000000
0.580392 0.505882 0.000000
0.600000 0.509804 0.000000
0.623529 0.509804 0.000000
0.643137 0.509804 0.000000
0.658824 0.509804 0.000000
0.682353 0.513725 0.000000
0.698039 0.513725 0.000000
0.713725 0.509804 0.000000
0.729412 0.509804 0.000000
0.749020 0.509804 0.000000
0.760784 0.513725 0.000000
0.780392 0.513725 0.000000
0.796078 0.513725 0.000000
0.811765 0.513725 0.000000
0.823529 0.513725 0.000000
0.843137 0.509804 0.000000
0.000000 0.545098 0.000000
0.015686 0.545098 0.000000
0.050980 0.541176 0.000000
0.082353 0.541176 0.000000
0.117647 0.541176 0.000000
0.152941 0.541176 0.000000
0.184314 0.537255 0.000000
0.219608 0.537255 0.000000
0.247059 0.537255 0.000000
0.278431 0.537255 0.000000
0.309804 0.533333 0.000000
0.341176 0.533333 0.000000
0.372549 0.533333 0.000000
0.396078 0.533333 0.000000
0.427451 0.533333 0.000000
0.454902 0.529412 0.000000
0.482353 0.529412 0.000000
0.505882 0.529412 0.000000
0.533333 0.529412 0.000000
0.556863 0.529412 0.000000
0.576471 0.529412 0.000000
0.600000 0.529412 0.000000
0.619608 0.529412 0.000000
0.639216 0.529412 0.000000
0.658824 0.529412 0.000000
0.678431 0.533333 0.000000
0.698039 0.533333 0.000000
0.709804 0.533333 0.000000
0.729412 0.533333 0.000000
0.745098 0.529412 0.000000
0.760784 0.533333 0.000000
0.776471 0.533333 0.000000
0.796078 0.533333 0.000000
0.807843 0.533333 0.000000
0.823529 0.533333 0.000000
0.839216 0.533333 0.000000
0.000000 0.564706 0.000000
0.011765 0.564706 0.000000
0.047059 0.564706 0.000000
0.078431 0.560784 0.000000
0.113725 0.560784 0.000000
0.149020 0.560784 0.000000
0.180392 0.560784 0.000000
0.215686 0.556863 0.000000
0.247059 0.556863 0.000000
0.278431 0.556863 0.000000
0.305882 0.556863 0.000000
0.337255 0.552941 0.000000
0.368627 0.552941 0.000000
0.396078 0.552941 0.000000
0.427451 0.552941 0.000000
0.450980 0.552941 0.000000
0.478431 0.549020 0.000000
0.505882 0.549020 0.000000
0.529412 0.549020 0.000000
0.552941 0.549020 0.000000
0.576471 0.549020 0.000000
0.596078 0.552941 0.000000
0.619608 0.549020 0.000000
0.635294 0.549020 0.000000
0.654902 0.549020 0.000000
0.678431 0.552941 0.000000
0.694118 0.552941 0.000000
0.709804 0.552941 0.000000
0.725490 0.552941 0.000000
0.745098 0.552941 0.000000
0.756863 0.556863 0.000000
0.776471 0.552941 0.000000
0.792157 0.552941 0.000000
0.807843 0.552941 0.000000
0.819608 0.552941 0.000000
0.839216 0.552941 0.000000
0.000000 0.576471 0.000000
0.011765 0.576471 0.000000
0.047059 0.576471 0.000000
0.078431 0.576471 0.000000
0.113725 0.572549 0.000000
0.149020 0.572549 0.000000
0.180392 0.572549 0.000000
0.211765 0.572549 0.000000
0.243137 0.568627 0.000000
0.274510 0.568627 0.000000
0.305882 0.568627 0.000000
0.337255 0.568627 0.000000
0.368627 0.564706 0.000000
0.392157 0.564706 0.000000
0.423529 0.564706 0.000000
0.450980 0.564706 0.000000
0.478431 0.564706 0.000000
0.501961 0.560784 0.000000
0.529412 0.560784 0.000000
0.552941 0.560784 0.000000
0.572549 0.560784 0.000000
0.596078 0.564706 0.000000
0.619608 0.564706 0.000000
0.635294 0.564706 0.000000
0.654902 0.560784 0.000000
0.674510 0.564706 0.000000
0.694118 0.564706 0.000000
0.705882 0.564706 0.000000
0.725490 0.564706 0.000000
0.741176 0.564706 0.000000
0.756863 0.568627 0.000000
0.772549 0.568627 0.000000
0.792157 0.564706 0.000000
0.803922 0.564706 0.000000
0.819608 0.564706 0.000000
0.835294 0.564706 0.000000
0.000000 0.592157 0.000000
0.007843 0.592157 0.000000
0.043137 0.592157 0.000000
0.074510 0.592157 0.000000
0.109804 0.592157 0.000000
0.145098 0.588235 0.000000
0.176471 0.588235 0.000000
0.211765 0.588235 0.000000
0.243137 0.588235 0.000000
0.274510 0.584314 0.000000
0.305882 0.584314 0.000000
0.333333 0.584314 0.000000
0.364706 0.584314 0.000000
0.392157 0.580392 0.000000
0.423529 0.580392 0.000000
0.450980 0.580392 0.000000
0.474510 0.580392 0.000000
0.501961 0.580392 0.000000
0.529412 0.576471 0.000000
0.549020 0.576471 0.000000
0.572549 0.576471 0.000000
0.592157 0.580392 0.000000
0.615686 0.580392 0.000000
