luts/full/terracotta.cube
TITLE "terracotta (full)"
LUT_3D_SIZE 8
0.019608 0.019608 0.019608
0.121569 0.019608 0.019608
0.258824 0.019608 0.019608
0.403922 0.019608 0.019608
0.541176 0.019608 0.019608
0.686275 0.019608 0.019608
0.827451 0.019608 0.019608
0.960784 0.019608 0.019608
0.019608 0.082353 0.019608
0.125490 0.086275 0.019608
0.262745 0.098039 0.019608
0.407843 0.105882 0.019608
0.541176 0.105882 0.019608
0.690196 0.121569 0.019608
0.827451 0.125490 0.019608
0.968627 0.129412 0.019608
0.019608 0.211765 0.019608
0.129412 0.215686 0.019608
0.266667 0.219608 0.019608
0.403922 0.227451 0.019608
0.552941 0.239216 0.019608
0.690196 0.247059 0.019608
0.827451 0.250980 0.019608
0.976471 0.258824 0.019608
0.019608 0.349020 0.019608
0.137255 0.352941 0.019608
0.278431 0.352941 0.019608
0.415686 0.360784 0.019608
0.556863 0.368627 0.019608
0.701961 0.384314 0.019608
0.835294 0.388235 0.019608
0.976471 0.392157 0.019608
0.019608 0.486275 0.019608
0.133333 0.486275 0.019608
0.282353 0.494118 0.019608
0.423529 0.494118 0.019608
0.556863 0.498039 0.019608
0.709804 0.509804 0.019608
0.839216 0.521569 0.019608
0.976471 0.517647 0.023529
0.019608 0.627451 0.019608
0.149020 0.631373 0.019608
0.286275 0.627451 0.019608
0.427451 0.635294 0.019608
0.572549 0.639216 0.023529
0.709804 0.639216 0.019608
0.850980 0.647059 0.027451
0.976471 0.650980 0.027451
0.019608 0.760784 0.019608
0.152941 0.764706 0.019608
0.290196 0.768627 0.019608
0.435294 0.768627 0.019608
0.568627 0.772549 0.023529
0.721569 0.776471 0.031373
0.854902 0.772549 0.027451
0.976471 0.776471 0.031373
0.023529 0.890196 0.023529
0.156863 0.890196 0.023529
0.301961 0.890196 0.023529
0.443137 0.890196 0.031373
0.580392 0.890196 0.027451
0.721569 0.890196 0.031373
0.862745 0.890196 0.031373
0.976471 0.890196 0.035294
0.019608 0.019608 0.105882
0.121569 0.019608 0.101961
0.258824 0.019608 0.105882
0.403922 0.019608 0.113725
0.541176 0.019608 0.109804
0.678431 0.019608 0.113725
0.827451 0.019608 0.113725
0.960784 0.019608 0.113725
0.019608 0.090196 0.105882
0.125490 0.090196 0.109804
0.262745 0.098039 0.113725
0.403922 0.109804 0.113725
0.549020 0.117647 0.117647
0.686275 0.121569 0.113725
0.827451 0.129412 0.121569
0.968627 0.129412 0.117647
0.019608 0.215686 0.113725
0.129412 0.223529 0.113725
0.274510 0.223529 0.113725
0.411765 0.227451 0.117647
0.552941 0.239216 0.117647
0.698039 0.254902 0.121569
0.831373 0.250980 0.125490
0.976471 0.254902 0.121569
0.019608 0.352941 0.113725
0.133333 0.360784 0.117647
0.278431 0.364706 0.117647
0.415686 0.364706 0.121569
0.556863 0.376471 0.125490
0.698039 0.388235 0.121569
0.835294 0.388235 0.129412
0.976471 0.392157 0.125490
0.019608 0.490196 0.121569
0.145098 0.498039 0.121569
0.282353 0.494118 0.121569
0.423529 0.501961 0.121569
0.568627 0.509804 0.129412
0.705882 0.509804 0.129412
0.847059 0.521569 0.129412
0.976471 0.521569 0.137255
0.019608 0.627451 0.121569
0.149020 0.639216 0.129412
0.290196 0.639216 0.129412
0.423529 0.639216 0.129412
0.568627 0.647059 0.129412
0.713725 0.650980 0.137255
0.847059 0.647059 0.137255
0.976471 0.654902 0.141176
0.019608 0.764706 0.125490
0.152941 0.764706 0.129412
0.294118 0.768627 0.133333
0.427451 0.768627 0.129412
0.576471 0.772549 0.137255
0.717647 0.776471 0.137255
0.850980 0.772549 0.137255
0.976471 0.780392 0.149020
0.027451 0.890196 0.133333
0.152941 0.890196 0.129412
0.298039 0.890196 0.137255
0.439216 0.890196 0.137255
0.576471 0.890196 0.137255
0.729412 0.890196 0.149020
0.858824 0.890196 0.145098
0.976471 0.890196 0.149020
0.019608 0.019608 0.215686
0.121569 0.019608 0.215686
0.262745 0.019608 0.215686
0.403922 0.019608 0.215686
0.545098 0.019608 0.223529
0.686275 0.019608 0.223529
0.827451 0.019608 0.223529
0.968627 0.019608 0.231373
0.019608 0.082353 0.215686
0.121569 0.094118 0.219608
0.266667 0.105882 0.223529
0.407843 0.105882 0.223529
0.545098 0.117647 0.227451
0.694118 0.125490 0.227451
0.827451 0.129412 0.231373
0.976471 0.129412 0.231373
0.019608 0.215686 0.223529
0.129412 0.223529 0.223529
0.274510 0.231373 0.227451
0.411765 0.239216 0.231373
0.552941 0.250980 0.231373
0.694118 0.254902 0.235294
0.831373 0.258824 0.235294
0.972549 0.258824 0.239216
0.019608 0.352941 0.227451
0.141176 0.360784 0.231373
0.270588 0.364706 0.223529
0.419608 0.372549 0.235294
0.556863 0.388235 0.235294
0.705882 0.388235 0.239216
0.843137 0.388235 0.243137
0.976471 0.388235 0.239216
0.019608 0.486275 0.223529
0.141176 0.501961 0.231373
0.286275 0.505882 0.243137
0.419608 0.505882 0.235294
0.560784 0.513725 0.243137
0.701961 0.517647 0.239216
0.843137 0.517647 0.243137
0.976471 0.521569 0.254902
0.019608 0.631373 0.243137
0.149020 0.639216 0.235294
0.290196 0.639216 0.243137
0.431373 0.639216 0.243137
0.572549 0.643137 0.243137
0.717647 0.650980 0.254902
0.850980 0.647059 0.247059
0.976471 0.650980 0.250980
0.023529 0.764706 0.243137
0.149020 0.764706 0.243137
0.290196 0.768627 0.247059
0.439216 0.772549 0.247059
0.572549 0.772549 0.250980
0.721569 0.776471 0.250980
0.854902 0.780392 0.258824
0.976471 0.776471 0.250980
0.027451 0.890196 0.243137
0.164706 0.890196 0.247059
0.301961 0.890196 0.250980
0.443137 0.890196 0.250980
0.584314 0.890196 0.258824
0.721569 0.890196 0.250980
0.866667 0.890196 0.262745
0.976471 0.890196 0.266667
0.019608 0.019608 0.329412
0.121569 0.019608 0.337255
0.262745 0.019608 0.333333
0.403922 0.019608 0.337255
0.545098 0.019608 0.337255
0.686275 0.019608 0.341176
0.827451 0.019608 0.349020
0.964706 0.019608 0.345098
0.019608 0.098039 0.333333
0.125490 0.101961 0.337255
0.266667 0.101961 0.337255
0.411765 0.113725 0.341176
0.549020 0.117647 0.341176
0.694118 0.129412 0.345098
0.831373 0.129412 0.352941
0.968627 0.129412 0.352941
0.019608 0.223529 0.337255
0.137255 0.227451 0.345098
0.266667 0.231373 0.337255
0.415686 0.239216 0.349020
0.549020 0.250980 0.341176
0.701961 0.254902 0.352941
0.831373 0.258824 0.356863
0.976471 0.254902 0.352941
0.019608 0.356863 0.341176
0.141176 0.364706 0.349020
0.278431 0.368627 0.341176
0.419608 0.384314 0.352941
0.560784 0.388235 0.356863
0.698039 0.388235 0.352941
0.843137 0.392157 0.360784
0.976471 0.396078 0.356863
0.019608 0.490196 0.349020
0.145098 0.501961 0.349020
0.286275 0.509804 0.356863
0.427451 0.509804 0.356863
0.568627 0.513725 0.356863
0.713725 0.517647 0.364706
0.847059 0.517647 0.360784
0.976471 0.521569 0.364706
0.019608 0.631373 0.356863
0.149020 0.639216 0.356863
0.290196 0.639216 0.356863
0.427451 0.643137 0.360784
0.572549 0.647059 0.360784
0.713725 0.647059 0.364706
0.850980 0.650980 0.372549
0.976471 0.654902 0.368627
0.019608 0.768627 0.356863
0.160784 0.768627 0.360784
0.298039 0.768627 0.364706
0.439216 0.772549 0.364706
0.580392 0.772549 0.372549
0.717647 0.772549 0.364706
0.862745 0.780392 0.376471
0.976471 0.784314 0.376471
0.019608 0.890196 0.364706
0.156863 0.890196 0.360784
0.305882 0.890196 0.372549
0.439216 0.890196 0.372549
0.580392 0.890196 0.372549
0.725490 0.890196 0.376471
0.858824 0.890196 0.376471
0.976471 0.890196 0.384314
0.019608 0.019608 0.447059
0.121569 0.019608 0.443137
0.262745 0.019608 0.450980
0.407843 0.019608 0.454902
0.541176 0.019608 0.450980
0.690196 0.019608 0.458824
0.827451 0.019608 0.458824
0.968627 0.019608 0.462745
0.019608 0.101961 0.447059
0.129412 0.113725 0.454902
0.266667 0.109804 0.454902
0.407843 0.113725 0.454902
0.552941 0.121569 0.466667
0.690196 0.129412 0.458824
0.827451 0.129412 0.466667
0.968627 0.129412 0.462745
0.019608 0.227451 0.454902
0.137255 0.235294 0.454902
0.274510 0.239216 0.454902
0.411765 0.243137 0.462745
0.556863 0.254902 0.466667
0.694118 0.250980 0.466667
0.831373 0.254902 0.462745
0.976471 0.262745 0.470588
0.019608 0.356863 0.454902
0.133333 0.364706 0.462745
0.282353 0.380392 0.466667
0.415686 0.384314 0.466667
0.556863 0.388235 0.462745
0.709804 0.392157 0.470588
0.835294 0.392157 0.474510
0.976471 0.396078 0.474510
0.019608 0.490196 0.466667
0.145098 0.501961 0.466667
0.286275 0.509804 0.470588
0.423529 0.513725 0.470588
0.568627 0.517647 0.474510
0.709804 0.517647 0.478431
0.847059 0.521569 0.478431
0.976471 0.525490 0.482353
0.019608 0.631373 0.470588
0.156863 0.639216 0.470588
0.286275 0.639216 0.470588
0.435294 0.643137 0.478431
0.568627 0.650980 0.478431
0.717647 0.647059 0.482353
0.850980 0.654902 0.482353
0.976471 0.654902 0.486275
0.019608 0.764706 0.470588
0.152941 0.768627 0.474510
0.301961 0.772549 0.486275
0.435294 0.772549 0.478431
0.576471 0.772549 0.486275
0.721569 0.780392 0.486275
0.854902 0.780392 0.490196
0.976471 0.788235 0.490196
0.027451 0.890196 0.486275
0.164706 0.890196 0.478431
0.298039 0.890196 0.486275
0.447059 0.890196 0.486275
0.584314 0.890196 0.490196
0.729412 0.890196 0.490196
0.870588 0.890196 0.494118
0.976471 0.890196 0.494118
0.019608 0.019608 0.564706
0.125490 0.019608 0.568627
0.262745 0.019608 0.564706
0.407843 0.019608 0.572549
0.545098 0.019608 0.564706
0.690196 0.019608 0.576471
0.827451 0.019608 0.584314
0.964706 0.019608 0.576471
0.019608 0.105882 0.564706
0.133333 0.113725 0.568627
0.262745 0.113725 0.568627
0.411765 0.117647 0.572549
0.549020 0.125490 0.576471
0.694118 0.129412 0.576471
0.835294 0.129412 0.580392
0.976471 0.129412 0.584314
0.019608 0.231373 0.568627
0.129412 0.239216 0.576471
0.278431 0.250980 0.576471
0.411765 0.250980 0.580392
0.552941 0.254902 0.576471
0.698039 0.258824 0.584314
0.831373 0.258824 0.584314
0.976471 0.262745 0.588235
0.019608 0.368627 0.576471
0.141176 0.372549 0.580392
0.282353 0.380392 0.584314
0.423529 0.388235 0.584314
0.560784 0.384314 0.584314
0.709804 0.396078 0.588235
0.847059 0.396078 0.596078
0.976471 0.396078 0.588235
0.019608 0.494118 0.584314
0.145098 0.505882 0.584314
0.282353 0.509804 0.584314
0.431373 0.513725 0.592157
0.564706 0.517647 0.588235
0.713725 0.517647 0.596078
0.847059 0.525490 0.596078
0.976471 0.525490 0.600000
0.019608 0.631373 0.584314
0.152941 0.639216 0.592157
0.298039 0.643137 0.588235
0.435294 0.647059 0.596078
0.576471 0.650980 0.596078
0.717647 0.650980 0.600000
0.854902 0.654902 0.603922
0.976471 0.658824 0.603922
0.027451 0.768627 0.600000
0.160784 0.768627 0.592157
0.294118 0.772549 0.596078
0.443137 0.776471 0.600000
0.580392 0.772549 0.603922
0.725490 0.776471 0.603922
0.862745 0.780392 0.603922
0.976471 0.780392 0.607843
0.027451 0.890196 0.596078
0.168627 0.890196 0.600000
0.305882 0.890196 0.603922
0.443137 0.890196 0.603922
0.584314 0.890196 0.603922
0.725490 0.890196 0.607843
0.866667 0.890196 0.607843
0.976471 0.890196 0.611765
0.019608 0.019608 0.678431
0.125490 0.019608 0.678431
0.262745 0.019608 0.678431
0.403922 0.019608 0.686275
0.549020 0.019608 0.686275
0.686275 0.019608 0.690196
0.827451 0.019608 0.686275
0.968627 0.019608 0.698039
0.019608 0.109804 0.678431
0.129412 0.121569 0.686275
0.274510 0.121569 0.690196
0.407843 0.121569 0.686275
0.552941 0.129412 0.694118
0.694118 0.129412 0.694118
0.827451 0.129412 0.694118
0.976471 0.133333 0.698039
0.019608 0.243137 0.690196
0.137255 0.243137 0.686275
0.278431 0.247059 0.690196
0.419608 0.254902 0.698039
0.556863 0.254902 0.694118
0.701961 0.254902 0.698039
0.843137 0.262745 0.698039
0.976471 0.262745 0.701961
0.019608 0.372549 0.690196
0.145098 0.384314 0.698039
0.282353 0.384314 0.694118
0.419608 0.388235 0.698039
0.568627 0.392157 0.705882
0.705882 0.392157 0.701961
0.843137 0.396078 0.705882
0.976471 0.400000 0.709804
0.019608 0.501961 0.698039
0.149020 0.509804 0.698039
0.294118 0.513725 0.701961
0.427451 0.513725 0.698039
0.572549 0.517647 0.705882
0.709804 0.517647 0.709804
0.847059 0.521569 0.705882
0.976471 0.529412 0.717647
0.023529 0.635294 0.701961
0.149020 0.639216 0.698039
0.294118 0.647059 0.705882
0.427451 0.643137 0.709804
0.572549 0.647059 0.705882
0.717647 0.654902 0.717647
0.850980 0.654902 0.709804
0.976471 0.658824 0.717647
0.019608 0.768627 0.701961
0.152941 0.768627 0.705882
0.301961 0.772549 0.713725
0.439216 0.772549 0.713725
0.576471 0.772549 0.713725
0.721569 0.780392 0.717647
0.862745 0.784314 0.721569
0.976471 0.784314 0.725490
0.027451 0.890196 0.713725
0.164706 0.890196 0.713725
0.301961 0.890196 0.713725
0.450980 0.890196 0.717647
0.584314 0.890196 0.721569
0.733333 0.890196 0.725490
0.866667 0.890196 0.725490
0.976471 0.890196 0.729412
0.019608 0.019608 0.796078
0.125490 0.019608 0.796078
0.262745 0.019608 0.796078
0.407843 0.019608 0.803922
0.549020 0.019608 0.800000
0.694118 0.019608 0.811765
0.827451 0.019608 0.811765
0.972549 0.019608 0.811765
0.019608 0.117647 0.803922
0.125490 0.121569 0.796078
0.274510 0.125490 0.807843
0.411765 0.129412 0.807843
0.549020 0.125490 0.807843
0.701961 0.129412 0.815686
0.831373 0.133333 0.815686
0.976471 0.133333 0.819608
0.019608 0.243137 0.803922
0.141176 0.250980 0.815686
0.278431 0.250980 0.807843
0.415686 0.250980 0.815686
0.560784 0.258824 0.819608
0.698039 0.258824 0.815686
0.839216 0.262745 0.819608
0.976471 0.266667 0.819608
0.019608 0.376471 0.807843
0.145098 0.380392 0.815686
0.278431 0.380392 0.815686
0.427451 0.388235 0.815686
0.560784 0.392157 0.819608
0.709804 0.392157 0.819608
0.843137 0.396078 0.819608
0.976471 0.396078 0.819608
0.019608 0.509804 0.815686
0.145098 0.509804 0.815686
0.290196 0.517647 0.819608
0.423529 0.513725 0.819608
0.568627 0.517647 0.819608
0.713725 0.525490 0.819608
0.847059 0.525490 0.819608
0.976471 0.529412 0.819608
0.023529 0.639216 0.819608
0.156863 0.639216 0.819608
0.290196 0.643137 0.819608
0.439216 0.647059 0.819608
0.576471 0.647059 0.819608
0.717647 0.650980 0.819608
0.862745 0.658824 0.819608
0.976471 0.654902 0.819608
0.027451 0.768627 0.819608
0.160784 0.772549 0.819608
0.298039 0.772549 0.819608
0.439216 0.776471 0.819608
0.580392 0.780392 0.819608
0.729412 0.780392 0.819608
0.858824 0.784314 0.819608
0.976471 0.784314 0.819608
0.027451 0.890196 0.819608
0.168627 0.890196 0.819608
0.309804 0.890196 0.819608
0.447059 0.890196 0.819608
0.592157 0.890196 0.819608
0.733333 0.890196 0.819608
0.866667 0.890196 0.819608
0.976471 0.890196 0.819608
