luts/full/terracotta.cube
TITLE "terracotta (full)"
LUT_3D_SIZE 6
0.019608 0.019608 0.019608
0.176471 0.019608 0.019608
0.372549 0.019608 0.019608
0.564706 0.019608 0.019608
0.764706 0.019608 0.019608
0.960784 0.019608 0.019608
0.019608 0.137255 0.019608
0.188235 0.141176 0.019608
0.380392 0.149020 0.019608
0.576471 0.164706 0.019608
0.776471 0.176471 0.019608
0.968627 0.184314 0.019608
0.019608 0.325490 0.019608
0.196078 0.333333 0.019608
0.392157 0.337255 0.019608
0.592157 0.345098 0.019608
0.784314 0.360784 0.019608
0.976471 0.368627 0.019608
0.019608 0.513725 0.019608
0.200000 0.517647 0.019608
0.396078 0.525490 0.019608
0.596078 0.529412 0.019608
0.792157 0.545098 0.019608
0.976471 0.545098 0.027451
0.019608 0.709804 0.019608
0.207843 0.713725 0.019608
0.403922 0.717647 0.023529
0.603922 0.721569 0.023529
0.800000 0.725490 0.019608
0.976471 0.729412 0.027451
0.023529 0.890196 0.023529
0.219608 0.890196 0.023529
0.411765 0.890196 0.027451
0.607843 0.890196 0.027451
0.807843 0.890196 0.035294
0.976471 0.890196 0.035294
0.019608 0.019608 0.145098
0.180392 0.019608 0.149020
0.376471 0.019608 0.149020
0.576471 0.019608 0.156863
0.768627 0.019608 0.160784
0.960784 0.019608 0.168627
0.019608 0.141176 0.156863
0.188235 0.145098 0.156863
0.384314 0.160784 0.160784
0.584314 0.172549 0.168627
0.772549 0.180392 0.164706
0.972549 0.180392 0.168627
0.019608 0.329412 0.160784
0.200000 0.341176 0.168627
0.396078 0.345098 0.168627
0.588235 0.352941 0.168627
0.780392 0.364706 0.168627
0.976471 0.364706 0.176471
0.019608 0.513725 0.168627
0.200000 0.533333 0.168627
0.400000 0.533333 0.172549
0.592157 0.541176 0.172549
0.796078 0.545098 0.184314
0.976471 0.549020 0.188235
0.019608 0.709804 0.172549
0.215686 0.717647 0.180392
0.403922 0.721569 0.180392
0.600000 0.729412 0.180392
0.800000 0.729412 0.188235
0.976471 0.733333 0.188235
0.027451 0.890196 0.180392
0.219608 0.890196 0.188235
0.411765 0.890196 0.188235
0.615686 0.890196 0.196078
0.811765 0.890196 0.196078
0.976471 0.890196 0.196078
0.019608 0.019608 0.309804
0.180392 0.019608 0.309804
0.380392 0.019608 0.313725
0.572549 0.019608 0.317647
0.764706 0.019608 0.321569
0.964706 0.019608 0.321569
0.019608 0.145098 0.313725
0.188235 0.156863 0.317647
0.388235 0.156863 0.321569
0.580392 0.176471 0.321569
0.780392 0.180392 0.329412
0.976471 0.188235 0.329412
0.019608 0.329412 0.317647
0.203922 0.341176 0.329412
0.396078 0.352941 0.329412
0.592157 0.364706 0.329412
0.792157 0.364706 0.337255
0.976471 0.364706 0.333333
0.019608 0.521569 0.325490
0.207843 0.533333 0.333333
0.400000 0.545098 0.333333
0.596078 0.541176 0.337255
0.796078 0.545098 0.341176
0.976471 0.549020 0.341176
0.023529 0.713725 0.333333
0.211765 0.717647 0.337255
0.403922 0.725490 0.337255
0.603922 0.725490 0.345098
0.800000 0.733333 0.345098
0.976471 0.733333 0.352941
0.027451 0.890196 0.345098
0.215686 0.890196 0.345098
0.415686 0.890196 0.352941
0.615686 0.890196 0.352941
0.807843 0.890196 0.352941
0.976471 0.890196 0.356863
0.019608 0.019608 0.470588
0.188235 0.019608 0.478431
0.376471 0.019608 0.474510
0.568627 0.019608 0.474510
0.768627 0.019608 0.482353
0.964706 0.019608 0.482353
0.019608 0.152941 0.474510
0.192157 0.160784 0.482353
0.384314 0.168627 0.482353
0.584314 0.172549 0.490196
0.780392 0.184314 0.490196
0.972549 0.188235 0.498039
0.019608 0.329412 0.486275
0.200000 0.349020 0.490196
0.396078 0.360784 0.490196
0.596078 0.360784 0.498039
0.788235 0.364706 0.498039
0.976471 0.368627 0.505882
0.019608 0.517647 0.490196
0.203922 0.537255 0.490196
0.403922 0.541176 0.501961
0.600000 0.545098 0.501961
0.792157 0.545098 0.501961
0.976471 0.552941 0.509804
0.019608 0.713725 0.501961
0.215686 0.725490 0.501961
0.411765 0.725490 0.509804
0.607843 0.733333 0.509804
0.803922 0.729412 0.509804
0.976471 0.733333 0.509804
0.027451 0.890196 0.509804
0.223529 0.890196 0.509804
0.415686 0.890196 0.509804
0.611765 0.890196 0.509804
0.811765 0.890196 0.517647
0.976471 0.890196 0.521569
0.019608 0.019608 0.639216
0.184314 0.019608 0.639216
0.380392 0.019608 0.639216
0.580392 0.019608 0.639216
0.772549 0.019608 0.639216
0.964706 0.019608 0.650980
0.019608 0.160784 0.639216
0.192157 0.176471 0.639216
0.392157 0.176471 0.647059
0.588235 0.184314 0.650980
0.776471 0.184314 0.647059
0.976471 0.184314 0.654902
0.019608 0.345098 0.643137
0.192157 0.352941 0.639216
0.400000 0.356863 0.654902
0.592157 0.360784 0.654902
0.792157 0.364706 0.658824
0.976471 0.368627 0.658824
0.019608 0.529412 0.647059
0.207843 0.537255 0.658824
0.403922 0.545098 0.658824
0.596078 0.545098 0.658824
0.796078 0.545098 0.662745
0.976471 0.552941 0.666667
0.019608 0.717647 0.658824
0.215686 0.721569 0.662745
0.407843 0.729412 0.662745
0.611765 0.729412 0.670588
0.803922 0.733333 0.670588
0.976471 0.733333 0.674510
0.027451 0.890196 0.662745
0.223529 0.890196 0.670588
0.415686 0.890196 0.670588
0.619608 0.890196 0.678431
0.815686 0.890196 0.678431
0.976471 0.890196 0.686275
0.019608 0.019608 0.796078
0.184314 0.019608 0.796078
0.384314 0.019608 0.800000
0.576471 0.019608 0.800000
0.768627 0.019608 0.811765
0.972549 0.019608 0.811765
0.019608 0.172549 0.800000
0.192157 0.176471 0.807843
0.392157 0.180392 0.811765
0.584314 0.184314 0.811765
0.784314 0.184314 0.815686
0.976471 0.192157 0.815686
0.019608 0.352941 0.803922
0.203922 0.356863 0.815686
0.400000 0.360784 0.815686
0.600000 0.364706 0.819608
0.796078 0.368627 0.819608
0.976471 0.376471 0.819608
0.019608 0.537255 0.819608
0.211765 0.545098 0.819608
0.403922 0.545098 0.819608
0.600000 0.545098 0.819608
0.796078 0.545098 0.819608
0.976471 0.549020 0.819608
0.027451 0.721569 0.819608
0.215686 0.721569 0.819608
0.411765 0.725490 0.819608
0.607843 0.729412 0.819608
0.803922 0.733333 0.819608
0.976471 0.733333 0.819608
0.027451 0.890196 0.819608
0.219608 0.890196 0.819608
0.419608 0.890196 0.819608
0.619608 0.890196 0.819608
0.819608 0.890196 0.819608
0.976471 0.890196 0.819608
