luts/full/terracotta.cube
TITLE "terracotta (full)"
LUT_3D_SIZE 36
0.019608 0.019608 0.019608
0.019608 0.019608 0.019608
0.035294 0.019608 0.019608
0.058824 0.019608 0.019608
0.094118 0.019608 0.019608
0.121569 0.019608 0.019608
0.145098 0.019608 0.019608
0.176471 0.019608 0.019608
0.203922 0.019608 0.019608
0.235294 0.019608 0.019608
0.258824 0.019608 0.019608
0.290196 0.019608 0.019608
0.309804 0.019608 0.019608
0.337255 0.019608 0.019608
0.372549 0.019608 0.019608
0.403922 0.019608 0.019608
0.427451 0.019608 0.019608
0.454902 0.019608 0.019608
0.490196 0.019608 0.019608
0.513725 0.019608 0.019608
0.541176 0.019608 0.019608
0.564706 0.019608 0.019608
0.592157 0.019608 0.019608
0.627451 0.019608 0.019608
0.650980 0.019608 0.019608
0.686275 0.019608 0.019608
0.713725 0.019608 0.019608
0.733333 0.019608 0.019608
0.764706 0.019608 0.019608
0.792157 0.019608 0.019608
0.827451 0.019608 0.019608
0.850980 0.019608 0.019608
0.878431 0.019608 0.019608
0.905882 0.019608 0.019608
0.925490 0.019608 0.019608
0.960784 0.019608 0.019608
0.019608 0.019608 0.019608
0.019608 0.019608 0.019608
0.035294 0.019608 0.019608
0.062745 0.019608 0.019608
0.090196 0.019608 0.019608
0.121569 0.019608 0.019608
0.149020 0.019608 0.019608
0.184314 0.019608 0.019608
0.207843 0.019608 0.019608
0.231373 0.019608 0.019608
0.258824 0.019608 0.019608
0.290196 0.019608 0.019608
0.317647 0.019608 0.019608
0.349020 0.019608 0.019608
0.376471 0.019608 0.019608
0.403922 0.019608 0.019608
0.423529 0.019608 0.019608
0.450980 0.019608 0.019608
0.486275 0.019608 0.019608
0.513725 0.019608 0.019608
0.541176 0.019608 0.019608
0.576471 0.019608 0.019608
0.603922 0.019608 0.019608
0.627451 0.019608 0.019608
0.650980 0.019608 0.019608
0.678431 0.019608 0.019608
0.705882 0.019608 0.019608
0.737255 0.019608 0.019608
0.768627 0.023529 0.019608
0.800000 0.027451 0.019608
0.827451 0.027451 0.019608
0.847059 0.023529 0.019608
0.878431 0.023529 0.019608
0.905882 0.023529 0.019608
0.933333 0.023529 0.019608
0.960784 0.027451 0.019608
0.019608 0.019608 0.019608
0.019608 0.019608 0.019608
0.035294 0.019608 0.019608
0.058824 0.019608 0.019608
0.101961 0.019608 0.019608
0.121569 0.019608 0.019608
0.149020 0.019608 0.019608
0.176471 0.019608 0.019608
0.203922 0.019608 0.019608
0.231373 0.019608 0.019608
0.258824 0.019608 0.019608
0.294118 0.019608 0.019608
0.313725 0.019608 0.019608
0.345098 0.023529 0.019608
0.376471 0.019608 0.019608
0.403922 0.027451 0.019608
0.431373 0.027451 0.019608
0.458824 0.027451 0.019608
0.486275 0.027451 0.019608
0.517647 0.031373 0.019608
0.545098 0.031373 0.019608
0.572549 0.031373 0.019608
0.600000 0.031373 0.019608
0.627451 0.035294 0.019608
0.650980 0.039216 0.019608
0.686275 0.039216 0.019608
0.717647 0.047059 0.019608
0.737255 0.043137 0.019608
0.764706 0.047059 0.019608
0.800000 0.047059 0.019608
0.827451 0.047059 0.019608
0.850980 0.047059 0.019608
0.878431 0.050980 0.019608
0.905882 0.050980 0.019608
0.929412 0.050980 0.019608
0.968627 0.054902 0.019608
0.019608 0.027451 0.019608
0.019608 0.027451 0.019608
0.035294 0.031373 0.019608
0.070588 0.027451 0.019608
0.098039 0.031373 0.019608
0.121569 0.031373 0.019608
0.149020 0.031373 0.019608
0.184314 0.031373 0.019608
0.207843 0.027451 0.019608
0.235294 0.035294 0.019608
0.262745 0.039216 0.019608
0.290196 0.039216 0.019608
0.313725 0.039216 0.019608
0.349020 0.043137 0.019608
0.376471 0.043137 0.019608
0.403922 0.050980 0.019608
0.423529 0.047059 0.019608
0.458824 0.050980 0.019608
0.490196 0.050980 0.019608
0.517647 0.050980 0.019608
0.545098 0.054902 0.019608
0.572549 0.058824 0.019608
0.603922 0.054902 0.019608
0.627451 0.054902 0.019608
0.650980 0.058824 0.019608
0.686275 0.066667 0.019608
0.713725 0.066667 0.019608
0.737255 0.070588 0.019608
0.772549 0.070588 0.019608
0.800000 0.070588 0.019608
0.827451 0.074510 0.019608
0.847059 0.070588 0.019608
0.886275 0.074510 0.019608
0.913725 0.074510 0.019608
0.937255 0.074510 0.019608
0.964706 0.078431 0.019608
0.019608 0.062745 0.019608
0.019608 0.062745 0.019608
0.035294 0.062745 0.019608
0.070588 0.062745 0.019608
0.098039 0.062745 0.019608
0.121569 0.062745 0.019608
0.149020 0.062745 0.019608
0.188235 0.066667 0.019608
0.215686 0.066667 0.019608
0.235294 0.066667 0.019608
0.262745 0.070588 0.019608
0.290196 0.070588 0.019608
0.321569 0.070588 0.019608
0.349020 0.074510 0.019608
0.376471 0.074510 0.019608
0.403922 0.082353 0.019608
0.427451 0.078431 0.019608
0.454902 0.078431 0.019608
0.490196 0.078431 0.019608
0.517647 0.078431 0.019608
0.545098 0.078431 0.019608
0.576471 0.082353 0.019608
0.607843 0.086275 0.019608
0.635294 0.094118 0.019608
0.654902 0.090196 0.019608
0.686275 0.094118 0.019608
0.713725 0.094118 0.019608
0.737255 0.098039 0.019608
0.768627 0.098039 0.019608
0.800000 0.101961 0.019608
0.827451 0.105882 0.019608
0.850980 0.101961 0.019608
0.886275 0.101961 0.019608
0.913725 0.101961 0.019608
0.937255 0.101961 0.019608
0.964706 0.105882 0.019608
0.019608 0.082353 0.019608
0.019608 0.086275 0.019608
0.039216 0.086275 0.019608
0.066667 0.090196 0.019608
0.098039 0.090196 0.019608
0.125490 0.086275 0.019608
0.152941 0.090196 0.019608
0.180392 0.090196 0.019608
0.211765 0.090196 0.019608
0.235294 0.090196 0.019608
0.262745 0.098039 0.019608
0.298039 0.094118 0.019608
0.313725 0.090196 0.019608
0.349020 0.101961 0.019608
0.380392 0.101961 0.019608
0.407843 0.105882 0.019608
0.435294 0.105882 0.019608
0.462745 0.105882 0.019608
0.490196 0.109804 0.019608
0.517647 0.109804 0.019608
0.541176 0.105882 0.019608
0.576471 0.113725 0.019608
0.603922 0.113725 0.019608
0.631373 0.117647 0.019608
0.654902 0.121569 0.019608
0.690196 0.121569 0.019608
0.717647 0.121569 0.019608
0.737255 0.121569 0.019608
0.772549 0.129412 0.019608
0.796078 0.129412 0.019608
0.827451 0.125490 0.019608
0.854902 0.125490 0.019608
0.882353 0.129412 0.019608
0.909804 0.129412 0.019608
0.937255 0.129412 0.019608
0.968627 0.129412 0.019608
0.019608 0.109804 0.019608
0.019608 0.109804 0.019608
0.035294 0.109804 0.019608
0.066667 0.113725 0.019608
0.101961 0.113725 0.019608
0.125490 0.113725 0.019608
0.152941 0.113725 0.019608
0.188235 0.113725 0.019608
0.215686 0.113725 0.019608
0.235294 0.109804 0.019608
0.262745 0.117647 0.019608
0.294118 0.121569 0.019608
0.321569 0.121569 0.019608
0.349020 0.125490 0.019608
0.380392 0.121569 0.019608
0.403922 0.129412 0.019608
0.427451 0.125490 0.019608
0.458824 0.125490 0.019608
0.490196 0.125490 0.019608
0.525490 0.129412 0.019608
0.549020 0.133333 0.019608
0.576471 0.137255 0.019608
0.603922 0.137255 0.019608
0.639216 0.137255 0.019608
0.658824 0.133333 0.019608
0.686275 0.141176 0.019608
0.717647 0.149020 0.019608
0.741176 0.149020 0.019608
0.776471 0.149020 0.019608
0.803922 0.152941 0.019608
0.827451 0.152941 0.019608
0.850980 0.149020 0.019608
0.890196 0.152941 0.019608
0.913725 0.149020 0.019608
0.941176 0.152941 0.019608
0.968627 0.156863 0.019608
0.019608 0.137255 0.019608
0.019608 0.141176 0.019608
0.039216 0.141176 0.019608
0.066667 0.141176 0.019608
0.101961 0.141176 0.019608
0.125490 0.141176 0.019608
0.152941 0.141176 0.019608
0.188235 0.141176 0.019608
0.215686 0.141176 0.019608
0.239216 0.141176 0.019608
0.266667 0.145098 0.019608
0.294118 0.145098 0.019608
0.317647 0.149020 0.019608
0.352941 0.149020 0.019608
0.380392 0.149020 0.019608
0.403922 0.156863 0.019608
0.439216 0.160784 0.019608
0.462745 0.156863 0.019608
0.494118 0.156863 0.019608
0.521569 0.156863 0.019608
0.549020 0.160784 0.019608
0.576471 0.164706 0.019608
0.607843 0.160784 0.019608
0.635294 0.168627 0.019608
0.662745 0.168627 0.019608
0.690196 0.172549 0.019608
0.717647 0.172549 0.019608
0.741176 0.176471 0.019608
0.776471 0.176471 0.019608
0.803922 0.180392 0.019608
0.827451 0.180392 0.019608
0.850980 0.176471 0.019608
0.894118 0.184314 0.019608
0.917647 0.180392 0.019608
0.941176 0.180392 0.019608
0.968627 0.184314 0.019608
0.019608 0.164706 0.019608
0.019608 0.164706 0.019608
0.043137 0.164706 0.019608
0.074510 0.164706 0.019608
0.101961 0.168627 0.019608
0.121569 0.164706 0.019608
0.152941 0.160784 0.019608
0.188235 0.168627 0.019608
0.215686 0.168627 0.019608
0.239216 0.172549 0.019608
0.266667 0.176471 0.019608
0.301961 0.172549 0.019608
0.325490 0.176471 0.019608
0.349020 0.176471 0.019608
0.376471 0.176471 0.019608
0.411765 0.184314 0.019608
0.439216 0.184314 0.019608
0.466667 0.184314 0.019608
0.494118 0.188235 0.019608
0.521569 0.188235 0.019608
0.545098 0.184314 0.019608
0.580392 0.192157 0.019608
0.607843 0.192157 0.019608
0.635294 0.200000 0.019608
0.658824 0.200000 0.019608
0.694118 0.200000 0.019608
0.721569 0.203922 0.019608
0.745098 0.203922 0.019608
0.776471 0.207843 0.019608
0.796078 0.203922 0.019608
0.827451 0.207843 0.019608
0.854902 0.207843 0.019608
0.890196 0.207843 0.019608
0.917647 0.207843 0.019608
0.941176 0.207843 0.019608
0.976471 0.207843 0.019608
0.019608 0.188235 0.019608
0.019608 0.192157 0.019608
0.039216 0.188235 0.019608
0.066667 0.188235 0.019608
0.101961 0.188235 0.019608
0.129412 0.192157 0.019608
0.156863 0.192157 0.019608
0.188235 0.196078 0.019608
0.215686 0.192157 0.019608
0.239216 0.192157 0.019608
0.266667 0.196078 0.019608
0.294118 0.196078 0.019608
0.321569 0.196078 0.019608
0.352941 0.207843 0.019608
0.388235 0.203922 0.019608
0.411765 0.211765 0.019608
0.439216 0.211765 0.019608
0.462745 0.207843 0.019608
0.494118 0.203922 0.019608
0.525490 0.207843 0.019608
0.552941 0.215686 0.019608
0.580392 0.215686 0.019608
0.607843 0.215686 0.019608
0.635294 0.219608 0.019608
0.662745 0.215686 0.019608
0.694118 0.223529 0.019608
0.717647 0.219608 0.019608
0.741176 0.223529 0.019608
0.780392 0.227451 0.019608
0.807843 0.227451 0.019608
0.831373 0.231373 0.019608
0.858824 0.231373 0.019608
0.886275 0.231373 0.019608
0.909804 0.231373 0.019608
0.941176 0.227451 0.019608
0.968627 0.231373 0.019608
0.019608 0.211765 0.019608
0.023529 0.215686 0.019608
0.047059 0.215686 0.019608
0.078431 0.215686 0.019608
0.105882 0.215686 0.019608
0.129412 0.215686 0.019608
0.152941 0.215686 0.019608
0.188235 0.215686 0.019608
0.215686 0.215686 0.019608
0.239216 0.215686 0.019608
0.266667 0.219608 0.019608
0.305882 0.219608 0.019608
0.329412 0.227451 0.019608
0.352941 0.223529 0.019608
0.380392 0.223529 0.019608
0.403922 0.227451 0.019608
0.435294 0.231373 0.019608
0.466667 0.227451 0.019608
0.498039 0.231373 0.019608
0.529412 0.235294 0.019608
0.552941 0.239216 0.019608
0.584314 0.239216 0.019608
0.607843 0.235294 0.019608
0.639216 0.239216 0.019608
0.662745 0.243137 0.019608
0.690196 0.247059 0.019608
0.729412 0.250980 0.019608
0.752941 0.254902 0.019608
0.780392 0.254902 0.019608
0.803922 0.250980 0.019608
0.827451 0.250980 0.019608
0.854902 0.254902 0.019608
0.890196 0.254902 0.019608
0.917647 0.254902 0.019608
0.945098 0.258824 0.019608
0.976471 0.258824 0.019608
0.019608 0.239216 0.019608
0.027451 0.247059 0.019608
0.050980 0.247059 0.019608
0.078431 0.247059 0.019608
0.105882 0.250980 0.019608
0.129412 0.250980 0.019608
0.152941 0.247059 0.019608
0.188235 0.247059 0.019608
0.215686 0.247059 0.019608
0.243137 0.250980 0.019608
0.270588 0.254902 0.019608
0.305882 0.250980 0.019608
0.329412 0.254902 0.019608
0.352941 0.254902 0.019608
0.384314 0.258824 0.019608
0.403922 0.258824 0.019608
0.443137 0.262745 0.019608
0.470588 0.262745 0.019608
0.498039 0.266667 0.019608
0.525490 0.266667 0.019608
0.552941 0.270588 0.019608
0.584314 0.270588 0.019608
0.607843 0.266667 0.019608
0.635294 0.270588 0.019608
0.666667 0.274510 0.019608
0.694118 0.278431 0.019608
0.725490 0.278431 0.019608
0.752941 0.282353 0.019608
0.780392 0.282353 0.019608
0.807843 0.286275 0.019608
0.827451 0.282353 0.019608
0.854902 0.282353 0.019608
0.894118 0.286275 0.019608
0.921569 0.286275 0.019608
0.945098 0.286275 0.019608
0.976471 0.286275 0.019608
0.019608 0.270588 0.019608
0.023529 0.274510 0.019608
0.043137 0.270588 0.019608
0.074510 0.270588 0.019608
0.105882 0.270588 0.019608
0.129412 0.270588 0.019608
0.156863 0.270588 0.019608
0.192157 0.278431 0.019608
0.215686 0.278431 0.019608
0.250980 0.278431 0.019608
0.274510 0.274510 0.019608
0.301961 0.274510 0.019608
0.325490 0.274510 0.019608
0.352941 0.278431 0.019608
0.392157 0.282353 0.019608
0.415686 0.286275 0.019608
0.443137 0.290196 0.019608
0.466667 0.286275 0.019608
0.505882 0.290196 0.019608
0.529412 0.286275 0.019608
0.552941 0.290196 0.019608
0.580392 0.294118 0.019608
0.611765 0.298039 0.019608
0.639216 0.301961 0.019608
0.666667 0.305882 0.019608
0.698039 0.305882 0.019608
0.721569 0.301961 0.019608
0.745098 0.301961 0.019608
0.780392 0.305882 0.019608
0.807843 0.309804 0.019608
0.835294 0.309804 0.019608
0.866667 0.309804 0.019608
0.894118 0.313725 0.019608
0.917647 0.309804 0.019608
0.941176 0.309804 0.019608
0.972549 0.309804 0.019608
0.019608 0.298039 0.019608
0.019608 0.298039 0.019608
0.050980 0.298039 0.019608
0.078431 0.298039 0.019608
0.105882 0.298039 0.019608
0.133333 0.301961 0.019608
0.156863 0.298039 0.019608
0.192157 0.298039 0.019608
0.215686 0.298039 0.019608
0.243137 0.298039 0.019608
0.270588 0.301961 0.019608
0.305882 0.298039 0.019608
0.333333 0.305882 0.019608
0.364706 0.309804 0.019608
0.392157 0.309804 0.019608
0.411765 0.309804 0.019608
0.439216 0.309804 0.019608
0.466667 0.309804 0.019608
0.501961 0.309804 0.019608
0.529412 0.309804 0.019608
0.556863 0.317647 0.019608
0.592157 0.317647 0.019608
0.615686 0.317647 0.019608
0.639216 0.317647 0.019608
0.666667 0.317647 0.019608
0.694118 0.325490 0.019608
0.721569 0.325490 0.019608
0.745098 0.325490 0.019608
0.784314 0.333333 0.019608
0.811765 0.337255 0.019608
0.831373 0.333333 0.019608
0.858824 0.333333 0.019608
0.894118 0.329412 0.019608
0.921569 0.333333 0.019608
0.945098 0.333333 0.019608
0.976471 0.337255 0.019608
0.019608 0.325490 0.019608
0.027451 0.325490 0.019608
0.050980 0.325490 0.019608
0.082353 0.329412 0.019608
0.109804 0.333333 0.019608
0.133333 0.333333 0.019608
0.156863 0.329412 0.019608
0.196078 0.333333 0.019608
0.215686 0.329412 0.019608
0.243137 0.329412 0.019608
0.274510 0.337255 0.019608
0.309804 0.333333 0.019608
0.333333 0.337255 0.019608
0.360784 0.337255 0.019608
0.392157 0.337255 0.019608
0.407843 0.337255 0.019608
0.439216 0.341176 0.019608
0.466667 0.341176 0.019608
0.505882 0.341176 0.019608
0.533333 0.341176 0.019608
0.556863 0.345098 0.019608
0.592157 0.345098 0.019608
0.619608 0.349020 0.019608
0.639216 0.349020 0.019608
0.666667 0.349020 0.019608
0.694118 0.352941 0.019608
0.725490 0.356863 0.019608
0.756863 0.360784 0.019608
0.784314 0.360784 0.019608
0.811765 0.360784 0.019608
0.831373 0.360784 0.019608
0.858824 0.360784 0.019608
0.894118 0.356863 0.019608
0.921569 0.364706 0.019608
0.949020 0.364706 0.019608
0.976471 0.368627 0.019608
0.019608 0.349020 0.019608
0.027451 0.356863 0.019608
0.054902 0.356863 0.019608
0.078431 0.352941 0.019608
0.109804 0.352941 0.019608
0.137255 0.352941 0.019608
0.164706 0.352941 0.019608
0.192157 0.352941 0.019608
0.219608 0.360784 0.019608
0.247059 0.360784 0.019608
0.278431 0.352941 0.019608
0.305882 0.356863 0.019608
0.329412 0.356863 0.019608
0.356863 0.360784 0.019608
0.392157 0.356863 0.019608
0.415686 0.360784 0.019608
0.447059 0.368627 0.019608
0.474510 0.368627 0.019608
0.501961 0.368627 0.019608
0.525490 0.368627 0.019608
0.556863 0.368627 0.019608
0.584314 0.368627 0.019608
0.611765 0.372549 0.019608
0.639216 0.376471 0.019608
0.670588 0.384314 0.019608
0.701961 0.384314 0.019608
0.725490 0.380392 0.019608
0.752941 0.388235 0.019608
0.780392 0.388235 0.019608
0.811765 0.384314 0.019608
0.835294 0.388235 0.019608
0.870588 0.392157 0.019608
0.898039 0.392157 0.019608
0.921569 0.396078 0.019608
0.945098 0.392157 0.019608
0.976471 0.392157 0.019608
0.019608 0.376471 0.019608
0.023529 0.376471 0.019608
0.047059 0.384314 0.019608
0.082353 0.376471 0.019608
0.109804 0.376471 0.019608
0.133333 0.384314 0.019608
0.168627 0.388235 0.019608
0.200000 0.388235 0.019608
0.219608 0.384314 0.019608
0.247059 0.384314 0.019608
0.278431 0.384314 0.019608
0.305882 0.388235 0.019608
0.333333 0.384314 0.019608
0.364706 0.388235 0.019608
0.396078 0.392157 0.019608
0.415686 0.388235 0.019608
0.443137 0.392157 0.019608
0.470588 0.392157 0.019608
0.505882 0.388235 0.019608
0.533333 0.392157 0.019608
0.556863 0.396078 0.019608
0.592157 0.392157 0.019608
0.623529 0.403922 0.019608
0.643137 0.400000 0.019608
0.670588 0.403922 0.019608
0.698039 0.403922 0.019608
0.725490 0.403922 0.019608
0.749020 0.407843 0.019608
0.784314 0.407843 0.019608
0.815686 0.411765 0.019608
0.835294 0.411765 0.019608
0.862745 0.411765 0.019608
0.898039 0.407843 0.019608
0.921569 0.411765 0.019608
0.949020 0.411765 0.019608
0.976471 0.411765 0.019608
0.019608 0.403922 0.019608
0.027451 0.407843 0.019608
0.054902 0.407843 0.019608
0.078431 0.403922 0.019608
0.105882 0.403922 0.019608
0.141176 0.407843 0.019608
0.168627 0.407843 0.019608
0.196078 0.407843 0.019608
0.219608 0.411765 0.019608
0.247059 0.411765 0.019608
0.274510 0.411765 0.019608
0.309804 0.411765 0.019608
0.329412 0.407843 0.019608
0.360784 0.415686 0.019608
0.396078 0.411765 0.019608
0.419608 0.411765 0.019608
0.447059 0.415686 0.019608
0.474510 0.415686 0.019608
0.505882 0.415686 0.019608
0.529412 0.411765 0.019608
0.556863 0.419608 0.019608
0.592157 0.419608 0.019608
0.619608 0.423529 0.019608
0.643137 0.423529 0.019608
0.670588 0.427451 0.019608
0.705882 0.427451 0.019608
0.733333 0.427451 0.019608
0.752941 0.431373 0.019608
0.784314 0.435294 0.019608
0.811765 0.435294 0.019608
0.835294 0.435294 0.019608
0.870588 0.435294 0.019608
0.898039 0.435294 0.019608
0.921569 0.435294 0.019608
0.945098 0.435294 0.019608
0.976471 0.431373 0.019608
0.019608 0.431373 0.019608
0.027451 0.431373 0.019608
0.058824 0.439216 0.019608
0.082353 0.435294 0.019608
0.117647 0.431373 0.019608
0.141176 0.435294 0.019608
0.168627 0.435294 0.019608
0.196078 0.439216 0.019608
0.219608 0.439216 0.019608
0.247059 0.439216 0.019608
0.282353 0.447059 0.019608
0.309804 0.443137 0.019608
0.333333 0.439216 0.019608
0.360784 0.443137 0.019608
0.396078 0.439216 0.019608
0.419608 0.439216 0.019608
0.447059 0.443137 0.019608
0.474510 0.443137 0.019608
0.509804 0.450980 0.019608
0.533333 0.447059 0.019608
0.556863 0.450980 0.019608
0.588235 0.450980 0.019608
0.619608 0.454902 0.019608
0.643137 0.454902 0.019608
0.670588 0.454902 0.019608
0.709804 0.462745 0.019608
0.733333 0.462745 0.019608
0.756863 0.462745 0.019608
0.784314 0.466667 0.019608
0.811765 0.466667 0.019608
0.843137 0.462745 0.019608
0.870588 0.466667 0.019608
0.898039 0.466667 0.019608
0.925490 0.470588 0.019608
0.949020 0.470588 0.019608
0.976471 0.470588 0.023529
0.019608 0.462745 0.019608
0.027451 0.458824 0.019608
0.054902 0.462745 0.019608
0.082353 0.462745 0.019608
0.117647 0.458824 0.019608
0.141176 0.462745 0.019608
0.168627 0.462745 0.019608
0.200000 0.462745 0.019608
0.219608 0.458824 0.019608
0.254902 0.462745 0.019608
0.282353 0.466667 0.019608
0.309804 0.466667 0.019608
0.333333 0.466667 0.019608
0.360784 0.466667 0.019608
0.396078 0.466667 0.019608
0.419608 0.466667 0.019608
0.447059 0.466667 0.019608
0.474510 0.470588 0.019608
0.509804 0.470588 0.019608
0.537255 0.470588 0.019608
0.560784 0.474510 0.019608
0.588235 0.474510 0.019608
0.615686 0.482353 0.019608
0.643137 0.474510 0.019608
0.674510 0.478431 0.019608
0.701961 0.486275 0.019608
0.729412 0.486275 0.019608
0.756863 0.490196 0.019608
0.788235 0.490196 0.019608
0.815686 0.490196 0.019608
0.843137 0.490196 0.019608
0.862745 0.490196 0.019608
0.901961 0.490196 0.019608
0.925490 0.494118 0.019608
0.956863 0.494118 0.019608
0.976471 0.494118 0.019608
0.019608 0.486275 0.019608
0.031373 0.486275 0.019608
0.058824 0.490196 0.019608
0.082353 0.486275 0.019608
0.113725 0.490196 0.019608
0.133333 0.486275 0.019608
0.168627 0.486275 0.019608
0.200000 0.494118 0.019608
0.223529 0.494118 0.019608
0.254902 0.494118 0.019608
0.282353 0.494118 0.019608
0.309804 0.494118 0.019608
0.333333 0.490196 0.019608
0.360784 0.490196 0.019608
0.396078 0.494118 0.019608
0.423529 0.494118 0.019608
0.454902 0.494118 0.019608
0.482353 0.494118 0.019608
0.509804 0.494118 0.019608
0.537255 0.498039 0.019608
0.556863 0.498039 0.019608
0.592157 0.498039 0.019608
0.623529 0.505882 0.019608
0.647059 0.505882 0.019608
0.674510 0.505882 0.019608
0.709804 0.509804 0.019608
0.733333 0.509804 0.019608
0.756863 0.509804 0.019608
0.784314 0.509804 0.019608
0.811765 0.513725 0.019608
0.839216 0.521569 0.019608
0.870588 0.521569 0.019608
0.901961 0.517647 0.019608
0.925490 0.521569 0.019608
0.952941 0.521569 0.019608
0.976471 0.517647 0.023529
0.019608 0.513725 0.019608
0.031373 0.517647 0.019608
0.058824 0.517647 0.019608
0.086275 0.517647 0.019608
0.117647 0.525490 0.019608
0.145098 0.517647 0.019608
0.172549 0.517647 0.019608
0.200000 0.517647 0.019608
0.223529 0.521569 0.019608
0.250980 0.521569 0.019608
0.282353 0.521569 0.019608
0.309804 0.521569 0.019608
0.337255 0.521569 0.019608
0.368627 0.521569 0.019608
0.396078 0.525490 0.019608
0.423529 0.521569 0.019608
0.450980 0.525490 0.019608
0.482353 0.525490 0.019608
0.509804 0.525490 0.019608
0.541176 0.537255 0.019608
0.560784 0.533333 0.019608
0.596078 0.529412 0.019608
0.623529 0.537255 0.019608
0.647059 0.537255 0.019608
0.674510 0.537255 0.019608
0.709804 0.541176 0.019608
0.733333 0.541176 0.019608
0.756863 0.541176 0.019608
0.792157 0.545098 0.019608
0.815686 0.545098 0.019608
0.839216 0.545098 0.019608
0.874510 0.545098 0.019608
0.901961 0.545098 0.019608
0.925490 0.545098 0.023529
0.952941 0.545098 0.023529
0.976471 0.545098 0.027451
0.019608 0.545098 0.019608
0.027451 0.541176 0.019608
0.054902 0.545098 0.019608
0.086275 0.545098 0.019608
0.121569 0.545098 0.019608
0.145098 0.545098 0.019608
0.172549 0.545098 0.019608
0.207843 0.545098 0.019608
0.231373 0.545098 0.019608
0.254902 0.545098 0.019608
0.286275 0.545098 0.019608
0.309804 0.549020 0.019608
0.337255 0.549020 0.019608
0.364706 0.549020 0.019608
0.400000 0.549020 0.019608
0.423529 0.549020 0.019608
0.447059 0.545098 0.019608
0.474510 0.549020 0.019608
0.513725 0.549020 0.019608
0.541176 0.552941 0.019608
0.564706 0.552941 0.019608
0.596078 0.552941 0.019608
0.623529 0.560784 0.019608
0.647059 0.560784 0.019608
0.674510 0.552941 0.019608
0.701961 0.560784 0.019608
0.733333 0.564706 0.019608
0.760784 0.572549 0.019608
0.796078 0.568627 0.019608
0.823529 0.568627 0.019608
0.847059 0.572549 0.019608
0.870588 0.568627 0.019608
0.898039 0.568627 0.019608
0.933333 0.572549 0.023529
0.960784 0.572549 0.027451
0.976471 0.572549 0.027451
0.019608 0.564706 0.019608
0.035294 0.572549 0.019608
0.062745 0.572549 0.019608
0.090196 0.572549 0.019608
0.121569 0.572549 0.019608
0.141176 0.572549 0.019608
0.168627 0.572549 0.019608
0.200000 0.568627 0.019608
0.231373 0.572549 0.019608
0.258824 0.572549 0.019608
0.286275 0.572549 0.019608
0.317647 0.572549 0.019608
0.345098 0.572549 0.019608
0.368627 0.572549 0.019608
0.396078 0.572549 0.019608
0.419608 0.572549 0.019608
0.450980 0.580392 0.019608
0.486275 0.576471 0.019608
0.513725 0.576471 0.019608
0.541176 0.580392 0.019608
0.560784 0.576471 0.019608
0.596078 0.572549 0.019608
0.623529 0.576471 0.019608
0.647059 0.580392 0.019608
0.678431 0.588235 0.023529
0.705882 0.592157 0.019608
0.737255 0.588235 0.019608
0.764706 0.596078 0.019608
0.792157 0.596078 0.019608
0.815686 0.592157 0.019608
0.839216 0.592157 0.019608
0.874510 0.600000 0.023529
0.905882 0.596078 0.027451
0.933333 0.596078 0.027451
0.960784 0.600000 0.027451
0.976471 0.596078 0.027451
0.019608 0.596078 0.019608
0.035294 0.596078 0.019608
0.058824 0.596078 0.019608
0.086275 0.596078 0.019608
0.121569 0.592157 0.019608
0.145098 0.596078 0.019608
0.176471 0.600000 0.019608
0.203922 0.600000 0.019608
0.231373 0.607843 0.019608
0.258824 0.596078 0.019608
0.286275 0.596078 0.019608
0.309804 0.596078 0.019608
0.337255 0.600000 0.019608
0.368627 0.600000 0.019608
0.403922 0.607843 0.019608
0.431373 0.607843 0.019608
0.458824 0.611765 0.019608
0.482353 0.607843 0.019608
0.509804 0.607843 0.019608
0.541176 0.600000 0.019608
0.568627 0.607843 0.019608
0.596078 0.607843 0.019608
0.627451 0.611765 0.023529
