luts/full/velvet.cube
TITLE "velvet (full)"
LUT_3D_SIZE 6
0.066667 0.039216 0.054902
0.254902 0.043137 0.050980
0.443137 0.047059 0.043137
0.623529 0.050980 0.039216
0.792157 0.058824 0.031373
0.956863 0.050980 0.023529
0.054902 0.211765 0.043137
0.243137 0.215686 0.039216
0.431373 0.219608 0.031373
0.607843 0.223529 0.023529
0.776471 0.227451 0.015686
0.937255 0.223529 0.007843
0.039216 0.392157 0.027451
0.231373 0.388235 0.023529
0.419608 0.384314 0.019608
0.596078 0.388235 0.011765
0.760784 0.396078 0.000000
0.921569 0.392157 0.000000
0.023529 0.552941 0.011765
0.219608 0.545098 0.007843
0.407843 0.541176 0.003922
0.580392 0.541176 0.000000
0.745098 0.549020 0.000000
0.905882 0.545098 0.000000
0.007843 0.709804 0.000000
0.200000 0.705882 0.000000
0.392157 0.701961 0.000000
0.568627 0.698039 0.000000
0.733333 0.698039 0.000000
0.890196 0.694118 0.000000
0.000000 0.850980 0.000000
0.184314 0.847059 0.000000
0.376471 0.843137 0.000000
0.552941 0.835294 0.000000
0.721569 0.831373 0.000000
0.878431 0.827451 0.000000
0.066667 0.043137 0.223529
0.254902 0.043137 0.219608
0.443137 0.047059 0.215686
0.623529 0.050980 0.211765
0.788235 0.058824 0.207843
0.952941 0.050980 0.203922
0.054902 0.215686 0.211765
0.243137 0.219608 0.207843
0.427451 0.227451 0.203922
0.603922 0.235294 0.200000
0.768627 0.227451 0.192157
0.929412 0.223529 0.188235
0.039216 0.392157 0.200000
0.231373 0.392157 0.196078
0.415686 0.392157 0.192157
0.592157 0.400000 0.188235
0.756863 0.396078 0.180392
0.913725 0.392157 0.172549
0.023529 0.549020 0.184314
0.219608 0.556863 0.184314
0.403922 0.552941 0.180392
0.580392 0.552941 0.176471
0.741176 0.549020 0.168627
0.901961 0.545098 0.160784
0.003922 0.709804 0.168627
0.203922 0.705882 0.168627
0.392157 0.701961 0.164706
0.568627 0.698039 0.160784
0.729412 0.694118 0.152941
0.886275 0.690196 0.145098
0.000000 0.850980 0.152941
0.188235 0.843137 0.152941
0.376471 0.839216 0.149020
0.556863 0.835294 0.145098
0.717647 0.831373 0.141176
0.874510 0.827451 0.133333
0.062745 0.050980 0.388235
0.254902 0.047059 0.384314
0.443137 0.047059 0.380392
0.619608 0.050980 0.380392
0.788235 0.054902 0.376471
0.949020 0.050980 0.372549
0.050980 0.223529 0.376471
0.243137 0.223529 0.368627
0.427451 0.223529 0.364706
0.600000 0.231373 0.364706
0.768627 0.227451 0.360784
0.925490 0.223529 0.356863
0.039216 0.388235 0.364706
0.231373 0.392157 0.360784
0.415686 0.403922 0.356863
0.588235 0.400000 0.352941
0.752941 0.396078 0.345098
0.909804 0.392157 0.341176
0.023529 0.549020 0.352941
0.215686 0.560784 0.345098
0.403922 0.556863 0.345098
0.576471 0.552941 0.341176
0.741176 0.549020 0.337255
0.898039 0.545098 0.329412
0.003922 0.709804 0.337255
0.203922 0.705882 0.333333
0.392157 0.701961 0.333333
0.568627 0.698039 0.329412
0.729412 0.694118 0.325490
0.882353 0.690196 0.317647
0.000000 0.847059 0.321569
0.188235 0.843137 0.321569
0.380392 0.835294 0.317647
0.556863 0.831373 0.313725
0.717647 0.827451 0.309804
0.874510 0.823529 0.305882
0.062745 0.054902 0.549020
0.254902 0.047059 0.541176
0.443137 0.043137 0.537255
0.619608 0.047059 0.537255
0.788235 0.054902 0.533333
0.949020 0.047059 0.533333
0.047059 0.227451 0.533333
0.239216 0.235294 0.525490
0.427451 0.231373 0.521569
0.600000 0.231373 0.517647
0.764706 0.227451 0.517647
0.925490 0.219608 0.513725
0.035294 0.392157 0.521569
0.227451 0.400000 0.513725
0.415686 0.400000 0.505882
0.588235 0.396078 0.505882
0.749020 0.392157 0.501961
0.905882 0.388235 0.498039
0.019608 0.549020 0.509804
0.215686 0.556863 0.501961
0.403922 0.552941 0.498039
0.576471 0.549020 0.494118
0.737255 0.549020 0.490196
0.890196 0.545098 0.486275
0.003922 0.705882 0.494118
0.200000 0.705882 0.490196
0.392157 0.698039 0.486275
0.568627 0.694118 0.486275
0.725490 0.694118 0.482353
0.882353 0.690196 0.478431
0.000000 0.847059 0.482353
0.188235 0.839216 0.478431
0.380392 0.835294 0.474510
0.556863 0.831373 0.474510
0.717647 0.827451 0.470588
0.870588 0.823529 0.466667
0.058824 0.062745 0.694118
0.254902 0.058824 0.690196
0.443137 0.054902 0.686275
0.619608 0.050980 0.682353
0.784314 0.054902 0.678431
0.949020 0.047059 0.678431
0.043137 0.235294 0.678431
0.239216 0.239216 0.670588
0.427451 0.235294 0.666667
0.600000 0.231373 0.662745
0.764706 0.227451 0.658824
0.925490 0.219608 0.658824
0.031373 0.400000 0.666667
0.223529 0.403922 0.654902
0.411765 0.400000 0.650980
0.584314 0.396078 0.647059
0.749020 0.392157 0.643137
0.905882 0.388235 0.643137
0.015686 0.556863 0.650980
0.211765 0.556863 0.643137
0.403922 0.552941 0.639216
0.576471 0.549020 0.635294
0.737255 0.545098 0.631373
0.890196 0.545098 0.631373
0.000000 0.705882 0.639216
0.200000 0.701961 0.635294
0.392157 0.698039 0.631373
0.564706 0.694118 0.627451
0.725490 0.690196 0.623529
0.878431 0.690196 0.619608
0.000000 0.847059 0.627451
0.184314 0.839216 0.623529
0.380392 0.831373 0.619608
0.556863 0.827451 0.615686
0.717647 0.823529 0.615686
0.870588 0.823529 0.611765
0.058824 0.070588 0.835294
0.250980 0.066667 0.831373
0.443137 0.058824 0.823529
0.619608 0.054902 0.819608
0.784314 0.050980 0.815686
0.945098 0.047059 0.815686
0.039216 0.243137 0.819608
0.235294 0.235294 0.807843
0.427451 0.231373 0.803922
0.600000 0.227451 0.800000
0.764706 0.223529 0.796078
0.925490 0.219608 0.796078
0.023529 0.407843 0.803922
0.223529 0.403922 0.796078
0.411765 0.400000 0.784314
0.588235 0.396078 0.780392
0.749020 0.392157 0.780392
0.905882 0.388235 0.776471
0.011765 0.564706 0.788235
0.211765 0.556863 0.780392
0.400000 0.552941 0.772549
0.576471 0.549020 0.768627
0.733333 0.545098 0.764706
0.890196 0.541176 0.764706
0.000000 0.709804 0.776471
0.196078 0.701961 0.768627
0.388235 0.698039 0.764706
0.564706 0.694118 0.756863
0.725490 0.690196 0.756863
0.878431 0.690196 0.752941
0.000000 0.843137 0.764706
0.184314 0.839216 0.756863
0.376471 0.831373 0.752941
0.556863 0.827451 0.749020
0.717647 0.823529 0.745098
0.866667 0.819608 0.745098
