luts/full/velvet.cube
TITLE "velvet (full)"
LUT_3D_SIZE 36
0.066667 0.039216 0.054902
0.094118 0.039216 0.054902
0.121569 0.039216 0.050980
0.145098 0.039216 0.050980
0.176471 0.043137 0.050980
0.200000 0.043137 0.050980
0.227451 0.043137 0.050980
0.254902 0.043137 0.050980
0.286275 0.043137 0.047059
0.309804 0.043137 0.047059
0.337255 0.047059 0.047059
0.368627 0.047059 0.047059
0.392157 0.050980 0.047059
0.415686 0.050980 0.043137
0.443137 0.047059 0.043137
0.470588 0.047059 0.043137
0.498039 0.047059 0.043137
0.517647 0.047059 0.043137
0.549020 0.047059 0.043137
0.576471 0.047059 0.039216
0.596078 0.047059 0.039216
0.623529 0.050980 0.039216
0.650980 0.050980 0.039216
0.670588 0.054902 0.035294
0.694118 0.054902 0.035294
0.721569 0.054902 0.035294
0.741176 0.054902 0.035294
0.764706 0.058824 0.031373
0.792157 0.058824 0.031373
0.815686 0.058824 0.031373
0.835294 0.054902 0.031373
0.858824 0.054902 0.027451
0.886275 0.054902 0.027451
0.909804 0.054902 0.027451
0.933333 0.054902 0.027451
0.956863 0.050980 0.023529
0.062745 0.070588 0.050980
0.094118 0.066667 0.050980
0.117647 0.066667 0.050980
0.145098 0.066667 0.050980
0.172549 0.070588 0.050980
0.200000 0.070588 0.047059
0.223529 0.070588 0.047059
0.254902 0.074510 0.047059
0.282353 0.074510 0.047059
0.309804 0.070588 0.047059
0.333333 0.074510 0.047059
0.364706 0.074510 0.043137
0.392157 0.078431 0.043137
0.411765 0.078431 0.043137
0.443137 0.078431 0.043137
0.466667 0.074510 0.043137
0.494118 0.074510 0.039216
0.517647 0.074510 0.039216
0.545098 0.074510 0.039216
0.572549 0.078431 0.039216
0.596078 0.078431 0.035294
0.619608 0.078431 0.035294
0.647059 0.078431 0.035294
0.670588 0.082353 0.035294
0.690196 0.082353 0.031373
0.717647 0.086275 0.031373
0.741176 0.086275 0.031373
0.760784 0.086275 0.031373
0.788235 0.086275 0.027451
0.811765 0.086275 0.027451
0.835294 0.086275 0.027451
0.854902 0.086275 0.027451
0.882353 0.082353 0.023529
0.905882 0.082353 0.023529
0.929412 0.082353 0.023529
0.952941 0.082353 0.023529
0.062745 0.090196 0.050980
0.094118 0.090196 0.050980
0.117647 0.086275 0.050980
0.141176 0.086275 0.050980
0.172549 0.090196 0.047059
0.196078 0.090196 0.047059
0.223529 0.090196 0.047059
0.250980 0.094118 0.047059
0.282353 0.094118 0.047059
0.305882 0.094118 0.043137
0.333333 0.094118 0.043137
0.364706 0.094118 0.043137
0.388235 0.098039 0.043137
0.411765 0.098039 0.043137
0.439216 0.098039 0.039216
0.466667 0.098039 0.039216
0.494118 0.094118 0.039216
0.513725 0.094118 0.039216
0.545098 0.094118 0.039216
0.572549 0.098039 0.035294
0.592157 0.098039 0.035294
0.619608 0.101961 0.035294
0.647059 0.098039 0.035294
0.666667 0.101961 0.031373
0.690196 0.101961 0.031373
0.717647 0.105882 0.031373
0.737255 0.105882 0.027451
0.760784 0.109804 0.027451
0.788235 0.105882 0.027451
0.807843 0.105882 0.027451
0.831373 0.105882 0.023529
0.854902 0.105882 0.023529
0.882353 0.101961 0.023529
0.905882 0.101961 0.023529
0.925490 0.101961 0.019608
0.949020 0.101961 0.019608
0.062745 0.113725 0.050980
0.090196 0.113725 0.047059
0.117647 0.113725 0.047059
0.141176 0.109804 0.047059
0.172549 0.113725 0.047059
0.196078 0.113725 0.047059
0.219608 0.113725 0.047059
0.250980 0.117647 0.043137
0.282353 0.117647 0.043137
0.305882 0.117647 0.043137
0.333333 0.121569 0.043137
0.360784 0.117647 0.043137
0.388235 0.121569 0.039216
0.407843 0.121569 0.039216
0.439216 0.121569 0.039216
0.466667 0.121569 0.039216
0.490196 0.121569 0.035294
0.513725 0.117647 0.035294
0.545098 0.117647 0.035294
0.568627 0.121569 0.035294
0.592157 0.121569 0.035294
0.615686 0.125490 0.031373
0.643137 0.125490 0.031373
0.666667 0.125490 0.031373
0.686275 0.125490 0.027451
0.713725 0.129412 0.027451
0.737255 0.129412 0.027451
0.756863 0.133333 0.027451
0.784314 0.133333 0.023529
0.807843 0.129412 0.023529
0.831373 0.129412 0.023529
0.850980 0.129412 0.023529
0.878431 0.129412 0.019608
0.901961 0.129412 0.019608
0.925490 0.125490 0.019608
0.949020 0.125490 0.019608
0.058824 0.141176 0.047059
0.090196 0.141176 0.047059
0.113725 0.141176 0.047059
0.141176 0.141176 0.047059
0.168627 0.145098 0.043137
0.196078 0.141176 0.043137
0.219608 0.141176 0.043137
0.247059 0.145098 0.043137
0.278431 0.145098 0.043137
0.305882 0.145098 0.043137
0.329412 0.149020 0.039216
0.360784 0.149020 0.039216
0.384314 0.149020 0.039216
0.407843 0.149020 0.039216
0.435294 0.149020 0.035294
0.462745 0.149020 0.035294
0.490196 0.149020 0.035294
0.509804 0.149020 0.035294
0.541176 0.145098 0.031373
0.568627 0.149020 0.031373
0.588235 0.149020 0.031373
0.615686 0.152941 0.031373
0.643137 0.152941 0.027451
0.662745 0.156863 0.027451
0.686275 0.156863 0.027451
0.709804 0.156863 0.027451
0.733333 0.156863 0.023529
0.756863 0.160784 0.023529
0.784314 0.160784 0.023529
0.803922 0.160784 0.019608
0.827451 0.156863 0.019608
0.850980 0.156863 0.019608
0.878431 0.156863 0.019608
0.898039 0.156863 0.015686
0.921569 0.156863 0.015686
0.945098 0.152941 0.015686
0.058824 0.164706 0.047059
0.086275 0.164706 0.047059
0.113725 0.164706 0.043137
0.137255 0.164706 0.043137
0.168627 0.164706 0.043137
0.192157 0.164706 0.043137
0.219608 0.160784 0.043137
0.247059 0.164706 0.043137
0.278431 0.164706 0.039216
0.301961 0.164706 0.039216
0.329412 0.168627 0.039216
0.356863 0.168627 0.039216
0.384314 0.172549 0.035294
0.403922 0.172549 0.035294
0.435294 0.168627 0.035294
0.462745 0.168627 0.035294
0.486275 0.168627 0.035294
0.509804 0.168627 0.031373
0.541176 0.168627 0.031373
0.564706 0.172549 0.031373
0.588235 0.168627 0.031373
0.611765 0.172549 0.027451
0.639216 0.172549 0.027451
0.662745 0.176471 0.027451
0.682353 0.176471 0.023529
0.709804 0.180392 0.023529
0.733333 0.176471 0.023529
0.752941 0.180392 0.019608
0.780392 0.180392 0.019608
0.803922 0.180392 0.019608
0.823529 0.180392 0.019608
0.847059 0.176471 0.015686
0.874510 0.176471 0.015686
0.898039 0.176471 0.015686
0.921569 0.176471 0.015686
0.941176 0.176471 0.011765
0.058824 0.188235 0.043137
0.086275 0.188235 0.043137
0.109804 0.188235 0.043137
0.137255 0.188235 0.043137
0.164706 0.188235 0.043137
0.192157 0.188235 0.043137
0.215686 0.188235 0.039216
0.247059 0.188235 0.039216
0.274510 0.188235 0.039216
0.301961 0.188235 0.039216
0.325490 0.192157 0.035294
0.356863 0.192157 0.035294
0.380392 0.196078 0.035294
0.403922 0.196078 0.035294
0.435294 0.196078 0.031373
0.458824 0.192157 0.031373
0.486275 0.192157 0.031373
0.505882 0.192157 0.031373
0.537255 0.192157 0.031373
0.564706 0.196078 0.027451
0.584314 0.196078 0.027451
0.611765 0.196078 0.027451
0.639216 0.196078 0.023529
0.658824 0.200000 0.023529
0.682353 0.200000 0.023529
0.705882 0.203922 0.019608
0.729412 0.203922 0.019608
0.752941 0.203922 0.019608
0.776471 0.203922 0.019608
0.800000 0.203922 0.015686
0.823529 0.203922 0.015686
0.847059 0.203922 0.015686
0.870588 0.200000 0.015686
0.894118 0.200000 0.011765
0.917647 0.200000 0.011765
0.941176 0.200000 0.011765
0.054902 0.211765 0.043137
0.086275 0.211765 0.043137
0.109804 0.211765 0.043137
0.133333 0.211765 0.039216
0.164706 0.211765 0.039216
0.188235 0.211765 0.039216
0.215686 0.211765 0.039216
0.243137 0.215686 0.039216
0.274510 0.211765 0.039216
0.298039 0.211765 0.035294
0.325490 0.215686 0.035294
0.352941 0.215686 0.035294
0.380392 0.219608 0.031373
0.400000 0.219608 0.031373
0.431373 0.219608 0.031373
0.458824 0.219608 0.031373
0.482353 0.215686 0.031373
0.505882 0.215686 0.027451
0.537255 0.215686 0.027451
0.560784 0.219608 0.027451
0.584314 0.219608 0.023529
0.607843 0.223529 0.023529
0.635294 0.219608 0.023529
0.658824 0.223529 0.023529
0.678431 0.223529 0.019608
0.705882 0.227451 0.019608
0.729412 0.227451 0.019608
0.749020 0.231373 0.015686
0.776471 0.227451 0.015686
0.800000 0.227451 0.015686
0.819608 0.227451 0.015686
0.843137 0.227451 0.011765
0.870588 0.227451 0.011765
0.894118 0.223529 0.011765
0.913725 0.223529 0.007843
0.937255 0.223529 0.007843
0.050980 0.247059 0.039216
0.082353 0.247059 0.039216
0.105882 0.243137 0.039216
0.133333 0.243137 0.039216
0.160784 0.243137 0.039216
0.188235 0.243137 0.039216
0.211765 0.243137 0.035294
0.243137 0.243137 0.035294
0.270588 0.243137 0.035294
0.298039 0.243137 0.035294
0.321569 0.243137 0.035294
0.352941 0.243137 0.031373
0.376471 0.247059 0.031373
0.400000 0.247059 0.031373
0.427451 0.247059 0.027451
0.454902 0.247059 0.027451
0.482353 0.247059 0.027451
0.501961 0.243137 0.027451
0.533333 0.243137 0.023529
0.560784 0.247059 0.023529
0.580392 0.247059 0.023529
0.607843 0.250980 0.023529
0.631373 0.250980 0.019608
0.654902 0.254902 0.019608
0.678431 0.250980 0.019608
0.701961 0.254902 0.015686
0.725490 0.254902 0.015686
0.745098 0.258824 0.015686
0.772549 0.258824 0.011765
0.796078 0.258824 0.011765
0.819608 0.254902 0.011765
0.839216 0.254902 0.011765
0.866667 0.254902 0.007843
0.890196 0.254902 0.007843
0.913725 0.254902 0.007843
0.933333 0.250980 0.003922
0.050980 0.266667 0.039216
0.082353 0.266667 0.039216
0.105882 0.266667 0.039216
0.133333 0.266667 0.035294
0.160784 0.262745 0.035294
0.188235 0.262745 0.035294
0.211765 0.262745 0.035294
0.239216 0.262745 0.035294
0.270588 0.262745 0.035294
0.298039 0.262745 0.031373
0.321569 0.266667 0.031373
0.352941 0.262745 0.031373
0.376471 0.266667 0.031373
0.396078 0.266667 0.027451
0.427451 0.266667 0.027451
0.454902 0.266667 0.027451
0.478431 0.266667 0.027451
0.501961 0.266667 0.023529
0.533333 0.262745 0.023529
0.556863 0.266667 0.023529
0.580392 0.266667 0.019608
0.603922 0.270588 0.019608
0.631373 0.270588 0.019608
0.650980 0.274510 0.015686
0.674510 0.274510 0.015686
0.701961 0.274510 0.015686
0.721569 0.274510 0.015686
0.745098 0.278431 0.011765
0.772549 0.278431 0.011765
0.792157 0.278431 0.011765
0.815686 0.278431 0.007843
0.839216 0.274510 0.007843
0.866667 0.274510 0.007843
0.886275 0.274510 0.003922
0.909804 0.274510 0.003922
0.933333 0.274510 0.003922
0.050980 0.290196 0.035294
0.078431 0.290196 0.035294
0.105882 0.290196 0.035294
0.129412 0.290196 0.035294
0.160784 0.290196 0.035294
0.184314 0.286275 0.035294
0.211765 0.286275 0.031373
0.239216 0.286275 0.031373
0.270588 0.286275 0.031373
0.294118 0.286275 0.031373
0.317647 0.290196 0.031373
0.349020 0.290196 0.027451
0.376471 0.294118 0.027451
0.396078 0.290196 0.027451
0.427451 0.290196 0.027451
0.450980 0.290196 0.023529
0.478431 0.290196 0.023529
0.498039 0.290196 0.023529
0.529412 0.290196 0.023529
0.556863 0.294118 0.019608
0.576471 0.290196 0.019608
0.603922 0.294118 0.019608
0.627451 0.294118 0.015686
0.650980 0.298039 0.015686
0.674510 0.298039 0.015686
0.698039 0.301961 0.011765
0.721569 0.298039 0.011765
0.741176 0.301961 0.011765
0.768627 0.301961 0.007843
0.792157 0.301961 0.007843
0.815686 0.301961 0.007843
0.835294 0.301961 0.003922
0.862745 0.298039 0.003922
0.886275 0.298039 0.003922
0.909804 0.298039 0.003922
0.929412 0.298039 0.000000
0.047059 0.317647 0.035294
0.078431 0.317647 0.035294
0.101961 0.317647 0.031373
0.125490 0.317647 0.031373
0.156863 0.317647 0.031373
0.184314 0.317647 0.031373
0.207843 0.317647 0.031373
0.239216 0.313725 0.031373
0.266667 0.313725 0.031373
0.294118 0.313725 0.027451
0.317647 0.313725 0.027451
0.349020 0.313725 0.027451
0.372549 0.317647 0.027451
0.396078 0.317647 0.023529
0.423529 0.313725 0.023529
0.450980 0.313725 0.023529
0.474510 0.313725 0.023529
0.498039 0.313725 0.019608
0.529412 0.313725 0.019608
0.552941 0.317647 0.019608
0.576471 0.317647 0.015686
0.600000 0.317647 0.015686
0.627451 0.317647 0.015686
0.647059 0.321569 0.011765
0.670588 0.321569 0.011765
0.698039 0.325490 0.011765
0.717647 0.325490 0.007843
0.741176 0.329412 0.007843
0.768627 0.325490 0.007843
0.788235 0.325490 0.003922
0.811765 0.325490 0.003922
0.835294 0.325490 0.003922
0.858824 0.325490 0.003922
0.882353 0.321569 0.000000
0.905882 0.321569 0.000000
0.929412 0.321569 0.000000
0.043137 0.345098 0.031373
0.074510 0.341176 0.031373
0.101961 0.341176 0.031373
0.125490 0.341176 0.031373
0.156863 0.341176 0.031373
0.180392 0.341176 0.027451
0.207843 0.341176 0.027451
0.235294 0.341176 0.027451
0.266667 0.337255 0.027451
0.290196 0.337255 0.027451
0.317647 0.337255 0.027451
0.345098 0.337255 0.027451
0.372549 0.341176 0.023529
0.392157 0.341176 0.023529
0.423529 0.341176 0.023529
0.447059 0.337255 0.019608
0.474510 0.337255 0.019608
0.494118 0.337255 0.019608
0.525490 0.337255 0.019608
0.552941 0.341176 0.015686
0.572549 0.341176 0.015686
0.600000 0.345098 0.015686
0.623529 0.341176 0.011765
0.647059 0.345098 0.011765
0.666667 0.345098 0.011765
0.694118 0.349020 0.007843
0.717647 0.349020 0.007843
0.737255 0.352941 0.007843
0.764706 0.352941 0.003922
0.788235 0.349020 0.003922
0.807843 0.349020 0.003922
0.831373 0.349020 0.000000
0.858824 0.349020 0.000000
0.882353 0.349020 0.000000
0.901961 0.349020 0.000000
0.925490 0.345098 0.000000
0.043137 0.364706 0.031373
0.074510 0.364706 0.031373
0.098039 0.360784 0.027451
0.125490 0.360784 0.027451
0.152941 0.360784 0.027451
0.180392 0.360784 0.027451
0.203922 0.360784 0.027451
0.235294 0.360784 0.027451
0.262745 0.360784 0.027451
0.290196 0.356863 0.023529
0.313725 0.356863 0.023529
0.345098 0.356863 0.023529
0.368627 0.360784 0.023529
0.392157 0.360784 0.023529
0.419608 0.360784 0.019608
0.447059 0.360784 0.019608
0.470588 0.360784 0.019608
0.494118 0.356863 0.015686
0.525490 0.356863 0.015686
0.549020 0.360784 0.015686
0.572549 0.360784 0.011765
0.596078 0.364706 0.011765
0.623529 0.364706 0.011765
0.643137 0.368627 0.007843
0.666667 0.364706 0.007843
0.694118 0.368627 0.007843
0.713725 0.368627 0.003922
0.737255 0.372549 0.003922
0.764706 0.372549 0.003922
0.784314 0.372549 0.000000
0.807843 0.368627 0.000000
0.831373 0.368627 0.000000
0.854902 0.368627 0.000000
0.878431 0.368627 0.000000
0.901961 0.368627 0.000000
0.925490 0.368627 0.000000
0.039216 0.392157 0.027451
0.070588 0.392157 0.027451
0.094118 0.392157 0.027451
0.121569 0.392157 0.027451
0.152941 0.388235 0.023529
0.176471 0.388235 0.023529
0.203922 0.388235 0.023529
0.231373 0.388235 0.023529
0.262745 0.388235 0.023529
0.286275 0.388235 0.023529
0.313725 0.388235 0.023529
0.341176 0.384314 0.019608
0.368627 0.384314 0.019608
0.388235 0.384314 0.019608
0.419608 0.384314 0.019608
0.443137 0.384314 0.019608
0.470588 0.384314 0.015686
0.490196 0.384314 0.015686
0.521569 0.380392 0.015686
0.549020 0.384314 0.011765
0.568627 0.384314 0.011765
0.596078 0.388235 0.011765
0.619608 0.388235 0.007843
0.643137 0.392157 0.007843
0.662745 0.392157 0.007843
0.690196 0.392157 0.003922
0.713725 0.392157 0.003922
0.733333 0.396078 0.000000
0.760784 0.396078 0.000000
0.784314 0.396078 0.000000
0.803922 0.396078 0.000000
0.827451 0.396078 0.000000
0.854902 0.392157 0.000000
0.874510 0.392157 0.000000
0.898039 0.392157 0.000000
0.921569 0.392157 0.000000
0.039216 0.415686 0.023529
0.066667 0.415686 0.023529
0.094118 0.415686 0.023529
0.117647 0.415686 0.023529
0.149020 0.415686 0.023529
0.176471 0.411765 0.023529
0.200000 0.411765 0.023529
0.231373 0.411765 0.019608
0.258824 0.411765 0.019608
0.286275 0.411765 0.019608
0.309804 0.411765 0.019608
0.341176 0.411765 0.019608
0.364706 0.407843 0.019608
0.388235 0.407843 0.019608
0.415686 0.407843 0.015686
0.443137 0.407843 0.015686
0.466667 0.407843 0.015686
0.490196 0.407843 0.015686
0.521569 0.407843 0.011765
0.545098 0.407843 0.011765
0.568627 0.407843 0.007843
0.592157 0.411765 0.007843
0.619608 0.411765 0.007843
0.639216 0.415686 0.003922
0.662745 0.415686 0.003922
0.690196 0.419608 0.003922
0.709804 0.419608 0.000000
0.733333 0.419608 0.000000
0.756863 0.419608 0.000000
0.780392 0.419608 0.000000
0.803922 0.419608 0.000000
0.823529 0.419608 0.000000
0.850980 0.419608 0.000000
0.874510 0.415686 0.000000
0.898039 0.415686 0.000000
0.917647 0.415686 0.000000
0.035294 0.435294 0.023529
0.066667 0.435294 0.023529
0.090196 0.435294 0.023529
0.117647 0.435294 0.023529
0.149020 0.435294 0.019608
0.172549 0.435294 0.019608
0.200000 0.435294 0.019608
0.227451 0.431373 0.019608
0.258824 0.431373 0.019608
0.282353 0.431373 0.019608
0.309804 0.431373 0.015686
0.337255 0.431373 0.015686
0.364706 0.431373 0.015686
0.384314 0.427451 0.015686
0.415686 0.427451 0.015686
0.443137 0.427451 0.015686
0.466667 0.427451 0.011765
0.490196 0.427451 0.011765
0.517647 0.427451 0.011765
0.545098 0.431373 0.007843
0.564706 0.431373 0.007843
0.592157 0.431373 0.007843
0.615686 0.431373 0.003922
0.639216 0.435294 0.003922
0.658824 0.435294 0.003922
0.686275 0.439216 0.000000
0.709804 0.439216 0.000000
0.729412 0.443137 0.000000
0.756863 0.439216 0.000000
0.780392 0.439216 0.000000
0.800000 0.439216 0.000000
0.823529 0.439216 0.000000
0.850980 0.439216 0.000000
0.870588 0.439216 0.000000
0.894118 0.435294 0.000000
0.917647 0.435294 0.000000
0.035294 0.458824 0.019608
0.062745 0.454902 0.019608
0.090196 0.454902 0.019608
0.113725 0.454902 0.019608
0.145098 0.454902 0.019608
0.172549 0.454902 0.019608
0.196078 0.454902 0.019608
0.227451 0.454902 0.015686
0.254902 0.450980 0.015686
0.282353 0.450980 0.015686
0.305882 0.450980 0.015686
0.337255 0.450980 0.015686
0.364706 0.450980 0.015686
0.384314 0.450980 0.015686
0.415686 0.447059 0.011765
0.439216 0.447059 0.011765
0.466667 0.447059 0.011765
0.486275 0.447059 0.011765
0.517647 0.447059 0.007843
0.541176 0.450980 0.007843
0.564706 0.450980 0.007843
0.588235 0.454902 0.003922
0.615686 0.450980 0.003922
0.635294 0.454902 0.000000
0.658824 0.454902 0.000000
0.686275 0.458824 0.000000
0.705882 0.458824 0.000000
0.729412 0.462745 0.000000
0.752941 0.462745 0.000000
0.776471 0.458824 0.000000
0.800000 0.458824 0.000000
0.819608 0.458824 0.000000
0.847059 0.458824 0.000000
0.870588 0.458824 0.000000
0.894118 0.458824 0.000000
0.913725 0.454902 0.000000
0.031373 0.486275 0.019608
0.062745 0.486275 0.019608
0.086275 0.486275 0.015686
0.113725 0.482353 0.015686
0.141176 0.482353 0.015686
0.168627 0.482353 0.015686
0.192157 0.482353 0.015686
0.223529 0.482353 0.015686
0.254902 0.482353 0.011765
0.278431 0.478431 0.011765
0.305882 0.478431 0.011765
0.333333 0.478431 0.011765
0.360784 0.478431 0.011765
0.380392 0.478431 0.011765
0.411765 0.478431 0.011765
0.439216 0.478431 0.007843
0.462745 0.474510 0.007843
0.486275 0.474510 0.007843
0.513725 0.474510 0.007843
0.541176 0.478431 0.003922
0.560784 0.478431 0.003922
0.588235 0.482353 0.003922
0.611765 0.482353 0.000000
0.635294 0.486275 0.000000
0.654902 0.482353 0.000000
0.682353 0.486275 0.000000
0.705882 0.486275 0.000000
0.725490 0.490196 0.000000
0.752941 0.490196 0.000000
0.772549 0.490196 0.000000
0.796078 0.490196 0.000000
0.819608 0.486275 0.000000
0.843137 0.486275 0.000000
0.866667 0.486275 0.000000
0.890196 0.486275 0.000000
0.913725 0.486275 0.000000
0.031373 0.505882 0.015686
0.058824 0.505882 0.015686
0.086275 0.505882 0.015686
0.109804 0.505882 0.015686
0.141176 0.501961 0.015686
0.164706 0.501961 0.011765
0.192157 0.501961 0.011765
0.223529 0.501961 0.011765
0.250980 0.501961 0.011765
0.278431 0.501961 0.011765
0.301961 0.501961 0.011765
0.333333 0.498039 0.007843
0.360784 0.498039 0.007843
0.380392 0.498039 0.007843
0.411765 0.498039 0.007843
0.435294 0.498039 0.007843
0.462745 0.498039 0.007843
0.482353 0.498039 0.007843
0.513725 0.494118 0.003922
0.537255 0.498039 0.003922
0.560784 0.498039 0.003922
0.584314 0.501961 0.000000
0.611765 0.501961 0.000000
0.631373 0.505882 0.000000
0.654902 0.505882 0.000000
0.682353 0.509804 0.000000
0.701961 0.505882 0.000000
0.725490 0.509804 0.000000
0.749020 0.509804 0.000000
0.772549 0.509804 0.000000
0.796078 0.509804 0.000000
0.815686 0.509804 0.000000
0.843137 0.505882 0.000000
0.866667 0.505882 0.000000
0.886275 0.505882 0.000000
0.909804 0.505882 0.000000
0.027451 0.529412 0.015686
0.058824 0.529412 0.011765
0.082353 0.529412 0.011765
0.109804 0.529412 0.011765
0.137255 0.529412 0.011765
0.164706 0.529412 0.011765
0.188235 0.525490 0.011765
0.219608 0.525490 0.007843
0.250980 0.525490 0.007843
0.274510 0.525490 0.007843
0.301961 0.525490 0.007843
0.329412 0.525490 0.007843
0.356863 0.521569 0.007843
0.376471 0.521569 0.007843
0.407843 0.521569 0.003922
0.435294 0.521569 0.003922
0.458824 0.521569 0.003922
0.482353 0.521569 0.003922
0.509804 0.521569 0.003922
0.537255 0.517647 0.000000
0.556863 0.517647 0.000000
0.584314 0.521569 0.000000
0.611765 0.521569 0.000000
0.631373 0.525490 0.000000
0.650980 0.525490 0.000000
0.678431 0.529412 0.000000
0.701961 0.529412 0.000000
0.721569 0.529412 0.000000
0.749020 0.529412 0.000000
0.768627 0.529412 0.000000
0.792157 0.529412 0.000000
0.815686 0.529412 0.000000
0.839216 0.529412 0.000000
0.862745 0.525490 0.000000
0.886275 0.525490 0.000000
0.905882 0.525490 0.000000
0.023529 0.552941 0.011765
0.054902 0.549020 0.011765
0.082353 0.549020 0.011765
0.105882 0.549020 0.011765
0.137255 0.549020 0.007843
0.160784 0.549020 0.007843
0.188235 0.549020 0.007843
0.219608 0.545098 0.007843
0.247059 0.545098 0.007843
0.274510 0.545098 0.007843
0.298039 0.545098 0.003922
0.329412 0.545098 0.003922
0.356863 0.545098 0.003922
0.376471 0.545098 0.003922
0.407843 0.541176 0.003922
0.431373 0.541176 0.003922
0.458824 0.541176 0.000000
0.478431 0.541176 0.000000
0.509804 0.541176 0.000000
0.533333 0.541176 0.000000
0.556863 0.537255 0.000000
0.580392 0.541176 0.000000
0.607843 0.541176 0.000000
0.631373 0.545098 0.000000
0.650980 0.545098 0.000000
0.678431 0.549020 0.000000
0.698039 0.549020 0.000000
0.721569 0.552941 0.000000
0.745098 0.549020 0.000000
0.768627 0.549020 0.000000
0.792157 0.549020 0.000000
0.811765 0.549020 0.000000
0.839216 0.549020 0.000000
0.862745 0.549020 0.000000
0.882353 0.549020 0.000000
0.905882 0.545098 0.000000
0.023529 0.576471 0.007843
0.050980 0.576471 0.007843
0.078431 0.576471 0.007843
0.101961 0.572549 0.007843
0.133333 0.572549 0.007843
0.160784 0.572549 0.003922
0.184314 0.572549 0.003922
0.215686 0.572549 0.003922
0.247059 0.572549 0.003922
0.270588 0.568627 0.003922
0.298039 0.568627 0.003922
0.325490 0.568627 0.000000
0.352941 0.568627 0.000000
0.372549 0.568627 0.000000
0.403922 0.568627 0.000000
0.431373 0.564706 0.000000
0.454902 0.564706 0.000000
0.478431 0.564706 0.000000
0.505882 0.564706 0.000000
0.533333 0.564706 0.000000
0.552941 0.564706 0.000000
0.580392 0.568627 0.000000
0.607843 0.564706 0.000000
0.627451 0.568627 0.000000
0.647059 0.568627 0.000000
0.674510 0.572549 0.000000
0.698039 0.572549 0.000000
0.717647 0.576471 0.000000
0.745098 0.576471 0.000000
0.764706 0.576471 0.000000
0.788235 0.572549 0.000000
0.811765 0.572549 0.000000
0.835294 0.572549 0.000000
0.858824 0.572549 0.000000
0.882353 0.572549 0.000000
0.901961 0.572549 0.000000
0.019608 0.600000 0.007843
0.050980 0.600000 0.003922
0.074510 0.600000 0.003922
0.101961 0.600000 0.003922
0.129412 0.596078 0.003922
0.156863 0.596078 0.003922
0.184314 0.596078 0.003922
0.211765 0.596078 0.000000
0.243137 0.596078 0.000000
0.270588 0.596078 0.000000
0.294118 0.592157 0.000000
0.325490 0.592157 0.000000
0.349020 0.592157 0.000000
0.372549 0.592157 0.000000
0.403922 0.592157 0.000000
0.427451 0.592157 0.000000
0.454902 0.588235 0.000000
0.474510 0.588235 0.000000
0.505882 0.588235 0.000000
0.529412 0.588235 0.000000
0.552941 0.588235 0.000000
0.576471 0.588235 0.000000
0.603922 0.588235 0.000000
0.627451 0.592157 0.000000
0.647059 0.588235 0.000000
0.674510 0.592157 0.000000
0.694118 0.592157 0.000000
0.717647 0.596078 0.000000
0.741176 0.596078 0.000000
0.764706 0.596078 0.000000
0.784314 0.596078 0.000000
0.807843 0.592157 0.000000
0.835294 0.592157 0.000000
0.854902 0.592157 0.000000
0.878431 0.592157 0.000000
0.901961 0.592157 0.000000
0.019608 0.615686 0.003922
0.047059 0.615686 0.003922
0.074510 0.615686 0.003922
0.098039 0.615686 0.003922
0.129412 0.615686 0.000000
0.156863 0.611765 0.000000
0.180392 0.611765 0.000000
0.211765 0.611765 0.000000
0.243137 0.611765 0.000000
0.266667 0.611765 0.000000
0.294118 0.611765 0.000000
0.321569 0.607843 0.000000
0.349020 0.607843 0.000000
0.368627 0.607843 0.000000
0.400000 0.607843 0.000000
0.427451 0.607843 0.000000
0.450980 0.607843 0.000000
0.474510 0.607843 0.000000
0.505882 0.603922 0.000000
0.529412 0.603922 0.000000
0.552941 0.603922 0.000000
0.576471 0.603922 0.000000
0.603922 0.603922 0.000000
