luts/full/velvet.cube
TITLE "velvet (full)"
LUT_3D_SIZE 8
0.066667 0.039216 0.054902
0.200000 0.043137 0.050980
0.337255 0.047059 0.047059
0.470588 0.047059 0.043137
0.596078 0.047059 0.039216
0.721569 0.054902 0.035294
0.835294 0.054902 0.031373
0.956863 0.050980 0.023529
0.058824 0.164706 0.047059
0.192157 0.164706 0.043137
0.329412 0.168627 0.039216
0.462745 0.168627 0.035294
0.588235 0.168627 0.031373
0.709804 0.180392 0.023529
0.823529 0.180392 0.019608
0.941176 0.176471 0.011765
0.050980 0.290196 0.035294
0.184314 0.286275 0.035294
0.317647 0.290196 0.031373
0.450980 0.290196 0.023529
0.576471 0.290196 0.019608
0.698039 0.301961 0.011765
0.815686 0.301961 0.007843
0.929412 0.298039 0.000000
0.039216 0.415686 0.023529
0.176471 0.411765 0.023529
0.309804 0.411765 0.019608
0.443137 0.407843 0.015686
0.568627 0.407843 0.007843
0.690196 0.419608 0.003922
0.803922 0.419608 0.000000
0.917647 0.415686 0.000000
0.027451 0.529412 0.015686
0.164706 0.529412 0.011765
0.301961 0.525490 0.007843
0.435294 0.521569 0.003922
0.556863 0.517647 0.000000
0.678431 0.529412 0.000000
0.792157 0.529412 0.000000
0.905882 0.525490 0.000000
0.015686 0.647059 0.000000
0.152941 0.643137 0.000000
0.290196 0.639216 0.000000
0.423529 0.635294 0.000000
0.549020 0.631373 0.000000
0.670588 0.635294 0.000000
0.784314 0.635294 0.000000
0.898039 0.631373 0.000000
0.000000 0.752941 0.000000
0.141176 0.749020 0.000000
0.278431 0.745098 0.000000
0.411765 0.741176 0.000000
0.537255 0.737255 0.000000
0.658824 0.737255 0.000000
0.772549 0.733333 0.000000
0.886275 0.729412 0.000000
0.000000 0.850980 0.000000
0.129412 0.847059 0.000000
0.266667 0.843137 0.000000
0.403922 0.839216 0.000000
0.529412 0.839216 0.000000
0.650980 0.835294 0.000000
0.764706 0.831373 0.000000
0.878431 0.827451 0.000000
0.066667 0.043137 0.172549
0.200000 0.043137 0.168627
0.337255 0.047059 0.168627
0.470588 0.047059 0.164706
0.596078 0.047059 0.160784
0.717647 0.054902 0.156863
0.835294 0.054902 0.152941
0.952941 0.050980 0.149020
0.058824 0.164706 0.164706
0.192157 0.168627 0.160784
0.325490 0.172549 0.160784
0.458824 0.172549 0.156863
0.584314 0.180392 0.152941
0.705882 0.184314 0.149020
0.819608 0.180392 0.145098
0.937255 0.176471 0.141176
0.047059 0.294118 0.156863
0.184314 0.294118 0.152941
0.317647 0.294118 0.152941
0.450980 0.294118 0.149020
0.572549 0.301961 0.141176
0.694118 0.305882 0.137255
0.807843 0.301961 0.133333
0.925490 0.298039 0.129412
0.039216 0.415686 0.145098
0.176471 0.415686 0.145098
0.309804 0.411765 0.141176
0.443137 0.411765 0.137255
0.564706 0.419608 0.133333
0.686275 0.423529 0.129412
0.800000 0.419608 0.121569
0.913725 0.415686 0.117647
0.027451 0.529412 0.137255
0.164706 0.533333 0.133333
0.301961 0.529412 0.129412
0.431373 0.529412 0.129412
0.556863 0.529412 0.125490
0.674510 0.529412 0.117647
0.788235 0.529412 0.113725
0.905882 0.525490 0.105882
0.015686 0.643137 0.125490
0.152941 0.647059 0.121569
0.290196 0.647059 0.117647
0.423529 0.643137 0.117647
0.549020 0.639216 0.113725
0.666667 0.635294 0.109804
0.780392 0.635294 0.101961
0.894118 0.631373 0.098039
0.000000 0.752941 0.113725
0.141176 0.745098 0.109804
0.278431 0.745098 0.109804
0.415686 0.741176 0.105882
0.537255 0.737255 0.101961
0.658824 0.733333 0.098039
0.772549 0.733333 0.094118
0.886275 0.729412 0.086275
0.000000 0.850980 0.098039
0.129412 0.847059 0.098039
0.270588 0.843137 0.094118
0.403922 0.839216 0.094118
0.529412 0.835294 0.090196
0.650980 0.831373 0.086275
0.764706 0.831373 0.082353
0.874510 0.827451 0.078431
0.062745 0.047059 0.294118
0.200000 0.043137 0.290196
0.333333 0.047059 0.286275
0.466667 0.047059 0.286275
0.596078 0.047059 0.282353
0.717647 0.054902 0.278431
0.835294 0.054902 0.278431
0.952941 0.050980 0.274510
0.054902 0.168627 0.282353
0.192157 0.172549 0.278431
0.325490 0.172549 0.278431
0.454902 0.176471 0.274510
0.580392 0.180392 0.270588
0.701961 0.180392 0.270588
0.819608 0.176471 0.266667
0.933333 0.172549 0.262745
0.047059 0.294118 0.274510
0.184314 0.294118 0.274510
0.317647 0.294118 0.270588
0.447059 0.305882 0.266667
0.568627 0.305882 0.262745
0.690196 0.301961 0.258824
0.803922 0.301961 0.254902
0.921569 0.298039 0.250980
0.035294 0.415686 0.266667
0.172549 0.415686 0.262745
0.309804 0.419608 0.262745
0.439216 0.423529 0.258824
0.560784 0.423529 0.254902
0.682353 0.419608 0.250980
0.796078 0.419608 0.247059
0.909804 0.415686 0.243137
0.027451 0.529412 0.258824
0.164706 0.537255 0.254902
0.301961 0.537255 0.254902
0.431373 0.533333 0.250980
0.552941 0.533333 0.247059
0.674510 0.529412 0.243137
0.788235 0.529412 0.239216
0.901961 0.525490 0.231373
0.011765 0.643137 0.247059
0.152941 0.647059 0.243137
0.290196 0.643137 0.243137
0.423529 0.639216 0.239216
0.545098 0.639216 0.239216
0.666667 0.635294 0.235294
0.776471 0.631373 0.227451
0.890196 0.631373 0.223529
0.000000 0.749020 0.235294
0.141176 0.745098 0.235294
0.282353 0.741176 0.235294
0.415686 0.737255 0.231373
0.537255 0.737255 0.227451
0.658824 0.733333 0.223529
0.768627 0.729412 0.219608
0.882353 0.729412 0.215686
0.000000 0.850980 0.223529
0.129412 0.843137 0.223529
0.270588 0.839216 0.223529
0.403922 0.835294 0.219608
0.529412 0.835294 0.215686
0.650980 0.831373 0.211765
0.760784 0.827451 0.211765
0.874510 0.823529 0.207843
0.062745 0.054902 0.407843
0.200000 0.050980 0.407843
0.333333 0.047059 0.403922
0.466667 0.047059 0.403922
0.596078 0.047059 0.400000
0.717647 0.054902 0.400000
0.831373 0.054902 0.396078
0.949020 0.050980 0.396078
0.054902 0.176471 0.400000
0.188235 0.172549 0.396078
0.325490 0.168627 0.392157
0.454902 0.176471 0.392157
0.580392 0.180392 0.388235
0.701961 0.180392 0.388235
0.815686 0.176471 0.384314
0.933333 0.172549 0.380392
0.047059 0.298039 0.392157
0.180392 0.298039 0.388235
0.317647 0.301961 0.384314
0.447059 0.305882 0.380392
0.568627 0.305882 0.380392
0.690196 0.301961 0.376471
0.803922 0.301961 0.372549
0.917647 0.298039 0.372549
0.035294 0.415686 0.384314
0.172549 0.415686 0.380392
0.309804 0.423529 0.376471
0.439216 0.427451 0.376471
0.560784 0.423529 0.372549
0.678431 0.419608 0.368627
0.792157 0.419608 0.364706
0.905882 0.415686 0.360784
0.023529 0.529412 0.376471
0.164706 0.537255 0.372549
0.301961 0.537255 0.368627
0.431373 0.533333 0.368627
0.552941 0.533333 0.364706
0.670588 0.529412 0.360784
0.784314 0.525490 0.356863
0.898039 0.525490 0.352941
0.011765 0.643137 0.364706
0.152941 0.647059 0.360784
0.290196 0.643137 0.360784
0.423529 0.639216 0.360784
0.545098 0.635294 0.356863
0.666667 0.635294 0.352941
0.776471 0.631373 0.349020
0.890196 0.631373 0.345098
0.000000 0.749020 0.352941
0.141176 0.745098 0.352941
0.282353 0.741176 0.352941
0.415686 0.737255 0.349020
0.537255 0.733333 0.349020
0.658824 0.733333 0.345098
0.768627 0.729412 0.341176
0.882353 0.725490 0.337255
0.000000 0.847059 0.345098
0.129412 0.843137 0.341176
0.270588 0.839216 0.341176
0.407843 0.835294 0.341176
0.529412 0.831373 0.337255
0.650980 0.827451 0.333333
0.760784 0.827451 0.333333
0.870588 0.823529 0.329412
0.062745 0.054902 0.521569
0.200000 0.050980 0.517647
0.337255 0.047059 0.513725
0.466667 0.043137 0.509804
0.592157 0.043137 0.509804
0.717647 0.054902 0.509804
0.831373 0.050980 0.505882
0.949020 0.047059 0.505882
0.050980 0.176471 0.509804
0.188235 0.180392 0.505882
0.325490 0.176471 0.501961
0.454902 0.176471 0.498039
0.580392 0.180392 0.498039
0.701961 0.180392 0.494118
0.815686 0.176471 0.494118
0.933333 0.172549 0.494118
0.043137 0.298039 0.501961
0.180392 0.305882 0.494118
0.313725 0.309804 0.490196
0.447059 0.309804 0.486275
0.568627 0.305882 0.486275
0.690196 0.301961 0.486275
0.803922 0.298039 0.482353
0.917647 0.294118 0.482353
0.035294 0.411765 0.490196
0.172549 0.423529 0.486275
0.305882 0.427451 0.482353
0.439216 0.423529 0.478431
0.560784 0.423529 0.478431
0.678431 0.419608 0.474510
0.792157 0.415686 0.474510
0.905882 0.415686 0.470588
0.023529 0.525490 0.482353
0.160784 0.537255 0.478431
0.298039 0.537255 0.474510
0.431373 0.533333 0.474510
0.552941 0.529412 0.470588
0.670588 0.529412 0.470588
0.780392 0.525490 0.466667
0.894118 0.525490 0.462745
0.011765 0.643137 0.474510
0.152941 0.647059 0.470588
0.290196 0.643137 0.466667
0.423529 0.639216 0.466667
0.545098 0.635294 0.462745
0.662745 0.635294 0.462745
0.772549 0.631373 0.458824
0.886275 0.627451 0.454902
0.000000 0.749020 0.462745
0.141176 0.745098 0.462745
0.282353 0.741176 0.458824
0.415686 0.737255 0.458824
0.537255 0.733333 0.458824
0.658824 0.729412 0.454902
0.768627 0.729412 0.450980
0.878431 0.725490 0.447059
0.000000 0.847059 0.454902
0.129412 0.843137 0.450980
0.270588 0.839216 0.450980
0.407843 0.835294 0.450980
0.529412 0.831373 0.447059
0.650980 0.827451 0.447059
0.760784 0.827451 0.443137
0.870588 0.823529 0.439216
0.058824 0.058824 0.631373
0.196078 0.058824 0.627451
0.333333 0.054902 0.623529
0.466667 0.050980 0.623529
0.592157 0.047059 0.619608
0.713725 0.050980 0.619608
0.831373 0.050980 0.615686
0.949020 0.047059 0.615686
0.050980 0.180392 0.619608
0.188235 0.192157 0.611765
0.321569 0.188235 0.611765
0.454902 0.184314 0.607843
0.580392 0.184314 0.603922
0.701961 0.180392 0.603922
0.815686 0.176471 0.603922
0.933333 0.172549 0.603922
0.039216 0.301961 0.611765
0.176471 0.313725 0.603922
0.313725 0.309804 0.600000
0.447059 0.305882 0.596078
0.568627 0.305882 0.592157
0.690196 0.301961 0.592157
0.800000 0.298039 0.592157
0.917647 0.294118 0.588235
0.031373 0.419608 0.600000
0.168627 0.431373 0.596078
0.305882 0.427451 0.592157
0.435294 0.423529 0.588235
0.560784 0.423529 0.584314
0.678431 0.419608 0.584314
0.788235 0.415686 0.580392
0.901961 0.411765 0.580392
0.019608 0.529412 0.592157
0.160784 0.537255 0.588235
0.298039 0.537255 0.584314
0.431373 0.533333 0.580392
0.552941 0.529412 0.576471
0.670588 0.529412 0.576471
0.780392 0.525490 0.572549
0.894118 0.521569 0.572549
0.011765 0.639216 0.584314
0.149020 0.643137 0.580392
0.290196 0.639216 0.576471
0.423529 0.639216 0.572549
0.545098 0.635294 0.572549
0.662745 0.631373 0.568627
0.772549 0.631373 0.568627
0.882353 0.627451 0.564706
0.000000 0.749020 0.572549
0.141176 0.741176 0.572549
0.278431 0.737255 0.568627
0.415686 0.733333 0.564706
0.537255 0.733333 0.564706
0.658824 0.729412 0.560784
0.764706 0.729412 0.560784
0.878431 0.725490 0.556863
0.000000 0.847059 0.564706
0.129412 0.843137 0.560784
0.270588 0.835294 0.560784
0.403922 0.831373 0.556863
0.529412 0.827451 0.556863
0.650980 0.827451 0.556863
0.760784 0.823529 0.552941
0.870588 0.823529 0.549020
0.058824 0.066667 0.729412
0.196078 0.062745 0.725490
0.333333 0.058824 0.725490
0.466667 0.058824 0.721569
0.592157 0.054902 0.717647
0.713725 0.050980 0.713725
0.831373 0.050980 0.713725
0.949020 0.047059 0.713725
0.047059 0.188235 0.721569
0.184314 0.192157 0.713725
0.321569 0.188235 0.709804
0.454902 0.184314 0.705882
0.580392 0.180392 0.701961
0.698039 0.180392 0.698039
0.815686 0.176471 0.698039
0.929412 0.168627 0.698039
0.035294 0.309804 0.709804
0.176471 0.313725 0.701961
0.313725 0.309804 0.694118
0.447059 0.305882 0.694118
0.568627 0.301961 0.690196
0.686275 0.301961 0.686275
0.800000 0.298039 0.686275
0.913725 0.294118 0.686275
0.027451 0.427451 0.698039
0.164706 0.427451 0.694118
0.305882 0.427451 0.686275
0.435294 0.423529 0.682353
0.560784 0.419608 0.678431
0.678431 0.419608 0.678431
0.788235 0.415686 0.674510
0.901961 0.411765 0.674510
0.015686 0.537255 0.690196
0.156863 0.537255 0.682353
0.298039 0.537255 0.678431
0.427451 0.533333 0.674510
0.552941 0.529412 0.670588
0.670588 0.529412 0.670588
0.780392 0.525490 0.666667
0.890196 0.521569 0.666667
0.007843 0.643137 0.678431
0.149020 0.643137 0.674510
0.290196 0.639216 0.670588
0.423529 0.635294 0.666667
0.545098 0.635294 0.662745
0.662745 0.631373 0.662745
0.772549 0.631373 0.658824
0.882353 0.627451 0.658824
0.000000 0.745098 0.670588
0.137255 0.741176 0.666667
0.278431 0.737255 0.662745
0.415686 0.733333 0.658824
0.537255 0.733333 0.658824
0.654902 0.729412 0.654902
0.764706 0.725490 0.654902
0.874510 0.725490 0.650980
0.000000 0.847059 0.662745
0.125490 0.839216 0.658824
0.270588 0.835294 0.654902
0.403922 0.831373 0.654902
0.529412 0.827451 0.650980
0.650980 0.827451 0.650980
0.760784 0.823529 0.647059
0.870588 0.823529 0.647059
0.058824 0.070588 0.835294
0.196078 0.066667 0.831373
0.333333 0.062745 0.827451
0.470588 0.058824 0.823529
0.596078 0.054902 0.819608
0.717647 0.054902 0.819608
0.827451 0.050980 0.815686
0.945098 0.047059 0.815686
0.047059 0.192157 0.823529
0.184314 0.188235 0.815686
0.321569 0.184314 0.811765
0.454902 0.184314 0.807843
0.580392 0.180392 0.803922
0.701961 0.176471 0.803922
0.815686 0.172549 0.800000
0.929412 0.168627 0.800000
0.035294 0.313725 0.811765
0.172549 0.309804 0.803922
0.313725 0.309804 0.796078
0.443137 0.305882 0.796078
0.568627 0.301961 0.792157
0.690196 0.298039 0.788235
0.800000 0.298039 0.788235
0.913725 0.294118 0.788235
0.023529 0.431373 0.803922
0.164706 0.427451 0.796078
0.301961 0.423529 0.788235
0.435294 0.423529 0.784314
0.560784 0.419608 0.780392
0.678431 0.419608 0.776471
0.788235 0.415686 0.776471
0.901961 0.411765 0.776471
0.011765 0.541176 0.792157
0.152941 0.537255 0.784314
0.294118 0.533333 0.780392
0.427451 0.533333 0.772549
0.549020 0.529412 0.768627
0.670588 0.525490 0.768627
0.780392 0.525490 0.764706
0.890196 0.521569 0.764706
0.003922 0.647059 0.780392
0.145098 0.643137 0.776471
0.286275 0.639216 0.772549
0.419608 0.635294 0.768627
0.545098 0.635294 0.764706
0.662745 0.631373 0.760784
0.772549 0.631373 0.756863
0.882353 0.627451 0.756863
0.000000 0.745098 0.772549
0.137255 0.741176 0.768627
0.278431 0.737255 0.764706
0.411765 0.733333 0.760784
0.537255 0.729412 0.756863
0.654902 0.729412 0.752941
0.764706 0.725490 0.752941
0.874510 0.725490 0.749020
0.000000 0.843137 0.764706
0.125490 0.839216 0.760784
0.266667 0.835294 0.756863
0.403922 0.831373 0.752941
0.529412 0.827451 0.749020
0.650980 0.823529 0.749020
0.760784 0.823529 0.745098
0.866667 0.819608 0.745098
